;Generated by Cura LulzBot Edition GCodeWriter Version: 2.6.69
;FLAVOR:RepRap
;TIME:8759
;Filament used: 4.66732m
;Layer height: 0.25
;Generated with Cura_SteamEngine 2.6.69
;This G-Code has been generated specifically for the LulzBot TAZ 5 with standard extruder
M140 S60    ; start bed heating up
G21                      ; set units to Millimetres
G90                      ; absolute positioning
M107                     ; disable fans
M82                      ; set extruder to absolute mode
G28 X0 Y0                ; home X and Y
G28 Z0                   ; home Z
G1 Z15.0 F{travel_speed} ; move extruder up
M117 Heating...                     ; progress indicator message on LCD
M109 R205  ; wait for extruder to reach printing temp
M190 S60    ; wait for bed to reach printing temp
G92 E0                   ; set extruder position to 0
G1 F200 E0               ; prime the nozzle with filament
G92 E0                   ; re-set extruder position to 0
G1 F{travel_speed}       ; set travel speed
M203 X192 Y208 Z3        ; set limits on travel speed
M117 TAZ 5 Printing...   ; progress indicator message on LCD

M221 S100
;LAYER_COUNT:79
;LAYER:0
M107
G0 F3937.5 X208.326 Y84.272 Z0.424
;TYPE:SKIRT
G1 F900 X208.521 Y83.801 E0.01698
G1 X208.787 Y83.366 E0.03397
G1 X209.117 Y82.979 E0.05091
G1 X209.504 Y82.647 E0.06789
G1 X209.939 Y82.381 E0.08488
G1 X210.409 Y82.185 E0.10184
G1 X210.904 Y82.066 E0.1188
G1 X211.418 Y82.025 E0.13597
G1 X218.407 Y82.027 E0.36878
G1 X218.915 Y82.067 E0.38575
G1 X219.41 Y82.186 E0.40271
G1 X220.074 Y82.488 E0.42701
G1 X222.685 Y84.049 E0.52834
G1 X227.537 Y86.668 E0.71201
G1 X232.493 Y88.993 E0.89435
G1 X234.948 Y90.021 E0.98301
G1 X240.141 Y91.938 E1.1674
G1 X245.382 Y93.543 E1.34998
G1 X250.723 Y94.854 E1.53318
G1 X253.345 Y95.378 E1.62224
G1 X258.784 Y96.232 E1.80564
G1 X264.221 Y96.772 E1.98764
G1 X269.714 Y97.006 E2.17078
G1 X278.407 Y97.027 E2.46035
G1 X278.915 Y97.068 E2.47732
G1 X279.41 Y97.188 E2.49429
G1 X279.88 Y97.384 E2.51125
G1 X280.314 Y97.651 E2.52822
G1 X280.701 Y97.983 E2.54521
G1 X281.031 Y98.371 E2.56218
G1 X281.297 Y98.806 E2.57916
G1 X281.491 Y99.276 E2.5961
G1 X281.61 Y99.772 E2.61309
G1 X281.649 Y100.277 E2.62996
G1 X281.648 Y111.763 E3.01256
G1 X281.608 Y112.271 E3.02954
G1 X281.489 Y112.767 E3.04653
G1 X281.205 Y113.401 E3.06967
G1 X277.743 Y119.334 E3.29848
G1 X275.28 Y124.224 E3.48087
G1 X273.091 Y129.259 E3.66375
G1 X272.101 Y131.832 E3.75558
G1 X271.216 Y134.344 E3.8443
G1 X269.608 Y139.6 E4.02739
G1 X268.295 Y144.962 E4.21128
G1 X267.769 Y147.58 E4.30022
G1 X267.307 Y150.284 E4.3916
G1 X266.613 Y155.729 E4.57444
G1 X266.227 Y161.183 E4.75657
G1 X266.15 Y166.666 E4.93923
G1 X266.383 Y172.125 E5.12124
G1 X266.925 Y177.566 E5.30338
G1 X267.781 Y183.016 E5.48714
G1 X268.306 Y185.632 E5.57602
G1 X268.921 Y188.302 E5.66729
G1 X270.383 Y193.609 E5.85065
G1 X272.134 Y198.798 E6.03308
G1 X273.096 Y201.295 E6.12221
G1 X275.299 Y206.36 E6.3062
G1 X277.758 Y211.238 E6.48816
G1 X281.196 Y217.116 E6.71499
G1 X281.418 Y217.575 E6.73198
G1 X281.566 Y218.062 E6.74893
G1 X281.641 Y218.755 E6.77215
G1 X281.648 Y230.255 E7.15522
G1 X281.608 Y230.763 E7.17219
G1 X281.49 Y231.259 E7.18918
G1 X281.295 Y231.729 E7.20613
G1 X281.03 Y232.164 E7.22309
G1 X280.699 Y232.552 E7.24008
G1 X280.312 Y232.883 E7.25704
G1 X279.878 Y233.15 E7.27402
G1 X279.408 Y233.346 E7.29098
G1 X278.913 Y233.466 E7.30795
G1 X278.402 Y233.507 E7.32502
G1 X271.14 Y233.516 E7.56692
G1 X265.599 Y233.673 E7.75157
G1 X260.157 Y234.135 E7.9335
G1 X254.756 Y234.905 E8.11523
G1 X249.332 Y235.993 E8.2995
G1 X246.762 Y236.623 E8.38764
G1 X244.099 Y237.355 E8.47964
G1 X238.872 Y239.036 E8.66253
G1 X233.764 Y241.003 E8.84486
G1 X228.76 Y243.265 E9.02779
G1 X226.346 Y244.48 E9.11781
G1 X220.001 Y248.083 E9.36086
G1 X219.539 Y248.299 E9.37785
G1 X219.05 Y248.441 E9.39481
G1 X218.396 Y248.507 E9.41671
G1 X211.417 Y248.507 E9.64918
G1 X210.909 Y248.467 E9.66615
G1 X210.414 Y248.348 E9.68311
G1 X209.943 Y248.153 E9.70009
G1 X209.508 Y247.887 E9.71708
G1 X209.121 Y247.557 E9.73402
G1 X208.789 Y247.17 E9.751
G1 X208.523 Y246.735 E9.76799
G1 X208.327 Y246.265 E9.78495
G1 X208.208 Y245.77 E9.80191
G1 X208.167 Y245.257 E9.81905
G1 X208.167 Y85.275 E15.14811
G1 X208.207 Y84.767 E15.16508
G1 X208.326 Y84.272 E15.18204
G1 F600 E13.43204
G0 F3937.5 X210.743 Y86.03
G0 X212.172 Y86.03
G0 X212.228 Y86.086
G0 X212.158 Y86.016
;TYPE:WALL-INNER
G1 F600 E15.18204
G1 F900 X217.658 Y86.016 E15.36525
G1 X217.658 Y101.016 E15.8649
G1 X277.658 Y101.016 E17.86353
G1 X277.658 Y111.454 E18.21122
G1 X273.096 Y116.016 E18.42613
G1 X269.158 Y116.016 E18.5573
G1 X269.158 Y107.516 E18.84044
G1 X219.858 Y107.516 E20.48264
G1 X219.858 Y116.231 E20.77294
G1 X219.825 Y116.532 E20.78303
G1 X219.734 Y116.797 E20.79236
G1 X219.592 Y117.03 E20.80145
G1 X219.401 Y117.227 E20.81059
G1 X219.176 Y117.374 E20.81954
G1 X218.355 Y117.686 E20.8488
G1 X217.851 Y118.018 E20.8689
G1 X217.431 Y118.452 E20.88902
G1 X217.115 Y118.967 E20.90915
G1 X216.92 Y119.539 E20.92928
G1 X216.858 Y120.097 E20.94798
G1 X216.858 Y210.435 E23.95717
G1 X216.92 Y210.993 E23.97587
G1 X217.115 Y211.565 E23.996
G1 X217.431 Y212.08 E24.01613
G1 X217.851 Y212.514 E24.03625
G1 X218.355 Y212.846 E24.05635
G1 X219.176 Y213.158 E24.08561
G1 X219.401 Y213.305 E24.09456
G1 X219.592 Y213.502 E24.1037
G1 X219.734 Y213.735 E24.11279
G1 X219.825 Y214 E24.12212
G1 X219.858 Y214.301 E24.13221
G1 X219.858 Y223.016 E24.42251
G1 X269.158 Y223.016 E26.06471
G1 X269.158 Y214.516 E26.34785
G1 X273.096 Y214.516 E26.47902
G1 X277.658 Y219.078 E26.69393
G1 X277.658 Y229.516 E27.04162
G1 X217.658 Y229.516 E29.04024
G1 X217.658 Y244.516 E29.5399
G1 X212.158 Y244.516 E29.72311
G1 X212.158 Y86.016 E35.0028
G0 F3937.5 X211.658 Y85.516
;TYPE:WALL-OUTER
G1 F900 X218.158 Y85.516 E35.21932
G1 X218.158 Y100.516 E35.71897
G1 X278.158 Y100.516 E37.71759
G1 X278.158 Y111.662 E38.08887
G1 X273.304 Y116.516 E38.31753
G1 X268.658 Y116.516 E38.47229
G1 X268.658 Y108.016 E38.75543
G1 X220.358 Y108.016 E40.36432
G1 X220.358 Y116.257 E40.63883
G1 X220.316 Y116.643 E40.65176
G1 X220.189 Y117.012 E40.66476
G1 X219.991 Y117.336 E40.67741
G1 X219.722 Y117.614 E40.6903
G1 X219.405 Y117.822 E40.70293
G1 X218.584 Y118.134 E40.73218
G1 X218.172 Y118.405 E40.74861
G1 X217.828 Y118.76 E40.76508
G1 X217.57 Y119.181 E40.78152
G1 X217.411 Y119.648 E40.79796
G1 X217.358 Y120.125 E40.81394
G1 X217.358 Y210.407 E43.82127
G1 X217.411 Y210.884 E43.83726
G1 X217.57 Y211.351 E43.85369
G1 X217.828 Y211.772 E43.87014
G1 X218.172 Y212.127 E43.8866
G1 X218.584 Y212.398 E43.90303
G1 X219.405 Y212.71 E43.93229
G1 X219.722 Y212.918 E43.94492
G1 X219.991 Y213.196 E43.9578
G1 X220.189 Y213.52 E43.97045
G1 X220.316 Y213.889 E43.98345
G1 X220.358 Y214.275 E43.99638
G1 X220.358 Y222.516 E44.27089
G1 X268.658 Y222.516 E45.87978
G1 X268.658 Y214.016 E46.16292
G1 X273.304 Y214.016 E46.31768
G1 X278.158 Y218.87 E46.54634
G1 X278.158 Y230.016 E46.91762
G1 X218.158 Y230.016 E48.91624
G1 X218.158 Y245.016 E49.4159
G1 X211.658 Y245.016 E49.63242
G1 X211.658 Y85.516 E54.94542
G0 F3937.5 X211.908 Y85.516
G0 X212.228 Y86.086
G0 X212.382 Y86.517
;TYPE:SKIN
G1 F900 X217.432 Y91.567 E55.18331
G1 X217.52 Y91.655
G0 F3937.5 X217.432 Y90.86
G1 F900 X212.813 Y86.241 E55.4009
G1 X212.725 Y86.153
G0 F3937.5 X213.52 Y86.241
G1 F900 X217.432 Y90.153 E55.58519
G1 X217.52 Y90.241
G0 F3937.5 X217.432 Y89.446
G1 F900 X214.227 Y86.241 E55.73617
G1 X214.139 Y86.153
G0 F3937.5 X214.935 Y86.241
G1 F900 X217.432 Y88.739 E55.85382
G1 X217.52 Y88.827
G0 F3937.5 X217.432 Y88.031
G1 F900 X215.642 Y86.241 E55.93815
G1 X215.554 Y86.153
G0 F3937.5 X216.349 Y86.241
G1 F900 X217.432 Y87.324 E55.98917
G1 X217.52 Y87.412
G0 F3937.5 X217.432 Y86.617
G1 F900 X217.056 Y86.241 E56.00688
G0 F3937.5 X212.382 Y87.224
G1 F900 X217.432 Y92.274 E56.24477
G1 X217.52 Y92.362
G0 F3937.5 X217.432 Y92.981
G1 F900 X212.382 Y87.931 E56.48267
G1 X212.294 Y87.843
G0 F3937.5 X212.382 Y88.638
G1 F900 X217.432 Y93.688 E56.72056
G1 X217.52 Y93.776
G0 F3937.5 X217.432 Y94.395
G1 F900 X212.382 Y89.345 E56.95846
G1 X212.294 Y89.257
G0 F3937.5 X212.382 Y90.052
G1 F900 X217.432 Y95.103 E57.19638
G1 X217.52 Y95.191
G0 F3937.5 X217.432 Y95.81
G1 F900 X212.382 Y90.759 E57.4343
G1 X212.294 Y90.671
G0 F3937.5 X212.382 Y91.467
G1 F900 X217.432 Y96.517 E57.67219
G1 X217.52 Y96.605
G0 F3937.5 X217.432 Y97.224
G1 F900 X212.382 Y92.174 E57.91009
G1 X212.294 Y92.086
G0 F3937.5 X212.382 Y92.881
G1 F900 X217.432 Y97.931 E58.14798
G1 X217.52 Y98.019
G0 F3937.5 X217.432 Y98.638
G1 F900 X212.382 Y93.588 E58.38588
G1 X212.294 Y93.5
G0 F3937.5 X212.382 Y94.295
G1 F900 X217.432 Y99.345 E58.62377
G1 X217.52 Y99.433
G0 F3937.5 X217.432 Y100.052
G1 F900 X212.382 Y95.002 E58.86167
G1 X212.294 Y94.914
G0 F3937.5 X212.382 Y95.709
G1 F900 X217.432 Y100.759 E59.09956
G1 X217.52 Y100.847
G0 F3937.5 X217.913 Y101.24
G1 F900 X223.963 Y107.29 E59.38457
G1 X224.051 Y107.378
G0 F3937.5 X224.67 Y107.29
G1 F900 X218.62 Y101.24 E59.66957
G1 X218.532 Y101.152
G0 F3937.5 X219.327 Y101.24
G1 F900 X225.377 Y107.29 E59.95457
G1 X225.465 Y107.378
G0 F3937.5 X226.084 Y107.29
G1 F900 X220.034 Y101.24 E60.23958
G1 X219.946 Y101.152
G0 F3937.5 X220.741 Y101.24
G1 F900 X226.791 Y107.29 E60.52458
G1 X226.879 Y107.378
G0 F3937.5 X227.498 Y107.29
G1 F900 X221.448 Y101.24 E60.80958
G1 X221.36 Y101.152
G0 F3937.5 X222.155 Y101.24
G1 F900 X228.205 Y107.29 E61.09458
G1 X228.293 Y107.378
G0 F3937.5 X228.913 Y107.29
G1 F900 X222.863 Y101.24 E61.37959
G1 X222.775 Y101.152
G0 F3937.5 X223.57 Y101.24
G1 F900 X229.62 Y107.29 E61.66459
G1 X229.708 Y107.378
G0 F3937.5 X230.327 Y107.29
G1 F900 X224.277 Y101.24 E61.94959
G1 X224.189 Y101.152
G0 F3937.5 X224.984 Y101.24
G1 F900 X231.034 Y107.29 E62.2346
G1 X231.122 Y107.378
G0 F3937.5 X231.741 Y107.29
G1 F900 X225.691 Y101.24 E62.5196
G1 X225.603 Y101.152
G0 F3937.5 X226.398 Y101.24
G1 F900 X232.448 Y107.29 E62.8046
G1 X232.536 Y107.378
G0 F3937.5 X233.155 Y107.29
G1 F900 X227.105 Y101.24 E63.08961
G1 X227.017 Y101.152
G0 F3937.5 X227.812 Y101.24
G1 F900 X233.862 Y107.29 E63.37461
G1 X233.95 Y107.378
G0 F3937.5 X234.569 Y107.29
G1 F900 X228.519 Y101.24 E63.65961
G1 X228.431 Y101.152
G0 F3937.5 X229.227 Y101.24
G1 F900 X235.277 Y107.29 E63.94462
G1 X235.365 Y107.378
G0 F3937.5 X235.984 Y107.29
G1 F900 X229.934 Y101.24 E64.22962
G1 X229.846 Y101.152
G0 F3937.5 X230.641 Y101.24
G1 F900 X236.691 Y107.29 E64.51462
G1 X236.779 Y107.378
G0 F3937.5 X237.398 Y107.29
G1 F900 X231.348 Y101.24 E64.79963
G1 X231.26 Y101.152
G0 F3937.5 X232.055 Y101.24
G1 F900 X238.105 Y107.29 E65.08463
G1 X238.193 Y107.378
G0 F3937.5 X238.812 Y107.29
G1 F900 X232.762 Y101.24 E65.36963
G1 X232.674 Y101.152
G0 F3937.5 X233.469 Y101.24
G1 F900 X239.519 Y107.29 E65.65464
G1 X239.607 Y107.378
G0 F3937.5 X240.226 Y107.29
G1 F900 X234.176 Y101.24 E65.93964
G1 X234.088 Y101.152
G0 F3937.5 X234.883 Y101.24
G1 F900 X240.933 Y107.29 E66.22464
G1 X241.021 Y107.378
G0 F3937.5 X241.641 Y107.29
G1 F900 X235.591 Y101.24 E66.50965
G1 X235.503 Y101.152
G0 F3937.5 X236.298 Y101.24
G1 F900 X242.348 Y107.29 E66.79465
G1 X242.436 Y107.378
G0 F3937.5 X243.055 Y107.29
G1 F900 X237.005 Y101.24 E67.07965
G1 X236.917 Y101.152
G0 F3937.5 X237.712 Y101.24
G1 F900 X243.762 Y107.29 E67.36465
G1 X243.85 Y107.378
G0 F3937.5 X244.469 Y107.29
G1 F900 X238.419 Y101.24 E67.64966
G1 X238.331 Y101.152
G0 F3937.5 X239.126 Y101.24
G1 F900 X245.176 Y107.29 E67.93466
G1 X245.264 Y107.378
G0 F3937.5 X245.883 Y107.29
G1 F900 X239.833 Y101.24 E68.21966
G1 X239.745 Y101.152
G0 F3937.5 X240.54 Y101.24
G1 F900 X246.59 Y107.29 E68.50467
G1 X246.678 Y107.378
G0 F3937.5 X247.297 Y107.29
G1 F900 X241.247 Y101.24 E68.78967
G1 X241.159 Y101.152
G0 F3937.5 X241.954 Y101.24
G1 F900 X248.004 Y107.29 E69.07467
G1 X248.092 Y107.378
G0 F3937.5 X248.712 Y107.29
G1 F900 X242.662 Y101.24 E69.35968
G1 X242.574 Y101.152
G0 F3937.5 X243.369 Y101.24
G1 F900 X249.419 Y107.29 E69.64468
G1 X249.507 Y107.378
G0 F3937.5 X250.126 Y107.29
G1 F900 X244.076 Y101.24 E69.92968
G1 X243.988 Y101.152
G0 F3937.5 X244.783 Y101.24
G1 F900 X250.833 Y107.29 E70.21469
G1 X250.921 Y107.378
G0 F3937.5 X251.54 Y107.29
G1 F900 X245.49 Y101.24 E70.49969
G1 X245.402 Y101.152
G0 F3937.5 X246.197 Y101.24
G1 F900 X252.247 Y107.29 E70.78469
G1 X252.335 Y107.378
G0 F3937.5 X252.954 Y107.29
G1 F900 X246.904 Y101.24 E71.0697
G1 X246.816 Y101.152
G0 F3937.5 X247.611 Y101.24
G1 F900 X253.661 Y107.29 E71.3547
G1 X253.749 Y107.378
G0 F3937.5 X254.368 Y107.29
G1 F900 X248.318 Y101.24 E71.6397
G1 X248.23 Y101.152
G0 F3937.5 X249.026 Y101.24
G1 F900 X255.076 Y107.29 E71.92471
G1 X255.164 Y107.378
G0 F3937.5 X255.783 Y107.29
G1 F900 X249.733 Y101.24 E72.20971
G1 X249.645 Y101.152
G0 F3937.5 X250.44 Y101.24
G1 F900 X256.49 Y107.29 E72.49471
G1 X256.578 Y107.378
G0 F3937.5 X257.197 Y107.29
G1 F900 X251.147 Y101.24 E72.77972
G1 X251.059 Y101.152
G0 F3937.5 X251.854 Y101.24
G1 F900 X257.904 Y107.29 E73.06472
G1 X257.992 Y107.378
G0 F3937.5 X258.611 Y107.29
G1 F900 X252.561 Y101.24 E73.34972
G1 X252.473 Y101.152
G0 F3937.5 X253.268 Y101.24
G1 F900 X259.318 Y107.29 E73.63472
G1 X259.406 Y107.378
G0 F3937.5 X260.025 Y107.29
G1 F900 X253.975 Y101.24 E73.91973
G1 X253.887 Y101.152
G0 F3937.5 X254.682 Y101.24
G1 F900 X260.732 Y107.29 E74.20473
G1 X260.82 Y107.378
G0 F3937.5 X261.44 Y107.29
G1 F900 X255.389 Y101.24 E74.48976
G1 X255.301 Y101.152
G0 F3937.5 X256.097 Y101.24
G1 F900 X262.147 Y107.29 E74.77476
G1 X262.235 Y107.378
G0 F3937.5 X262.854 Y107.29
G1 F900 X256.804 Y101.24 E75.05976
G1 X256.716 Y101.152
G0 F3937.5 X257.511 Y101.24
G1 F900 X263.561 Y107.29 E75.34477
G1 X263.649 Y107.378
G0 F3937.5 X264.268 Y107.29
G1 F900 X258.218 Y101.24 E75.62977
G1 X258.13 Y101.152
G0 F3937.5 X258.925 Y101.24
G1 F900 X264.975 Y107.29 E75.91477
G1 X265.063 Y107.378
G0 F3937.5 X265.682 Y107.29
G1 F900 X259.632 Y101.24 E76.19978
G1 X259.544 Y101.152
G0 F3937.5 X260.339 Y101.24
G1 F900 X266.389 Y107.29 E76.48478
G1 X266.477 Y107.378
G0 F3937.5 X267.096 Y107.29
G1 F900 X261.046 Y101.24 E76.76978
G1 X260.958 Y101.152
G0 F3937.5 X261.753 Y101.24
G1 F900 X267.803 Y107.29 E77.05479
G1 X267.891 Y107.378
G0 F3937.5 X268.511 Y107.29
G1 F900 X262.461 Y101.24 E77.33979
G1 X262.373 Y101.152
G0 F3937.5 X263.168 Y101.24
G1 F900 X269.218 Y107.29 E77.62479
G1 X269.306 Y107.378
G0 F3937.5 X269.382 Y107.454
G1 F900 X275.36 Y113.432 E77.9064
G1 X275.448 Y113.52
G0 F3937.5 X275.713 Y113.079
G1 F900 X263.875 Y101.24 E78.46409
G1 X263.787 Y101.152
G0 F3937.5 X264.582 Y101.24
G1 F900 X276.067 Y112.725 E79.00513
G1 X276.155 Y112.813
G0 F3937.5 X276.42 Y112.371
G1 F900 X265.289 Y101.24 E79.52949
G1 X265.201 Y101.152
G0 F3937.5 X265.996 Y101.24
G1 F900 X276.774 Y112.018 E80.03722
G1 X276.862 Y112.106
G0 F3937.5 X277.127 Y111.664
G1 F900 X266.703 Y101.24 E80.52827
G1 X266.615 Y101.152
G0 F3937.5 X267.41 Y101.24
G1 F900 X277.432 Y111.262 E81.00038
G1 X277.52 Y111.35
G0 F3937.5 X277.432 Y110.555
G1 F900 X268.117 Y101.24 E81.4392
G1 X268.029 Y101.152
G0 F3937.5 X268.825 Y101.24
G1 F900 X277.432 Y109.848 E81.84468
G1 X277.52 Y109.936
G0 F3937.5 X277.432 Y109.141
G1 F900 X269.532 Y101.24 E82.21685
G1 X269.444 Y101.152
G0 F3937.5 X270.239 Y101.24
G1 F900 X277.432 Y108.434 E82.55572
G1 X277.52 Y108.522
G0 F3937.5 X277.432 Y107.727
G1 F900 X270.946 Y101.24 E82.86129
G1 X270.858 Y101.152
G0 F3937.5 X271.653 Y101.24
G1 F900 X277.432 Y107.019 E83.13353
G1 X277.52 Y107.107
G0 F3937.5 X277.432 Y106.312
G1 F900 X272.36 Y101.24 E83.37246
G1 X272.272 Y101.152
G0 F3937.5 X273.067 Y101.24
G1 F900 X277.432 Y105.605 E83.57809
G1 X277.52 Y105.693
G0 F3937.5 X277.432 Y104.898
G1 F900 X273.774 Y101.24 E83.75041
G1 X273.686 Y101.152
G0 F3937.5 X274.481 Y101.24
G1 F900 X277.432 Y104.191 E83.88942
G1 X277.52 Y104.279
G0 F3937.5 X277.432 Y103.484
G1 F900 X275.188 Y101.24 E83.99513
G1 X275.1 Y101.152
G0 F3937.5 X275.896 Y101.24
G1 F900 X277.432 Y102.777 E84.06751
G1 X277.52 Y102.865
G0 F3937.5 X277.432 Y102.07
G1 F900 X276.603 Y101.24 E84.10659
G1 X276.515 Y101.152
G0 F3937.5 X277.31 Y101.24
G1 F900 X277.432 Y101.363 E84.11236
