;Generated by Cura LulzBot Edition GCodeWriter Version: 2.6.69
;FLAVOR:RepRap
;TIME:14565
;Filament used: 7.18469m
;Layer height: 0.25
;Generated with Cura_SteamEngine 2.6.69
;This G-Code has been generated specifically for the LulzBot TAZ 5 with standard extruder
M140 S60    ; start bed heating up
G21                      ; set units to Millimetres
G90                      ; absolute positioning
M107                     ; disable fans
M82                      ; set extruder to absolute mode
G28 X0 Y0                ; home X and Y
G28 Z0                   ; home Z
G1 Z15.0 F{travel_speed} ; move extruder up
M117 Heating...                     ; progress indicator message on LCD
M109 R205  ; wait for extruder to reach printing temp
M190 S60    ; wait for bed to reach printing temp
G92 E0                   ; set extruder position to 0
G1 F200 E0               ; prime the nozzle with filament
G92 E0                   ; re-set extruder position to 0
G1 F{travel_speed}       ; set travel speed
M203 X192 Y208 Z3        ; set limits on travel speed
M117 TAZ 5 Printing...   ; progress indicator message on LCD

M221 S100
;LAYER_COUNT:83
;LAYER:0
M107
G0 F3937.5 X141.757 Y85.53 Z0.424
;TYPE:SKIRT
G1 F900 X142.023 Y85.096 E0.01696
G1 X142.353 Y84.708 E0.03392
G1 X142.741 Y84.377 E0.05091
G1 X143.175 Y84.111 E0.06787
G1 X143.645 Y83.915 E0.08483
G1 X144.141 Y83.796 E0.10182
G1 X144.653 Y83.755 E0.11893
G1 X188.637 Y83.756 E1.58405
G1 X189.145 Y83.796 E1.60103
G1 X189.64 Y83.915 E1.61799
G1 X190.111 Y84.11 E1.63497
G1 X190.637 Y84.444 E1.65572
G1 X194.835 Y87.722 E1.83314
G1 X199.32 Y90.844 E2.01517
G1 X203.987 Y93.714 E2.19767
G1 X208.787 Y96.304 E2.37935
G1 X213.777 Y98.643 E2.56292
G1 X216.113 Y99.622 E2.64729
G1 X216.718 Y99.956 E2.67031
G1 X221.76 Y103.478 E2.87518
G1 X226.42 Y106.345 E3.05743
G1 X231.24 Y108.946 E3.23988
G1 X236.195 Y111.267 E3.42214
G1 X241.326 Y113.329 E3.60634
G1 X243.823 Y114.208 E3.69452
G1 X249.075 Y115.814 E3.87746
G1 X254.443 Y117.131 E4.06157
G1 X257.087 Y117.662 E4.1514
G1 X259.755 Y118.116 E4.24155
G1 X265.224 Y118.815 E4.42521
G1 X270.395 Y119.191 E4.59791
G1 X270.899 Y119.267 E4.61489
G1 X271.385 Y119.422 E4.63188
G1 X271.84 Y119.65 E4.64884
G1 X272.254 Y119.947 E4.66581
G1 X272.454 Y120.129 E4.67482
G1 X272.712 Y120.386 E4.68695
G1 X273.043 Y120.773 E4.70391
G1 X273.31 Y121.207 E4.72088
G1 X273.507 Y121.677 E4.73786
G1 X273.627 Y122.172 E4.75482
G1 X273.668 Y122.689 E4.7721
G1 X273.668 Y199.595 E7.33387
G1 X273.628 Y200.103 E7.35084
G1 X273.509 Y200.598 E7.3678
G1 X273.314 Y201.069 E7.38478
G1 X273.048 Y201.504 E7.40176
G1 X272.798 Y201.809 E7.4149
G1 X272.718 Y201.895 E7.41881
G1 X272.578 Y202.036 E7.42543
G1 X272.393 Y202.212 E7.43394
G1 X271.998 Y202.533 E7.45089
G1 X271.557 Y202.788 E7.46786
G1 X270.966 Y203.004 E7.48882
G1 X268.999 Y203.512 E7.55649
G1 X263.708 Y205.095 E7.74046
G1 X258.584 Y206.951 E7.92199
G1 X256.063 Y207.986 E8.01277
G1 X251.069 Y210.291 E8.19598
G1 X246.246 Y212.856 E8.37795
G1 X241.575 Y215.691 E8.55996
G1 X237.066 Y218.787 E8.74215
G1 X232.724 Y222.146 E8.92501
G1 X228.599 Y225.729 E9.10701
G1 X224.674 Y229.547 E9.28941
G1 X220.979 Y233.573 E9.47144
G1 X217.502 Y237.82 E9.65427
G1 X214.289 Y242.232 E9.83607
G1 X211.366 Y246.751 E10.01535
G1 X211.056 Y247.156 E10.03234
G1 X210.688 Y247.507 E10.04928
G1 X210.268 Y247.797 E10.06628
G1 X209.809 Y248.017 E10.08323
G1 X209.321 Y248.163 E10.1002
G1 X208.637 Y248.236 E10.12312
G1 X124.652 Y248.237 E12.92069
G1 X124.144 Y248.197 E12.93766
G1 X123.649 Y248.078 E12.95462
G1 X123.178 Y247.883 E12.9716
G1 X122.743 Y247.617 E12.98858
G1 X122.356 Y247.287 E13.00552
G1 X122.024 Y246.9 E13.02251
G1 X121.758 Y246.465 E13.03949
G1 X121.562 Y245.995 E13.05646
G1 X121.443 Y245.5 E13.07342
G1 X121.402 Y244.987 E13.09056
G1 X121.403 Y237.998 E13.32336
G1 X121.443 Y237.49 E13.34034
G1 X121.562 Y236.994 E13.35733
G1 X121.757 Y236.523 E13.37431
G1 X121.992 Y236.133 E13.38948
G1 X125.583 Y231.01 E13.59787
G1 X128.448 Y226.35 E13.78009
G1 X131.05 Y221.53 E13.96255
G1 X133.372 Y216.575 E14.14482
G1 X135.428 Y211.457 E14.32855
G1 X136.314 Y208.94 E14.41743
G1 X137.922 Y203.685 E14.60049
G1 X139.233 Y198.333 E14.78404
G1 X139.765 Y195.689 E14.87388
G1 X140.222 Y193.011 E14.96437
G1 X140.919 Y187.56 E15.14742
G1 X141.306 Y182.085 E15.33025
G1 X141.393 Y178.009 E15.46606
G1 X141.403 Y87.005 E18.49743
G1 X141.443 Y86.497 E18.51441
G1 X141.562 Y86.001 E18.5314
G1 X141.757 Y85.53 E18.54838
G1 F600 E16.79838
G0 F3937.5 X188.771 Y86.335
G0 X189.304 Y86.868
G0 X189.301 Y113.142
G0 X206.743 Y123.272
G0 X207.139 Y122.873
;TYPE:SUPPORT
G1 F600 E18.54838
G1 F900 X207.332 Y122.873 E18.55481
G1 X207.139 Y123.066 E18.5639
G1 X207.139 Y122.873 E18.57033
G1 F600 E16.82033
G0 F3937.5 X206.936 Y123.276
G0 X206.76 Y123.284
G0 X206.227 Y122.751
G0 X206.227 Y102.495
G0 X206.76 Y101.962
G0 X215.016 Y101.962
G0 X268.655 Y122.663
G0 X268.735 Y122.824
G1 F600 E18.57033
G1 F900 X268.529 Y122.824 E18.57719
G1 X268.872 Y122.673 E18.58967
G1 X270.061 Y122.673 E18.62928
G1 X270.178 Y122.79 E18.63479
G1 X270.178 Y124.691 E18.69811
G1 X269.027 Y123.54 E18.75234
G1 X269.027 Y123.116 E18.76646
G1 X268.735 Y122.824 E18.78022
G1 F600 E17.03022
G0 F3937.5 X268.777 Y122.78
G0 X269.188 Y123.196
G0 X270.178 Y195.595
G1 F600 E18.78022
G1 F900 X270.178 Y199.496 E18.91016
G1 X270.061 Y199.613 E18.91567
G1 X263.941 Y199.613 E19.11953
G1 X264.592 Y198.963 E19.15017
G1 X266.812 Y198.962 E19.22412
G1 X268.311 Y197.462 E19.29476
G1 X268.735 Y197.462 E19.30888
G1 X269.027 Y197.17 E19.32264
G1 X269.027 Y196.746 E19.33676
G1 X270.178 Y195.595 E19.39099
G0 F3937.5 X269.892 Y196.164
G1 F900 X269.892 Y199.413 E19.49921
G0 F3937.5 X269.978 Y198.254
G1 F900 X267.801 Y198.254 E19.57173
G0 F3937.5 X268.226 Y197.829
G1 F900 X268.226 Y199.413 E19.62449
G0 F3937.5 X266.56 Y199.413
G1 F900 X266.56 Y199.162 E19.63285
G0 F3937.5 X264.894 Y199.162
G1 F900 X264.894 Y199.413 E19.64121
G1 F600 E17.89121
G0 F3937.5 X268.655 Y197.623
G0 X269.188 Y197.09
G0 X269.467 Y196.588
G1 F600 E19.64121
G1 F900 X269.978 Y196.588 E19.65823
G0 F3937.5 X269.892 Y124.122
G1 F900 X269.892 Y122.873 E19.69984
G0 F3937.5 X269.978 Y123.284
G1 F900 X269.227 Y123.284 E19.72485
G1 F600 E17.97485
G0 F3937.5 X268.655 Y122.663
G0 X215.016 Y101.962
G0 X206.76 Y101.962
G0 X206.227 Y102.495
G0 X206.227 Y122.751
G0 X206.936 Y197.01
G0 X207.139 Y197.22
G1 F600 E19.72485
G1 F900 X207.332 Y197.413 E19.73395
G1 X207.139 Y197.413 E19.74038
G1 X207.139 Y197.22 E19.7468
G1 F600 E17.9968
G0 F3937.5 X206.76 Y197.002
G0 X189.308 Y197.22
G0 X187.873 Y197.22
G0 X179.253 Y207.375
G0 X179.163 Y207.417
;TYPE:WALL-INNER
G1 F600 E19.7468
G1 F900 X178.312 Y205.865 E19.80576
G1 X177.262 Y204.44 E19.86473
G1 X176.032 Y203.167 E19.92369
G1 X174.643 Y202.07 E19.98265
G1 X173.119 Y201.168 E20.04164
G1 X171.489 Y200.477 E20.10061
G1 X169.783 Y200.009 E20.15954
G1 X168.028 Y199.774 E20.21852
G1 X166.258 Y199.774 E20.27748
G1 X164.503 Y200.009 E20.33646
G1 X162.797 Y200.477 E20.39539
G1 X161.166 Y201.168 E20.45439
G1 X159.642 Y202.07 E20.51338
G1 X158.254 Y203.167 E20.57231
G1 X157.023 Y204.44 E20.6313
G1 X155.974 Y205.865 E20.69024
G1 X155.122 Y207.417 E20.74922
G1 X154.486 Y209.07 E20.80821
G1 X154.076 Y210.792 E20.86718
G1 X153.899 Y212.553 E20.92613
G1 X153.958 Y214.322 E20.98509
G1 X154.251 Y216.068 E21.04407
G1 X154.776 Y217.758 E21.10301
G1 X155.521 Y219.364 E21.16199
G1 X156.474 Y220.857 E21.22099
G1 X157.618 Y222.208 E21.27996
G1 X158.93 Y223.396 E21.33891
G1 X160.39 Y224.398 E21.3979
G1 X161.969 Y225.196 E21.45683
G1 X163.642 Y225.777 E21.51582
G1 X165.377 Y226.129 E21.57479
G1 X167.143 Y226.248 E21.63375
G1 X168.909 Y226.129 E21.69271
G1 X170.643 Y225.777 E21.75165
G1 X172.317 Y225.196 E21.81068
G1 X173.896 Y224.398 E21.86961
G1 X175.356 Y223.396 E21.92859
G1 X176.668 Y222.208 E21.98755
G1 X177.811 Y220.857 E22.0465
G1 X178.764 Y219.364 E22.1055
G1 X179.51 Y217.758 E22.16448
G1 X180.033 Y216.068 E22.22341
G1 X180.328 Y214.322 E22.2824
G1 X180.387 Y212.553 E22.34136
G1 X180.21 Y210.792 E22.40031
G1 X179.8 Y209.069 E22.45931
G1 X179.163 Y207.417 E22.51829
G0 F3937.5 X179.253 Y207.375
G0 X169.802 Y176.079
G0 X169.783 Y175.982
G1 F900 X171.489 Y175.514 E22.57721
G1 X173.119 Y174.823 E22.63619
G1 X174.643 Y173.921 E22.69518
G1 X176.032 Y172.824 E22.75413
G1 X177.262 Y171.552 E22.81307
G1 X178.312 Y170.127 E22.87204
G1 X179.163 Y168.574 E22.93102
G1 X179.8 Y166.922 E22.99
G1 X180.21 Y165.2 E23.04897
G1 X180.387 Y163.439 E23.10792
G1 X180.328 Y161.67 E23.16688
G1 X180.034 Y159.924 E23.22586
G1 X179.51 Y158.233 E23.28483
G1 X178.764 Y156.628 E23.34378
G1 X177.811 Y155.135 E23.40278
G1 X176.668 Y153.784 E23.46173
G1 X175.356 Y152.596 E23.52069
G1 X173.896 Y151.594 E23.57967
G1 X172.317 Y150.796 E23.63861
G1 X170.643 Y150.215 E23.69763
G1 X168.909 Y149.862 E23.75658
G1 X167.143 Y149.744 E23.81553
G1 X165.377 Y149.862 E23.87449
G1 X163.642 Y150.215 E23.93347
G1 X161.969 Y150.796 E23.99246
G1 X160.39 Y151.594 E24.05139
G1 X158.93 Y152.596 E24.11038
G1 X157.618 Y153.784 E24.16934
G1 X156.474 Y155.135 E24.22831
G1 X155.522 Y156.628 E24.28729
G1 X154.776 Y158.233 E24.34624
G1 X154.251 Y159.924 E24.40522
G1 X153.958 Y161.67 E24.4642
G1 X153.899 Y163.439 E24.52316
G1 X154.076 Y165.2 E24.58211
G1 X154.486 Y166.921 E24.64104
G1 X155.122 Y168.574 E24.70004
G1 X155.974 Y170.127 E24.75904
G1 X157.023 Y171.552 E24.81799
G1 X158.254 Y172.824 E24.87695
G1 X159.643 Y173.921 E24.93591
G1 X161.166 Y174.823 E24.99487
G1 X162.797 Y175.514 E25.05387
G1 X164.503 Y175.982 E25.1128
G1 X166.258 Y176.218 E25.17178
G1 X168.028 Y176.218 E25.23074
G1 X169.783 Y175.982 E25.28973
G0 F3937.5 X169.802 Y176.079
G0 X171.502 Y175.551
G0 X173.137 Y174.858
G0 X174.665 Y173.953
G0 X176.058 Y172.853
G0 X177.292 Y171.577
G0 X178.345 Y170.148
G0 X179.199 Y168.59
G0 X179.838 Y166.933
G0 X180.249 Y165.206
G0 X180.426 Y163.44
G0 X180.367 Y161.667
G0 X180.072 Y159.915
G0 X179.547 Y158.219
G0 X167.143 Y126.348
G0 X167.143 Y126.248
G1 F900 X168.909 Y126.129 E25.34869
G1 X170.643 Y125.777 E25.40763
G1 X172.317 Y125.196 E25.46665
G1 X173.896 Y124.398 E25.52558
G1 X175.356 Y123.396 E25.58457
G1 X176.668 Y122.208 E25.64353
G1 X177.811 Y120.857 E25.70247
G1 X178.764 Y119.364 E25.76147
G1 X179.51 Y117.758 E25.82046
G1 X180.033 Y116.068 E25.87939
G1 X180.328 Y114.322 E25.93837
G1 X180.387 Y112.553 E25.99733
G1 X180.21 Y110.792 E26.05629
G1 X179.8 Y109.069 E26.11528
G1 X179.163 Y107.417 E26.17426
G1 X178.312 Y105.865 E26.23322
G1 X177.262 Y104.44 E26.29218
G1 X176.032 Y103.167 E26.35115
G1 X174.643 Y102.07 E26.4101
G1 X173.119 Y101.168 E26.4691
G1 X171.489 Y100.477 E26.52807
G1 X169.783 Y100.009 E26.587
G1 X168.028 Y99.774 E26.64598
G1 X166.258 Y99.774 E26.70494
G1 X164.503 Y100.009 E26.76392
G1 X162.797 Y100.477 E26.82284
G1 X161.166 Y101.168 E26.88185
G1 X159.643 Y102.07 E26.94081
G1 X158.254 Y103.167 E26.99977
G1 X157.023 Y104.44 E27.05876
G1 X155.974 Y105.865 E27.1177
G1 X155.122 Y107.417 E27.17667
G1 X154.486 Y109.07 E27.23567
G1 X154.076 Y110.792 E27.29463
G1 X153.899 Y112.553 E27.35359
G1 X153.958 Y114.322 E27.41255
G1 X154.251 Y116.068 E27.47152
G1 X154.776 Y117.758 E27.53047
G1 X155.521 Y119.364 E27.58944
G1 X156.474 Y120.857 E27.64844
G1 X157.618 Y122.208 E27.70741
G1 X158.93 Y123.396 E27.76637
G1 X160.39 Y124.398 E27.82535
G1 X161.969 Y125.196 E27.88428
G1 X163.642 Y125.777 E27.94328
G1 X165.377 Y126.129 E28.00225
G1 X167.143 Y126.248 E28.06121
G0 F3937.5 X167.143 Y126.348
G0 X168.914 Y126.168
G0 X170.653 Y125.815
G0 X172.332 Y125.232
G0 X173.916 Y124.432
G0 X175.38 Y123.427
G0 X176.696 Y122.235
G0 X177.843 Y120.88
G0 X178.799 Y119.383
G0 X179.547 Y117.772
G0 X180.071 Y116.077
G0 X187.823 Y87.816
G0 X187.893 Y87.746
G1 F900 X187.893 Y238.746 E33.09107
G1 X207.893 Y238.746 E33.75728
G1 X207.893 Y244.246 E33.94049
G1 X125.393 Y244.246 E36.68859
G1 X125.393 Y238.746 E36.8718
G1 X145.393 Y238.746 E37.53801
G1 X145.393 Y87.746 E42.56787
G1 X187.893 Y87.746 E43.98356
G0 F3937.5 X188.393 Y87.246
;TYPE:WALL-OUTER
G1 F900 X188.393 Y238.246 E49.01342
G1 X208.393 Y238.246 E49.67963
G1 X208.393 Y244.746 E49.89615
G1 X124.893 Y244.746 E52.67756
G1 X124.893 Y238.246 E52.89408
G1 X144.893 Y238.246 E53.56029
G1 X144.893 Y87.246 E58.59015
G1 X188.393 Y87.246 E60.03915
G0 F3937.5 X188.393 Y87.496
G0 X187.823 Y87.816
G0 X176.127 Y103.123
G0 X175.696 Y103.539
G1 F900 X174.359 Y102.483 E60.09591
G1 X172.893 Y101.615 E60.15266
G1 X171.325 Y100.95 E60.20939
G1 X169.683 Y100.5 E60.2661
G1 X167.995 Y100.274 E60.32283
G1 X166.291 Y100.274 E60.37959
G1 X164.603 Y100.5 E60.43632
G1 X162.961 Y100.95 E60.49304
G1 X161.392 Y101.615 E60.5498
G1 X159.927 Y102.483 E60.60652
G1 X158.59 Y103.539 E60.66327
G1 X157.406 Y104.763 E60.72
G1 X156.396 Y106.135 E60.77675
G1 X155.577 Y107.628 E60.83347
G1 X154.965 Y109.218 E60.89022
G1 X154.57 Y110.875 E60.94697
G1 X154.4 Y112.57 E61.00371
G1 X154.457 Y114.272 E61.06044
G1 X154.739 Y115.952 E61.11718
G1 X155.244 Y117.578 E61.1739
G1 X155.961 Y119.123 E61.23063
G1 X156.877 Y120.56 E61.2874
G1 X157.978 Y121.86 E61.34414
G1 X159.241 Y123.003 E61.40089
G1 X160.645 Y123.967 E61.45762
G1 X162.165 Y124.735 E61.51434
G1 X163.774 Y125.294 E61.57108
G1 X165.444 Y125.632 E61.62784
G1 X167.143 Y125.747 E61.68456
G1 X168.842 Y125.632 E61.74129
G1 X170.511 Y125.294 E61.79801
G1 X172.121 Y124.735 E61.85478
G1 X173.641 Y123.967 E61.91151
G1 X175.045 Y123.003 E61.96824
G1 X176.308 Y121.86 E62.02498
G1 X177.408 Y120.56 E62.08171
G1 X178.325 Y119.123 E62.13849
G1 X179.042 Y117.578 E62.19522
G1 X179.546 Y115.952 E62.25193
G1 X179.829 Y114.272 E62.30868
G1 X179.886 Y112.57 E62.36541
G1 X179.716 Y110.875 E62.42215
G1 X179.321 Y109.218 E62.47889
G1 X178.708 Y107.628 E62.53565
G1 X177.89 Y106.135 E62.59236
G1 X176.879 Y104.763 E62.64913
G1 X175.696 Y103.539 E62.70583
G0 F3937.5 X175.5 Y103.384
G0 X175.872 Y102.914
G0 X177.292 Y104.415
G0 X178.345 Y105.844
G0 X179.199 Y107.401
G0 X179.838 Y109.058
G0 X180.249 Y110.786
G0 X180.426 Y112.552
G0 X180.367 Y114.326
G0 X180.071 Y116.077
G0 X168.961 Y149.771
G0 X168.842 Y150.359
G1 F900 X167.143 Y150.245 E62.76256
G1 X165.444 Y150.359 E62.81928
G1 X163.774 Y150.698 E62.87604
G1 X162.165 Y151.257 E62.93278
G1 X160.645 Y152.025 E62.98951
G1 X159.241 Y152.989 E63.04624
G1 X157.978 Y154.132 E63.10298
G1 X156.877 Y155.432 E63.15973
G1 X155.961 Y156.869 E63.21649
G1 X155.244 Y158.413 E63.2732
G1 X154.739 Y160.04 E63.32994
G1 X154.457 Y161.72 E63.38669
G1 X154.4 Y163.422 E63.44341
G1 X154.57 Y165.117 E63.50016
G1 X154.965 Y166.773 E63.55687
G1 X155.577 Y168.363 E63.61362
G1 X156.396 Y169.857 E63.67037
G1 X157.406 Y171.228 E63.72709
G1 X158.59 Y172.452 E63.78382
G1 X159.927 Y173.508 E63.84057
G1 X161.392 Y174.376 E63.89729
G1 X162.961 Y175.041 E63.95406
G1 X164.603 Y175.491 E64.01077
G1 X166.291 Y175.718 E64.06751
G1 X167.995 Y175.718 E64.12427
G1 X169.683 Y175.491 E64.181
G1 X171.325 Y175.041 E64.23771
G1 X172.893 Y174.376 E64.29445
G1 X174.359 Y173.508 E64.3512
G1 X175.696 Y172.452 E64.40795
G1 X176.879 Y171.228 E64.46465
G1 X177.89 Y169.857 E64.52139
G1 X178.708 Y168.363 E64.57813
G1 X179.321 Y166.773 E64.63489
G1 X179.716 Y165.117 E64.6916
G1 X179.886 Y163.422 E64.74835
G1 X179.829 Y161.72 E64.80507
G1 X179.546 Y160.04 E64.86182
G1 X179.042 Y158.413 E64.91856
G1 X178.325 Y156.869 E64.97527
G1 X177.408 Y155.432 E65.03205
G1 X176.308 Y154.132 E65.08878
G1 X175.045 Y152.989 E65.14552
G1 X173.641 Y152.025 E65.20225
G1 X172.121 Y151.257 E65.25898
G1 X170.511 Y150.698 E65.31575
G1 X168.842 Y150.359 E65.37248
G0 F3937.5 X168.593 Y150.343
G0 X168.633 Y149.745
G0 X170.653 Y150.177
G0 X172.332 Y150.76
G0 X173.916 Y151.56
G0 X175.38 Y152.565
G0 X176.696 Y153.757
G0 X177.843 Y155.112
G0 X178.799 Y156.609
G0 X179.547 Y158.219
G0 X180.072 Y159.915
G0 X180.367 Y161.667
G0 X180.426 Y163.44
G0 X180.249 Y165.206
G0 X179.838 Y166.933
G0 X168.074 Y199.68
G0 X167.995 Y200.274
G1 F900 X166.291 Y200.274 E65.42924
G1 X164.603 Y200.5 E65.48597
G1 X162.961 Y200.95 E65.54268
G1 X161.392 Y201.615 E65.59944
G1 X159.926 Y202.483 E65.65619
G1 X158.59 Y203.539 E65.71292
