;Generated by Cura LulzBot Edition GCodeWriter Version: 2.6.69
;FLAVOR:RepRap
;TIME:4396
;Filament used: 2.24257m
;Layer height: 0.25
;Generated with Cura_SteamEngine 2.6.69
;This G-Code has been generated specifically for the LulzBot TAZ 5 with standard extruder
M140 S60    ; start bed heating up
G21                      ; set units to Millimetres
G90                      ; absolute positioning
M107                     ; disable fans
M82                      ; set extruder to absolute mode
G28 X0 Y0                ; home X and Y
G28 Z0                   ; home Z
G1 Z15.0 F{travel_speed} ; move extruder up
M117 Heating...                     ; progress indicator message on LCD
M109 R205  ; wait for extruder to reach printing temp
M190 S60    ; wait for bed to reach printing temp
G92 E0                   ; set extruder position to 0
G1 F200 E0               ; prime the nozzle with filament
G92 E0                   ; re-set extruder position to 0
G1 F{travel_speed}       ; set travel speed
M203 X192 Y208 Z3        ; set limits on travel speed
M117 TAZ 5 Printing...   ; progress indicator message on LCD

M221 S100
;LAYER_COUNT:103
;LAYER:0
M107
G0 F3937.5 X202.577 Y172.321 Z0.424
;TYPE:SKIRT
G1 F900 X202.971 Y171.941 E0.01823
G1 X203.416 Y171.622 E0.03647
G1 X203.903 Y171.372 E0.05471
G1 X204.421 Y171.195 E0.07294
G1 X204.959 Y171.096 E0.09116
G1 X205.361 Y171.073 E0.10458
G1 X208.921 Y171.064 E0.22316
G1 X214.383 Y170.91 E0.40517
G1 X219.843 Y170.445 E0.58771
G1 X225.203 Y169.681 E0.76806
G1 X230.584 Y168.603 E0.95086
G1 X233.164 Y167.97 E1.03935
G1 X235.798 Y167.246 E1.13034
G1 X241.042 Y165.559 E1.31384
G1 X243.565 Y164.629 E1.40341
G1 X246.041 Y163.641 E1.49221
G1 X246.562 Y163.476 E1.51041
G1 X247.103 Y163.388 E1.52867
G1 X247.43 Y163.374 E1.53957
G1 X250.288 Y163.374 E1.63477
G1 X250.834 Y163.414 E1.65301
G1 X251.368 Y163.533 E1.67123
G1 X251.879 Y163.728 E1.68945
G1 X252.357 Y163.996 E1.70771
G1 X252.919 Y164.452 E1.73182
G1 X253.181 Y164.71 E1.74406
G1 X253.542 Y165.122 E1.76231
G1 X253.839 Y165.581 E1.78052
G1 X254.066 Y166.079 E1.79875
G1 X254.219 Y166.605 E1.817
G1 X254.3 Y167.382 E1.84302
G1 X254.3 Y173.313 E2.04059
G1 X254.298 Y173.428 E2.04442
G1 X254.11 Y179.576 E2.24931
G1 X254.15 Y192.881 E2.6925
G1 X254.296 Y196.146 E2.80137
G1 X254.3 Y196.314 E2.80697
G1 X254.3 Y202.246 E3.00456
G1 X254.26 Y202.792 E3.0228
G1 X254.141 Y203.326 E3.04102
G1 X253.946 Y203.837 E3.05924
G1 X253.678 Y204.315 E3.0775
G1 X253.202 Y204.898 E3.10257
G1 X252.944 Y205.156 E3.11472
G1 X252.529 Y205.513 E3.13296
G1 X252.067 Y205.807 E3.1512
G1 X251.568 Y206.03 E3.1694
G1 X251.041 Y206.178 E3.18764
G1 X250.292 Y206.254 E3.21271
G1 X247.432 Y206.254 E3.30798
G1 X246.886 Y206.214 E3.32622
G1 X246.116 Y206.016 E3.3527
G1 X239.691 Y203.608 E3.58126
G1 X234.502 Y202.02 E3.76202
G1 X229.152 Y200.707 E3.94552
G1 X226.589 Y200.196 E4.03257
G1 X221.168 Y199.345 E4.21536
G1 X215.748 Y198.806 E4.39679
G1 X210.265 Y198.574 E4.5796
G1 X205.35 Y198.549 E4.74332
G1 X204.805 Y198.506 E4.76153
G1 X204.271 Y198.385 E4.77977
G1 X203.761 Y198.187 E4.79799
G1 X203.285 Y197.916 E4.81624
G1 X202.853 Y197.58 E4.83447
G1 X202.475 Y197.184 E4.8527
G1 X202.159 Y196.737 E4.87094
G1 X201.911 Y196.249 E4.88917
G1 X201.736 Y195.73 E4.90742
G1 X201.64 Y195.192 E4.92562
G1 X201.619 Y194.799 E4.93873
G1 X201.62 Y174.823 E5.60414
G1 X201.66 Y174.277 E5.62237
G1 X201.779 Y173.743 E5.6406
G1 X201.975 Y173.231 E5.65886
G1 X202.242 Y172.754 E5.67707
G1 X202.577 Y172.321 E5.6953
G0 F3937.5 X203.07 Y172.526
G1 F900 X203.458 Y172.195 E5.71229
G1 X203.892 Y171.929 E5.72925
G1 X204.362 Y171.733 E5.74621
G1 X204.858 Y171.614 E5.7632
G1 X205.362 Y171.573 E5.78005
G1 X208.898 Y171.564 E5.89783
G1 X214.441 Y171.407 E6.08255
G1 X219.883 Y170.945 E6.26447
G1 X225.284 Y170.175 E6.4462
G1 X230.708 Y169.087 E6.63048
G1 X233.278 Y168.457 E6.71862
G1 X235.941 Y167.725 E6.81061
G1 X241.202 Y166.033 E6.9947
G1 X243.731 Y165.1 E7.08449
G1 X246.226 Y164.105 E7.17397
G1 X246.712 Y163.954 E7.19092
G1 X247.43 Y163.874 E7.21498
G1 X250.288 Y163.874 E7.31018
G1 X250.796 Y163.914 E7.32716
G1 X251.291 Y164.033 E7.34412
G1 X251.762 Y164.228 E7.3611
G1 X252.197 Y164.494 E7.37808
G1 X252.568 Y164.808 E7.39427
G1 X252.83 Y165.066 E7.40652
G1 X253.164 Y165.451 E7.4235
G1 X253.434 Y165.883 E7.44047
G1 X253.633 Y166.353 E7.45747
G1 X253.756 Y166.847 E7.47443
G1 X253.8 Y167.382 E7.49231
G1 X253.8 Y173.313 E7.68987
G1 X253.798 Y173.412 E7.69317
G1 X253.61 Y179.562 E7.89812
G1 X253.65 Y192.881 E8.34179
G1 X253.797 Y196.169 E8.45142
G1 X253.8 Y196.314 E8.45625
G1 X253.8 Y202.246 E8.65385
G1 X253.76 Y202.754 E8.67082
G1 X253.641 Y203.249 E8.68778
G1 X253.446 Y203.72 E8.70476
G1 X253.18 Y204.155 E8.72175
G1 X252.848 Y204.544 E8.73878
G1 X252.59 Y204.802 E8.75094
G1 X252.203 Y205.133 E8.7679
G1 X251.768 Y205.399 E8.78488
G1 X251.298 Y205.594 E8.80183
G1 X250.802 Y205.714 E8.81883
G1 X250.292 Y205.754 E8.83587
G1 X247.432 Y205.754 E8.93114
G1 X246.924 Y205.714 E8.94811
G1 X246.292 Y205.547 E8.96989
G1 X239.869 Y203.14 E9.19837
G1 X234.625 Y201.535 E9.38105
G1 X229.275 Y200.222 E9.56455
G1 X226.671 Y199.702 E9.653
G1 X221.222 Y198.847 E9.83673
G1 X215.785 Y198.307 E10.01873
G1 X210.289 Y198.074 E10.20197
G1 X205.353 Y198.049 E10.36639
G1 X204.845 Y198.006 E10.38337
G1 X204.35 Y197.885 E10.40035
G1 X203.88 Y197.688 E10.41732
G1 X203.447 Y197.42 E10.43428
G1 X203.061 Y197.087 E10.45126
G1 X202.732 Y196.698 E10.46824
G1 X202.467 Y196.263 E10.4852
G1 X202.274 Y195.791 E10.50219
G1 X202.157 Y195.296 E10.51913
G1 X202.119 Y194.799 E10.53573
G1 X202.12 Y174.823 E11.20114
G1 X202.16 Y174.315 E11.21812
G1 X202.279 Y173.819 E11.23511
G1 X202.474 Y173.349 E11.25206
G1 X202.74 Y172.914 E11.26904
G1 X203.07 Y172.526 E11.28601
G0 F3937.5 X247.41 Y173.064
;TYPE:SUPPORT
G1 F900 X247.41 Y167.481 E11.47198
G1 X247.527 Y167.364 E11.47749
G1 X250.193 Y167.364 E11.5663
G1 X250.31 Y167.481 E11.57181
G1 X250.31 Y173.064 E11.75778
G1 X247.41 Y173.064 E11.85438
G0 F3937.5 X248.234 Y172.864
G1 F900 X248.234 Y167.564 E12.03093
G0 F3937.5 X247.61 Y168.266
G1 F900 X250.11 Y168.266 E12.1142
G0 F3937.5 X249.9 Y167.564
G1 F900 X249.9 Y172.864 E12.29075
G0 F3937.5 X250.11 Y171.598
G1 F900 X247.61 Y171.598 E12.37402
G0 F3937.5 X247.61 Y169.932
G1 F900 X250.11 Y169.932 E12.4573
G1 F600 E10.7073
G0 F3937.5 X205.232 Y174.153
G0 X204.699 Y174.686
G0 X204.699 Y194.942
G0 X205.232 Y195.475
G0 X250.31 Y196.564
G1 F600 E12.4573
G1 F900 X250.31 Y202.147 E12.64327
G1 X250.193 Y202.264 E12.64878
G1 X247.527 Y202.264 E12.73759
G1 X247.41 Y202.147 E12.7431
G1 X247.41 Y196.564 E12.92907
G1 X250.31 Y196.564 E13.02567
G0 F3937.5 X249.9 Y196.764
G1 F900 X249.9 Y202.064 E13.20222
G0 F3937.5 X250.11 Y201.586
G1 F900 X247.61 Y201.586 E13.28549
G0 F3937.5 X248.234 Y202.064
G1 F900 X248.234 Y196.764 E13.46204
G0 F3937.5 X247.61 Y198.254
G1 F900 X250.11 Y198.254 E13.54531
G0 F3937.5 X250.11 Y199.92
G1 F900 X247.61 Y199.92 E13.62859
G1 F600 E11.87859
G0 F3937.5 X247.61 Y195.479
G0 X247.61 Y194.044
G0 X249.54 Y193.994
G0 X249.61 Y194.064
;TYPE:WALL-INNER
G1 F600 E13.62859
G1 F900 X206.11 Y194.064 E15.07759
G1 X206.11 Y175.564 E15.69383
G1 X249.61 Y175.564 E17.14283
G1 X249.61 Y194.064 E17.75907
G0 F3937.5 X250.11 Y194.564
;TYPE:WALL-OUTER
G1 F900 X205.61 Y194.564 E19.24138
G1 X205.61 Y175.064 E19.89094
G1 X250.11 Y175.064 E21.37325
G1 X250.11 Y194.564 E22.0228
G0 F3937.5 X249.86 Y194.564
G0 X249.54 Y193.994
G0 X248.992 Y193.838
;TYPE:SKIN
G1 F900 X230.943 Y175.788 E22.87307
G1 X230.855 Y175.7
G0 F3937.5 X231.65 Y175.788
G1 F900 X249.384 Y193.523 E23.70851
G1 X249.472 Y193.611
G0 F3937.5 X249.384 Y192.815
G1 F900 X232.357 Y175.788 E24.51062
G1 X232.269 Y175.7
G0 F3937.5 X233.064 Y175.788
G1 F900 X249.384 Y192.108 E25.27942
G1 X249.472 Y192.196
G0 F3937.5 X249.384 Y191.401
G1 F900 X233.771 Y175.788 E26.01492
G1 X233.683 Y175.7
G0 F3937.5 X234.478 Y175.788
G1 F900 X249.384 Y190.694 E26.71711
G1 X249.472 Y190.782
G0 F3937.5 X249.384 Y189.987
G1 F900 X235.185 Y175.788 E27.38599
G1 X235.097 Y175.7
G0 F3937.5 X235.892 Y175.788
G1 F900 X249.384 Y189.28 E28.02157
G1 X249.472 Y189.368
G0 F3937.5 X249.384 Y188.573
G1 F900 X236.6 Y175.788 E28.62383
G1 X236.512 Y175.7
G0 F3937.5 X237.307 Y175.788
G1 F900 X249.384 Y187.866 E29.19277
G1 X249.472 Y187.954
G0 F3937.5 X249.384 Y187.159
G1 F900 X238.014 Y175.788 E29.72841
G1 X237.926 Y175.7
G0 F3937.5 X238.721 Y175.788
G1 F900 X249.384 Y186.452 E30.23075
G1 X249.472 Y186.54
G0 F3937.5 X249.384 Y185.744
G1 F900 X239.428 Y175.788 E30.69976
G1 X239.34 Y175.7
G0 F3937.5 X240.135 Y175.788
G1 F900 X249.384 Y185.037 E31.13546
G1 X249.472 Y185.125
G0 F3937.5 X249.384 Y184.33
G1 F900 X240.842 Y175.788 E31.53785
G1 X240.754 Y175.7
G0 F3937.5 X241.549 Y175.788
G1 F900 X249.384 Y183.623 E31.90694
G1 X249.472 Y183.711
G0 F3937.5 X249.384 Y182.916
G1 F900 X242.256 Y175.788 E32.24273
G1 X242.168 Y175.7
G0 F3937.5 X242.964 Y175.788
G1 F900 X249.384 Y182.209 E32.54519
G1 X249.472 Y182.297
G0 F3937.5 X249.384 Y181.502
G1 F900 X243.671 Y175.788 E32.81434
G1 X243.583 Y175.7
G0 F3937.5 X244.378 Y175.788
G1 F900 X249.384 Y180.795 E33.05018
G1 X249.472 Y180.883
G0 F3937.5 X249.384 Y180.088
G1 F900 X245.085 Y175.788 E33.25272
G1 X244.997 Y175.7
G0 F3937.5 X245.792 Y175.788
G1 F900 X249.384 Y179.38 E33.42194
G1 X249.472 Y179.468
G0 F3937.5 X249.384 Y178.673
G1 F900 X246.499 Y175.788 E33.55784
G1 X246.411 Y175.7
G0 F3937.5 X247.206 Y175.788
G1 F900 X249.384 Y177.966 E33.66044
G1 X249.472 Y178.054
G0 F3937.5 X249.384 Y177.259
G1 F900 X247.913 Y175.788 E33.72974
G1 X247.825 Y175.7
G0 F3937.5 X248.62 Y175.788
G1 F900 X249.384 Y176.552 E33.76573
G1 X249.472 Y176.64
G0 F3937.5 X248.285 Y193.838
G1 F900 X230.236 Y175.788 E34.61601
G1 X230.148 Y175.7
G0 F3937.5 X229.528 Y175.788
G1 F900 X247.578 Y193.838 E35.4663
G1 X247.666 Y193.926
G0 F3937.5 X246.871 Y193.838
G1 F900 X228.821 Y175.788 E36.3166
G1 X228.733 Y175.7
G0 F3937.5 X228.114 Y175.788
G1 F900 X246.164 Y193.838 E37.1669
G1 X246.252 Y193.926
G0 F3937.5 X245.457 Y193.838
G1 F900 X227.407 Y175.788 E38.0172
G1 X227.319 Y175.7
G0 F3937.5 X226.7 Y175.788
G1 F900 X244.75 Y193.838 E38.8675
G1 X244.838 Y193.926
G0 F3937.5 X244.043 Y193.838
G1 F900 X225.993 Y175.788 E39.7178
G1 X225.905 Y175.7
G0 F3937.5 X225.286 Y175.788
G1 F900 X243.335 Y193.838 E40.56807
G1 X243.423 Y193.926
G0 F3937.5 X242.628 Y193.838
G1 F900 X224.579 Y175.788 E41.41835
G1 X224.491 Y175.7
G0 F3937.5 X223.872 Y175.788
G1 F900 X241.921 Y193.838 E42.26862
G1 X242.009 Y193.926
G0 F3937.5 X241.214 Y193.838
G1 F900 X223.165 Y175.788 E43.1189
G1 X223.077 Y175.7
G0 F3937.5 X222.457 Y175.788
G1 F900 X240.507 Y193.838 E43.9692
G1 X240.595 Y193.926
G0 F3937.5 X239.8 Y193.838
G1 F900 X221.75 Y175.788 E44.8195
G1 X221.662 Y175.7
G0 F3937.5 X221.043 Y175.788
G1 F900 X239.093 Y193.838 E45.6698
G1 X239.181 Y193.926
G0 F3937.5 X238.386 Y193.838
G1 F900 X220.336 Y175.788 E46.52009
G1 X220.248 Y175.7
G0 F3937.5 X219.629 Y175.788
G1 F900 X237.679 Y193.838 E47.37039
G1 X237.767 Y193.926
G0 F3937.5 X236.971 Y193.838
G1 F900 X218.922 Y175.788 E48.22067
G1 X218.834 Y175.7
G0 F3937.5 X218.215 Y175.788
G1 F900 X236.264 Y193.838 E49.07094
G1 X236.352 Y193.926
G0 F3937.5 X235.557 Y193.838
G1 F900 X217.508 Y175.788 E49.92122
G1 X217.42 Y175.7
G0 F3937.5 X216.801 Y175.788
G1 F900 X234.85 Y193.838 E50.77149
G1 X234.938 Y193.926
G0 F3937.5 X234.143 Y193.838
G1 F900 X216.093 Y175.788 E51.62179
G1 X216.005 Y175.7
G0 F3937.5 X215.386 Y175.788
G1 F900 X233.436 Y193.838 E52.47209
G1 X233.524 Y193.926
G0 F3937.5 X232.729 Y193.838
G1 F900 X214.679 Y175.788 E53.32239
G1 X214.591 Y175.7
G0 F3937.5 X213.972 Y175.788
G1 F900 X232.022 Y193.838 E54.17269
G1 X232.11 Y193.926
G0 F3937.5 X231.315 Y193.838
G1 F900 X213.265 Y175.788 E55.02299
G1 X213.177 Y175.7
G0 F3937.5 X212.558 Y175.788
G1 F900 X230.608 Y193.838 E55.87329
G1 X230.696 Y193.926
G0 F3937.5 X229.9 Y193.838
G1 F900 X211.851 Y175.788 E56.72356
G1 X211.763 Y175.7
G0 F3937.5 X211.144 Y175.788
G1 F900 X229.193 Y193.838 E57.57384
G1 X229.281 Y193.926
G0 F3937.5 X228.486 Y193.838
G1 F900 X210.437 Y175.788 E58.42411
G1 X210.349 Y175.7
G0 F3937.5 X209.729 Y175.788
G1 F900 X227.779 Y193.838 E59.27441
G1 X227.867 Y193.926
G0 F3937.5 X227.072 Y193.838
G1 F900 X209.022 Y175.788 E60.12471
G1 X208.934 Y175.7
G0 F3937.5 X208.315 Y175.788
G1 F900 X226.365 Y193.838 E60.97501
G1 X226.453 Y193.926
G0 F3937.5 X225.658 Y193.838
G1 F900 X207.608 Y175.788 E61.82531
G1 X207.52 Y175.7
G0 F3937.5 X206.901 Y175.788
G1 F900 X224.951 Y193.838 E62.67561
G1 X225.039 Y193.926
G0 F3937.5 X224.244 Y193.838
G1 F900 X206.334 Y175.928 E63.51931
G1 X206.246 Y175.84
G0 F3937.5 X206.334 Y176.635
G1 F900 X223.536 Y193.838 E64.32968
G1 X223.624 Y193.926
G0 F3937.5 X222.829 Y193.838
G1 F900 X206.334 Y177.343 E65.10673
G1 X206.246 Y177.255
G0 F3937.5 X206.334 Y178.05
G1 F900 X222.122 Y193.838 E65.85047
G1 X222.21 Y193.926
G0 F3937.5 X221.415 Y193.838
G1 F900 X206.334 Y178.757 E66.56091
G1 X206.246 Y178.669
G0 F3937.5 X206.334 Y179.464
G1 F900 X220.708 Y193.838 E67.23804
G1 X220.796 Y193.926
G0 F3937.5 X220.001 Y193.838
G1 F900 X206.334 Y180.171 E67.88186
G1 X206.246 Y180.083
G0 F3937.5 X206.334 Y180.878
G1 F900 X219.294 Y193.838 E68.49238
G1 X219.382 Y193.926
G0 F3937.5 X218.587 Y193.838
G1 F900 X206.334 Y181.585 E69.06959
G1 X206.246 Y181.497
G0 F3937.5 X206.334 Y182.292
G1 F900 X217.88 Y193.838 E69.6135
G1 X217.968 Y193.926
G0 F3937.5 X217.172 Y193.838
G1 F900 X206.334 Y182.999 E70.12408
G1 X206.246 Y182.911
G0 F3937.5 X206.334 Y183.707
G1 F900 X216.465 Y193.838 E70.60133
G1 X216.553 Y193.926
G0 F3937.5 X215.758 Y193.838
G1 F900 X206.334 Y184.414 E71.04528
G1 X206.246 Y184.326
G0 F3937.5 X206.334 Y185.121
G1 F900 X215.051 Y193.838 E71.45592
G1 X215.139 Y193.926
G0 F3937.5 X214.344 Y193.838
G1 F900 X206.334 Y185.828 E71.83325
G1 X206.246 Y185.74
G0 F3937.5 X206.334 Y186.535
G1 F900 X213.637 Y193.838 E72.17728
G1 X213.725 Y193.926
G0 F3937.5 X212.93 Y193.838
G1 F900 X206.334 Y187.242 E72.48801
G1 X206.246 Y187.154
G0 F3937.5 X206.334 Y187.949
G1 F900 X212.223 Y193.838 E72.76542
G1 X212.311 Y193.926
G0 F3937.5 X211.516 Y193.838
G1 F900 X206.334 Y188.656 E73.00954
G1 X206.246 Y188.568
G0 F3937.5 X206.334 Y189.363
G1 F900 X210.809 Y193.838 E73.22035
G1 X210.897 Y193.926
G0 F3937.5 X210.101 Y193.838
G1 F900 X206.334 Y190.071 E73.3978
G1 X206.246 Y189.983
G0 F3937.5 X206.334 Y190.778
G1 F900 X209.394 Y193.838 E73.54195
G1 X209.482 Y193.926
G0 F3937.5 X208.687 Y193.838
G1 F900 X206.334 Y191.485 E73.6528
G1 X206.246 Y191.397
G0 F3937.5 X206.334 Y192.192
G1 F900 X207.98 Y193.838 E73.73034
G1 X208.068 Y193.926
G0 F3937.5 X207.273 Y193.838
G1 F900 X206.334 Y192.899 E73.77457
G1 X206.246 Y192.811
G0 F3937.5 X206.334 Y193.606
G1 F900 X206.566 Y193.838 E73.7855
M104 S205
G0 F3937.5 X206.61 Y193.564
G1 F600 E72.0355
G0 F3937.5 X247.41 Y175.584
G0 X247.41 Y174.149
G0 X247.41 Y167.481
;TIME_ELAPSED:163.180508
;LAYER:1
M140 S60
M221 S100
M106 S36.4
G0 F7218.8 X247.41 Y167.481 Z0.674
;TYPE:SUPPORT
G1 F600 E73.7855
G1 F1650 X247.41 Y173.064 E73.8949
G1 X248.234 Y173.064 E73.91104
G1 X249.9 Y173.064 E73.94369
G1 X250.31 Y173.064 E73.95172
G1 X250.31 Y167.481 E74.06111
G1 X250.193 Y167.364 E74.06436
G1 X249.9 Y167.364 E74.0701
G1 X249.9 Y173.064 E74.18179
G0 F7218.8 X248.234 Y173.064
G1 F1650 X248.234 Y167.364 E74.29347
G1 X247.527 Y167.364 E74.30733
G1 X247.41 Y167.481 E74.31057
G1 F600 E72.56057
G0 F7218.8 X205.232 Y174.153
G0 X204.699 Y174.686
G0 X204.699 Y194.942
G0 X205.232 Y195.475
G0 X247.41 Y196.564
G1 F600 E74.31057
G1 F1650 X247.41 Y202.147 E74.41996
G1 X247.527 Y202.264 E74.42321
G1 X248.234 Y202.264 E74.43706
G1 X249.9 Y202.264 E74.4697
G1 X250.193 Y202.264 E74.47544
G1 X250.31 Y202.147 E74.47869
G1 X250.31 Y196.564 E74.58808
G1 X249.9 Y196.564 E74.59611
G1 X249.9 Y202.264 E74.7078
G0 F7218.8 X248.234 Y202.264
G1 F1650 X248.234 Y196.564 E74.81949
G1 X247.41 Y196.564 E74.83564
G1 F600 E73.08564
G0 F7218.8 X247.41 Y195.479
G0 X247.41 Y194.044
G0 X249.54 Y193.994
G0 X249.61 Y194.064
;TYPE:WALL-INNER
G1 F600 E74.83564
G1 F1800 X206.11 Y194.064 E75.68799
