;Generated by Cura LulzBot Edition GCodeWriter Version: 2.6.69
;FLAVOR:RepRap
;TIME:3119
;Filament used: 0.584483m
;Layer height: 0.25
;Generated with Cura_SteamEngine 2.6.69
;This G-Code has been generated specifically for the LulzBot TAZ 5 with standard extruder
M140 S60    ; start bed heating up
G21                      ; set units to Millimetres
G90                      ; absolute positioning
M107                     ; disable fans
M82                      ; set extruder to absolute mode
G28 X0 Y0                ; home X and Y
G28 Z0                   ; home Z
G1 Z15.0 F{travel_speed} ; move extruder up
M117 Heating...                     ; progress indicator message on LCD
M109 R205  ; wait for extruder to reach printing temp
M190 S60    ; wait for bed to reach printing temp
G92 E0                   ; set extruder position to 0
G1 F200 E0               ; prime the nozzle with filament
G92 E0                   ; re-set extruder position to 0
G1 F{travel_speed}       ; set travel speed
M203 X192 Y208 Z3        ; set limits on travel speed
M117 TAZ 5 Printing...   ; progress indicator message on LCD

M221 S100
;LAYER_COUNT:171
;LAYER:0
M107
G0 F3937.5 X254.497 Y182.527 Z0.424
G0 X254.195 Y183.026
;TYPE:SKIRT
G1 F900 X254.497 Y182.527 E0.01943
G1 X254.962 Y181.974 E0.0435
G1 X255.22 Y181.715 E0.05567
G1 X255.659 Y181.331 E0.0751
G1 X256.146 Y181.011 E0.09451
G1 X256.672 Y180.76 E0.11393
G1 X257.227 Y180.584 E0.13332
G1 X257.802 Y180.486 E0.15275
G1 X258.231 Y180.464 E0.16706
G1 X265.096 Y180.464 E0.39574
G1 X265.677 Y180.504 E0.41513
G1 X266.248 Y180.623 E0.43456
G1 X266.797 Y180.819 E0.45398
G1 X267.313 Y181.088 E0.47336
G1 X267.789 Y181.426 E0.49281
G1 X268.101 Y181.709 E0.50684
G1 X268.361 Y181.969 E0.51909
G1 X268.744 Y182.408 E0.5385
G1 X269.139 Y183.037 E0.56324
G1 X270.496 Y185.687 E0.66241
G1 X273.205 Y190.46 E0.84522
G1 X274.264 Y192.164 E0.91205
G1 X274.537 Y192.679 E0.93147
G1 X274.737 Y193.226 E0.95087
G1 X274.86 Y193.796 E0.97029
G1 X274.904 Y194.406 E0.99067
G1 X274.904 Y210.395 E1.52327
G1 X274.864 Y210.976 E1.54266
G1 X274.745 Y211.547 E1.56209
G1 X274.549 Y212.096 E1.58151
G1 X274.299 Y212.581 E1.59969
G1 X271.948 Y216.5 E1.75192
G1 X269.015 Y221.939 E1.95776
G1 X268.704 Y222.432 E1.97717
G1 X268.227 Y222.978 E2.00132
G1 X268.049 Y223.15 E2.00957
G1 X267.603 Y223.526 E2.029
G1 X267.11 Y223.836 E2.0484
G1 X266.58 Y224.077 E2.06779
G1 X266.021 Y224.242 E2.08721
G1 X265.445 Y224.33 E2.10662
G1 X265.096 Y224.344 E2.11825
G1 X258.236 Y224.344 E2.34676
G1 X257.655 Y224.304 E2.36616
G1 X257.084 Y224.185 E2.38559
G1 X256.535 Y223.989 E2.40501
G1 X256.019 Y223.72 E2.42439
G1 X255.543 Y223.382 E2.44384
G1 X255.242 Y223.111 E2.45733
G1 X254.976 Y222.847 E2.46981
G1 X254.592 Y222.409 E2.48922
G1 X254.214 Y221.819 E2.51256
G1 X251.51 Y216.715 E2.70496
G1 X249.032 Y212.59 E2.86525
G1 X248.767 Y212.071 E2.88466
G1 X248.575 Y211.521 E2.90407
G1 X248.461 Y210.949 E2.92349
G1 X248.425 Y210.401 E2.94179
G1 X248.424 Y194.413 E3.47435
G1 X248.464 Y193.832 E3.49375
G1 X248.583 Y193.261 E3.51318
G1 X248.779 Y192.713 E3.53257
G1 X249.001 Y192.274 E3.54895
G1 X252.718 Y185.892 E3.79497
G1 X254.195 Y183.026 E3.90237
G0 F3937.5 X254.64 Y183.255
G1 F900 X254.925 Y182.788 E3.92059
G1 X255.316 Y182.326 E3.94075
G1 X255.574 Y182.067 E3.95293
G1 X255.988 Y181.709 E3.97116
G1 X256.449 Y181.414 E3.98939
G1 X256.948 Y181.19 E4.00761
G1 X257.475 Y181.041 E4.02586
G1 X258.231 Y180.964 E4.05117
G1 X265.096 Y180.964 E4.27984
G1 X265.642 Y181.004 E4.29808
G1 X266.176 Y181.123 E4.31631
G1 X266.687 Y181.318 E4.33452
G1 X267.165 Y181.586 E4.35278
G1 X267.748 Y182.062 E4.37785
G1 X268.008 Y182.322 E4.3901
G1 X268.365 Y182.737 E4.40833
G1 X268.694 Y183.265 E4.42905
G1 X270.053 Y185.919 E4.52838
G1 X272.772 Y190.709 E4.71185
G1 X273.84 Y192.428 E4.77926
G1 X274.094 Y192.912 E4.79747
G1 X274.274 Y193.429 E4.8157
G1 X274.378 Y193.966 E4.83392
G1 X274.404 Y194.406 E4.8486
G1 X274.404 Y210.395 E5.3812
G1 X274.364 Y210.941 E5.39944
G1 X274.245 Y211.475 E5.41766
G1 X274.05 Y211.986 E5.43588
G1 X273.87 Y212.324 E5.44864
G1 X271.517 Y216.246 E5.60099
G1 X268.575 Y221.702 E5.80747
G1 X268.28 Y222.163 E5.8257
G1 X267.88 Y222.619 E5.84591
G1 X267.702 Y222.791 E5.85415
G1 X267.281 Y223.141 E5.87239
G1 X266.815 Y223.427 E5.8906
G1 X266.311 Y223.642 E5.90885
G1 X265.782 Y223.781 E5.92707
G1 X265.096 Y223.844 E5.95002
G1 X258.236 Y223.844 E6.17853
G1 X257.69 Y223.804 E6.19676
G1 X257.156 Y223.685 E6.21499
G1 X256.645 Y223.49 E6.23321
G1 X256.167 Y223.222 E6.25146
G1 X255.594 Y222.756 E6.27606
G1 X255.328 Y222.492 E6.28855
G1 X254.969 Y222.079 E6.30678
G1 X254.656 Y221.585 E6.32626
G1 X251.942 Y216.461 E6.5194
G1 X249.461 Y212.332 E6.67986
G1 X249.214 Y211.844 E6.69808
G1 X249.041 Y211.325 E6.7163
G1 X248.945 Y210.786 E6.73454
G1 X248.925 Y210.401 E6.74738
G1 X248.924 Y194.413 E7.27995
G1 X248.964 Y193.867 E7.29818
G1 X249.083 Y193.333 E7.31641
G1 X249.278 Y192.822 E7.33463
G1 X249.433 Y192.526 E7.34576
G1 X253.159 Y186.127 E7.59241
G1 X254.64 Y183.255 E7.70005
G0 F3937.5 X255.084 Y183.484
G1 F900 X255.352 Y183.051 E7.71701
G1 X255.67 Y182.679 E7.73331
G1 X255.928 Y182.42 E7.74549
G1 X256.315 Y182.089 E7.76245
G1 X256.749 Y181.822 E7.77943
G1 X257.219 Y181.625 E7.7964
G1 X257.715 Y181.505 E7.8134
G1 X258.231 Y181.464 E7.83064
G1 X265.096 Y181.464 E8.05932
G1 X265.604 Y181.504 E8.07629
G1 X266.099 Y181.623 E8.09325
G1 X266.57 Y181.818 E8.11023
G1 X267.005 Y182.084 E8.12722
G1 X267.394 Y182.416 E8.14425
G1 X267.654 Y182.676 E8.1565
G1 X267.985 Y183.063 E8.17346
G1 X268.249 Y183.493 E8.19027
G1 X269.615 Y186.161 E8.29011
G1 X272.337 Y190.955 E8.47375
G1 X273.415 Y192.691 E8.54182
G1 X273.649 Y193.144 E8.5588
G1 X273.809 Y193.627 E8.57575
G1 X273.892 Y194.13 E8.59273
G1 X273.904 Y194.406 E8.60193
G1 X273.904 Y210.395 E9.13453
G1 X273.864 Y210.903 E9.15151
G1 X273.745 Y211.398 E9.16847
G1 X273.441 Y212.067 E9.19294
G1 X271.086 Y215.993 E9.34544
G1 X268.135 Y221.465 E9.55253
G1 X267.858 Y221.893 E9.56952
G1 X267.532 Y222.259 E9.58584
G1 X267.354 Y222.431 E9.59409
G1 X266.961 Y222.755 E9.61105
G1 X266.522 Y223.014 E9.62803
G1 X266.049 Y223.201 E9.64498
G1 X265.551 Y223.312 E9.66197
G1 X265.096 Y223.344 E9.67716
G1 X258.236 Y223.344 E9.90567
G1 X257.728 Y223.304 E9.92265
G1 X257.233 Y223.185 E9.93961
G1 X256.762 Y222.99 E9.95659
G1 X256.327 Y222.724 E9.97357
G1 X255.947 Y222.401 E9.99018
G1 X255.681 Y222.137 E10.00267
G1 X255.348 Y221.751 E10.01965
G1 X255.098 Y221.351 E10.03536
G1 X252.385 Y216.229 E10.22843
G1 X249.889 Y212.075 E10.38986
G1 X249.662 Y211.619 E10.40683
G1 X249.509 Y211.133 E10.4238
G1 X249.425 Y210.401 E10.44835
G1 X249.424 Y194.413 E10.98091
G1 X249.464 Y193.905 E10.99789
G1 X249.583 Y193.41 E11.01484
G1 X249.866 Y192.777 E11.03794
G1 X253.59 Y186.383 E11.28442
G1 X255.084 Y183.484 E11.39305
G0 F3937.5 X258.214 Y185.071
;TYPE:SUPPORT
G1 F900 X258.331 Y184.954 E11.39857
G1 X264.997 Y184.954 E11.62061
G1 X265.114 Y185.071 E11.62612
G1 X265.114 Y192.654 E11.87872
G1 X258.214 Y192.654 E12.10856
G1 X258.214 Y185.071 E12.36115
G0 F3937.5 X260.406 Y186.62
G1 F900 X259.823 Y187.157 E12.38755
G1 X259.314 Y187.808 E12.41508
G1 X259.12 Y188.72 E12.44614
G1 X259.147 Y189.524 E12.47293
G1 X259.52 Y190.308 E12.50186
G1 X260.138 Y190.996 E12.53266
G1 X260.735 Y191.278 E12.55465
G1 X262.395 Y191.748 E12.61212
G1 X263.015 Y191.511 E12.63423
G1 X263.807 Y190.265 E12.68341
G1 X264.025 Y189.886 E12.69798
G1 X264.203 Y189.217 E12.72104
G1 X264.203 Y188.547 E12.74335
G1 X264.005 Y187.858 E12.76723
G1 X263.555 Y187.169 E12.79465
G1 X262.957 Y186.674 E12.8205
G1 X262.318 Y186.442 E12.84315
G1 X261.88 Y186.364 E12.85797
G1 X261.323 Y186.364 E12.87652
G1 X260.406 Y186.62 E12.90824
G0 F3937.5 X260.14 Y186.592
G1 F900 X258.414 Y186.592 E12.96573
G0 F3937.5 X259.896 Y186.818
G1 F900 X259.896 Y185.154 E13.02116
G0 F3937.5 X261.562 Y185.154
G1 F900 X261.562 Y186.164 E13.0548
G0 F3937.5 X263.17 Y186.592
G1 F900 X264.914 Y186.592 E13.1129
G0 F3937.5 X264.894 Y185.154
G1 F900 X264.894 Y192.454 E13.35606
G0 F3937.5 X264.914 Y191.59
G1 F900 X263.201 Y191.59 E13.41312
G0 F3937.5 X263.228 Y191.548
G1 F900 X263.228 Y192.454 E13.4433
G0 F3937.5 X261.562 Y192.454
G1 F900 X261.562 Y191.72 E13.46775
G0 F3937.5 X261.108 Y191.59
G1 F900 X258.414 Y191.59 E13.55749
G0 F3937.5 X259.896 Y191.027
G1 F900 X259.896 Y192.454 E13.60502
G0 F3937.5 X259.117 Y189.924
G1 F900 X258.414 Y189.924 E13.62844
G0 F3937.5 X258.414 Y188.258
G1 F900 X259.013 Y188.258 E13.64839
G0 F3937.5 X263.228 Y186.64
G1 F900 X263.228 Y185.154 E13.69789
G0 F3937.5 X264.328 Y188.258
G1 F900 X264.914 Y188.258 E13.71741
G0 F3937.5 X264.914 Y189.924
G1 F900 X264.223 Y189.924 E13.74043
G1 F600 E11.99043
G0 F3937.5 X252.536 Y193.743
G0 X252.003 Y194.276
G0 X252.003 Y210.532
G0 X252.536 Y211.065
G0 X265.114 Y212.154
G1 F600 E13.74043
G1 F900 X265.114 Y219.737 E13.99302
G1 X264.997 Y219.854 E13.99853
G1 X258.331 Y219.854 E14.22058
G1 X258.214 Y219.737 E14.22609
G1 X258.214 Y212.154 E14.47868
G1 X265.114 Y212.154 E14.70853
G0 F3937.5 X263.503 Y214.099
G1 F900 X262.787 Y213.591 E14.73777
G1 X262.23 Y213.427 E14.75711
G1 X261.843 Y213.364 E14.77017
G1 X261.512 Y213.364 E14.7812
G1 X260.954 Y213.421 E14.79988
G1 X260.185 Y213.802 E14.82847
G1 X259.546 Y214.4 E14.85762
G1 X259.234 Y215.143 E14.88446
G1 X259.107 Y215.713 E14.90392
G1 X259.19 Y216.92 E14.94422
G1 X260.1 Y217.943 E14.98982
G1 X260.993 Y218.415 E15.02347
G1 X261.636 Y218.444 E15.04491
G1 X262.096 Y218.444 E15.06023
G1 X262.84 Y218.18 E15.08653
G1 X263.603 Y217.659 E15.11731
G1 X264.081 Y216.756 E15.15134
G1 X264.203 Y216.195 E15.17046
G1 X264.203 Y215.557 E15.19172
G1 X263.993 Y214.834 E15.21679
G1 X263.503 Y214.099 E15.24622
G0 F3937.5 X263.228 Y213.658
G1 F900 X263.228 Y212.354 E15.28966
G0 F3937.5 X262.332 Y213.248
G1 F900 X264.914 Y213.248 E15.37566
G0 F3937.5 X264.894 Y212.354
G1 F900 X264.894 Y219.654 E15.61883
G0 F3937.5 X264.914 Y218.246
G1 F900 X263.097 Y218.246 E15.67935
G0 F3937.5 X263.228 Y218.157
G1 F900 X263.228 Y219.654 E15.72922
G0 F3937.5 X261.562 Y219.654
G1 F900 X261.562 Y218.641 E15.76296
G0 F3937.5 X260.247 Y218.246
G1 F900 X258.414 Y218.246 E15.82402
G0 F3937.5 X259.896 Y218.016
G1 F900 X259.896 Y219.654 E15.87858
G0 F3937.5 X258.967 Y216.58
G1 F900 X258.414 Y216.58 E15.897
G0 F3937.5 X258.414 Y214.914
G1 F900 X259.112 Y214.914 E15.92025
G0 F3937.5 X259.896 Y213.799
G1 F900 X259.896 Y212.354 E15.96839
G0 F3937.5 X260.85 Y213.248
G1 F900 X258.414 Y213.248 E16.04953
G0 F3937.5 X261.562 Y213.164
G1 F900 X261.562 Y212.354 E16.07651
G0 F3937.5 X264.225 Y214.914
G1 F900 X264.914 Y214.914 E16.09946
G0 F3937.5 X264.914 Y216.58
G1 F900 X264.324 Y216.58 E16.11912
G1 F600 E14.36912
G0 F3937.5 X264.324 Y211.069
G0 X264.324 Y209.634
G0 X269.844 Y209.584
G0 X269.914 Y209.654
;TYPE:WALL-INNER
G1 F600 E16.11912
G1 F900 X253.414 Y209.654 E16.66874
G1 X253.414 Y195.154 E17.15174
G1 X269.914 Y195.154 E17.70136
G1 X269.914 Y209.654 E18.18436
G0 F3937.5 X269.844 Y209.584
G0 X268.937 Y205.738
G0 X268.867 Y205.668
G1 F900 X268.867 Y199.168 E18.40088
G1 X254.367 Y199.168 E18.88388
G1 X254.367 Y205.668 E19.10039
G1 X268.867 Y205.668 E19.58339
G0 F3937.5 X268.367 Y205.168
;TYPE:WALL-OUTER
G1 F900 X268.367 Y199.668 E19.7666
G1 X254.867 Y199.668 E20.21629
G1 X254.867 Y205.168 E20.3995
G1 X268.367 Y205.168 E20.84919
G0 F3937.5 X268.367 Y204.918
G0 X268.967 Y204.918
G0 X269.844 Y209.584
G0 X270.414 Y210.154
G1 F900 X252.914 Y210.154 E21.43212
G1 X252.914 Y194.654 E21.94843
G1 X270.414 Y194.654 E22.53136
G1 X270.414 Y210.154 E23.04767
G0 F3937.5 X270.164 Y210.154
G0 X269.532 Y209.428
;TYPE:SKIN
G1 F900 X265.997 Y205.893 E23.2142
G1 X265.909 Y205.805
G0 F3937.5 X266.704 Y205.893
G1 F900 X269.688 Y208.877 E23.35477
G1 X269.776 Y208.965
G0 F3937.5 X269.688 Y208.17
G1 F900 X267.411 Y205.893 E23.46203
G1 X267.323 Y205.805
G0 F3937.5 X268.118 Y205.893
G1 F900 X269.688 Y207.463 E23.53599
G1 X269.776 Y207.551
G0 F3937.5 X269.688 Y206.755
G1 F900 X268.825 Y205.893 E23.57662
G1 X268.737 Y205.805
G0 F3937.5 X269.389 Y205.749
G1 F900 X269.389 Y205.042 E23.60479
G1 X269.389 Y204.335 E23.63296
G1 X269.389 Y203.628 E23.66112
G1 X269.389 Y202.921 E23.68929
G1 X269.389 Y202.214 E23.71746
G1 X269.389 Y201.507 E23.74562
G1 X269.389 Y200.8 E23.77379
G1 X269.389 Y200.092 E23.80199
G1 X269.389 Y199.385 E23.83016
G0 F3937.5 X268.946 Y198.943
G1 F900 X265.382 Y195.378 E23.99808
G1 X265.294 Y195.29
G0 F3937.5 X264.675 Y195.378
G1 F900 X268.239 Y198.943 E24.16599
G1 X268.327 Y199.031
G0 F3937.5 X267.532 Y198.943
G1 F900 X263.967 Y195.378 E24.33393
G1 X263.879 Y195.29
G0 F3937.5 X263.26 Y195.378
G1 F900 X266.825 Y198.943 E24.50187
G1 X266.913 Y199.031
G0 F3937.5 X266.118 Y198.943
G1 F900 X262.553 Y195.378 E24.66981
G1 X262.465 Y195.29
G0 F3937.5 X261.846 Y195.378
G1 F900 X265.411 Y198.943 E24.83775
G1 X265.499 Y199.031
G0 F3937.5 X264.704 Y198.943
G1 F900 X261.139 Y195.378 E25.00569
G1 X261.051 Y195.29
G0 F3937.5 X260.432 Y195.378
G1 F900 X263.996 Y198.943 E25.17361
G1 X264.084 Y199.031
G0 F3937.5 X263.289 Y198.943
G1 F900 X259.725 Y195.378 E25.34153
G1 X259.637 Y195.29
G0 F3937.5 X259.018 Y195.378
G1 F900 X262.582 Y198.943 E25.50944
G1 X262.67 Y199.031
G0 F3937.5 X261.875 Y198.943
G1 F900 X258.311 Y195.378 E25.67736
G1 X258.223 Y195.29
G0 F3937.5 X257.603 Y195.378
G1 F900 X261.168 Y198.943 E25.8453
G1 X261.256 Y199.031
G0 F3937.5 X260.461 Y198.943
G1 F900 X256.896 Y195.378 E26.01324
G1 X256.808 Y195.29
G0 F3937.5 X256.189 Y195.378
G1 F900 X259.754 Y198.943 E26.18118
G1 X259.842 Y199.031
G0 F3937.5 X259.047 Y198.943
G1 F900 X255.482 Y195.378 E26.34912
G1 X255.394 Y195.29
G0 F3937.5 X254.775 Y195.378
G1 F900 X258.34 Y198.943 E26.51706
G1 X258.428 Y199.031
G0 F3937.5 X257.632 Y198.943
G1 F900 X254.068 Y195.378 E26.68497
G1 X253.98 Y195.29
G0 F3937.5 X253.638 Y195.655
G1 F900 X256.925 Y198.943 E26.83984
G1 X257.013 Y199.031
G0 F3937.5 X256.218 Y198.943
G1 F900 X253.638 Y196.362 E26.9614
G1 X253.55 Y196.274
G0 F3937.5 X253.638 Y197.069
G1 F900 X255.511 Y198.943 E27.04966
G1 X255.599 Y199.031
G0 F3937.5 X254.804 Y198.943
G1 F900 X253.638 Y197.777 E27.10459
G1 X253.55 Y197.689
G0 F3937.5 X253.889 Y198.735
G1 F900 X253.889 Y199.442 E27.12828
G1 X253.889 Y200.149 E27.15197
G1 X253.889 Y200.856 E27.17566
G1 X253.889 Y201.563 E27.19935
G1 X253.889 Y202.27 E27.22305
G1 X253.889 Y202.977 E27.24674
G1 X253.889 Y203.684 E27.27043
G1 X253.889 Y204.392 E27.29416
G1 X253.889 Y205.099 E27.31785
G0 F3937.5 X253.638 Y205.555
G1 F900 X257.512 Y209.428 E27.50032
G1 X257.6 Y209.516
G0 F3937.5 X258.219 Y209.428
G1 F900 X254.683 Y205.893 E27.66687
G1 X254.595 Y205.805
G0 F3937.5 X255.39 Y205.893
G1 F900 X258.926 Y209.428 E27.83342
G1 X259.014 Y209.516
G0 F3937.5 X259.633 Y209.428
G1 F900 X256.097 Y205.893 E27.99997
G1 X256.009 Y205.805
G0 F3937.5 X256.804 Y205.893
G1 F900 X260.34 Y209.428 E28.16652
G1 X260.428 Y209.516
G0 F3937.5 X261.047 Y209.428
G1 F900 X257.512 Y205.893 E28.33305
G1 X257.424 Y205.805
G0 F3937.5 X258.219 Y205.893
G1 F900 X261.754 Y209.428 E28.49957
G1 X261.842 Y209.516
G0 F3937.5 X262.461 Y209.428
G1 F900 X258.926 Y205.893 E28.6661
G1 X258.838 Y205.805
G0 F3937.5 X259.633 Y205.893
G1 F900 X263.168 Y209.428 E28.83263
G1 X263.256 Y209.516
G0 F3937.5 X263.875 Y209.428
G1 F900 X260.34 Y205.893 E28.99915
G1 X260.252 Y205.805
G0 F3937.5 X261.047 Y205.893
G1 F900 X264.583 Y209.428 E29.1657
G1 X264.671 Y209.516
G0 F3937.5 X265.29 Y209.428
G1 F900 X261.754 Y205.893 E29.33225
G1 X261.666 Y205.805
G0 F3937.5 X262.461 Y205.893
G1 F900 X265.997 Y209.428 E29.4988
G1 X266.085 Y209.516
G0 F3937.5 X266.704 Y209.428
G1 F900 X263.168 Y205.893 E29.66535
G1 X263.08 Y205.805
G0 F3937.5 X263.875 Y205.893
G1 F900 X267.411 Y209.428 E29.8319
G1 X267.499 Y209.516
G0 F3937.5 X268.118 Y209.428
G1 F900 X264.583 Y205.893 E29.99843
G1 X264.495 Y205.805
G0 F3937.5 X265.29 Y205.893
G1 F900 X268.825 Y209.428 E30.16496
G1 X268.913 Y209.516
G0 F3937.5 X269.688 Y198.977
G1 F900 X266.089 Y195.378 E30.3345
G1 X266.001 Y195.29
G0 F3937.5 X266.796 Y195.378
G1 F900 X269.688 Y198.27 E30.47074
G1 X269.776 Y198.358
