;Generated by Cura LulzBot Edition GCodeWriter Version: 2.6.69
;FLAVOR:RepRap
;TIME:3180
;Filament used: 1.31823m
;Layer height: 0.25
;Generated with Cura_SteamEngine 2.6.69
;This G-Code has been generated specifically for the LulzBot TAZ 5 with standard extruder
M140 S60    ; start bed heating up
G21                      ; set units to Millimetres
G90                      ; absolute positioning
M107                     ; disable fans
M82                      ; set extruder to absolute mode
G28 X0 Y0                ; home X and Y
G28 Z0                   ; home Z
G1 Z15.0 F{travel_speed} ; move extruder up
M117 Heating...                     ; progress indicator message on LCD
M109 R205  ; wait for extruder to reach printing temp
M190 S60    ; wait for bed to reach printing temp
G92 E0                   ; set extruder position to 0
G1 F200 E0               ; prime the nozzle with filament
G92 E0                   ; re-set extruder position to 0
G1 F{travel_speed}       ; set travel speed
M203 X192 Y208 Z3        ; set limits on travel speed
M117 TAZ 5 Printing...   ; progress indicator message on LCD

M221 S100
;LAYER_COUNT:79
;LAYER:0
M107
G0 F3937.5 X226.137 Y231.53 Z0.424
;TYPE:SKIRT
G1 F900 X226.531 Y231.15 E0.01823
G1 X226.993 Y230.821 E0.03713
G1 X229.645 Y229.221 E0.1403
G1 X234.203 Y226.207 E0.32232
G1 X238.567 Y222.952 E0.50367
G1 X242.743 Y219.455 E0.6851
G1 X246.736 Y215.706 E0.86755
G1 X248.613 Y213.787 E0.95697
G1 X251.16 Y211.004 E1.08263
G1 X251.558 Y210.628 E1.10087
G1 X252.006 Y210.315 E1.11907
G1 X252.496 Y210.07 E1.13732
G1 X253.015 Y209.898 E1.15553
G1 X253.555 Y209.804 E1.17379
G1 X253.926 Y209.786 E1.18617
G1 X270.911 Y209.787 E1.75194
G1 X271.457 Y209.827 E1.77018
G1 X271.991 Y209.946 E1.7884
G1 X272.503 Y210.142 E1.80666
G1 X272.98 Y210.409 E1.82487
G1 X273.413 Y210.744 E1.84311
G1 X273.793 Y211.138 E1.86134
G1 X274.112 Y211.583 E1.87958
G1 X274.362 Y212.07 E1.89782
G1 X274.539 Y212.588 E1.91605
G1 X274.638 Y213.126 E1.93427
G1 X274.661 Y213.537 E1.94798
G1 X274.661 Y241.018 E2.86339
G1 X274.621 Y241.564 E2.88162
G1 X274.502 Y242.098 E2.89985
G1 X274.307 Y242.609 E2.91807
G1 X274.039 Y243.087 E2.93632
G1 X273.704 Y243.52 E2.95456
G1 X273.31 Y243.9 E2.97279
G1 X272.865 Y244.219 E2.99103
G1 X272.378 Y244.469 E3.00926
G1 X271.86 Y244.646 E3.0275
G1 X271.322 Y244.745 E3.04572
G1 X270.911 Y244.768 E3.05943
G1 X228.929 Y244.768 E4.45787
G1 X228.383 Y244.728 E4.4761
G1 X227.849 Y244.609 E4.49433
G1 X227.338 Y244.414 E4.51255
G1 X226.86 Y244.146 E4.5308
G1 X226.427 Y243.811 E4.54904
G1 X226.047 Y243.417 E4.56727
G1 X225.728 Y242.972 E4.58551
G1 X225.478 Y242.485 E4.60374
G1 X225.301 Y241.967 E4.62198
G1 X225.202 Y241.429 E4.6402
G1 X225.179 Y241.017 E4.65394
G1 X225.18 Y234.031 E4.88665
G1 X225.22 Y233.486 E4.90485
G1 X225.339 Y232.951 E4.92311
G1 X225.535 Y232.44 E4.94134
G1 X225.803 Y231.963 E4.95957
G1 X226.137 Y231.53 E4.97778
G0 F3937.5 X226.631 Y231.735
G1 F900 X227.018 Y231.404 E4.99474
G1 X227.251 Y231.249 E5.00407
G1 X229.908 Y229.646 E5.10743
G1 X234.501 Y226.609 E5.29085
G1 X238.882 Y223.342 E5.47289
G1 X243.071 Y219.833 E5.65491
G1 X247.082 Y216.067 E5.83818
G1 X248.986 Y214.121 E5.92887
G1 X251.529 Y211.342 E6.05435
G1 X251.901 Y210.994 E6.07132
G1 X252.323 Y210.709 E6.08828
G1 X252.785 Y210.493 E6.10527
G1 X253.274 Y210.352 E6.12222
G1 X253.926 Y210.286 E6.14405
G1 X270.911 Y210.287 E6.70983
G1 X271.419 Y210.327 E6.7268
G1 X271.915 Y210.446 E6.74379
G1 X272.385 Y210.641 E6.76074
G1 X272.82 Y210.907 E6.77773
G1 X273.208 Y211.237 E6.79469
G1 X273.539 Y211.625 E6.81168
G1 X273.805 Y212.059 E6.82864
G1 X274.001 Y212.529 E6.8456
G1 X274.12 Y213.025 E6.86259
G1 X274.161 Y213.537 E6.8797
G1 X274.161 Y241.018 E7.7951
G1 X274.121 Y241.526 E7.81208
G1 X274.002 Y242.021 E7.82904
G1 X273.807 Y242.492 E7.84602
G1 X273.541 Y242.927 E7.863
G1 X273.211 Y243.314 E7.87994
G1 X272.824 Y243.646 E7.89693
G1 X272.389 Y243.912 E7.91391
G1 X271.919 Y244.108 E7.93087
G1 X271.424 Y244.227 E7.94783
G1 X270.911 Y244.268 E7.96497
G1 X228.929 Y244.268 E9.36341
G1 X228.421 Y244.228 E9.38038
G1 X227.926 Y244.109 E9.39734
G1 X227.455 Y243.914 E9.41432
G1 X227.02 Y243.648 E9.43131
G1 X226.633 Y243.318 E9.44825
G1 X226.301 Y242.931 E9.46523
G1 X226.035 Y242.496 E9.48222
G1 X225.839 Y242.026 E9.49918
G1 X225.72 Y241.531 E9.51614
G1 X225.679 Y241.018 E9.53328
G1 X225.68 Y234.032 E9.76599
G1 X225.72 Y233.524 E9.78296
G1 X225.839 Y233.028 E9.79995
G1 X226.034 Y232.557 E9.81693
G1 X226.3 Y232.123 E9.83389
G1 X226.631 Y231.735 E9.85088
G1 F600 E8.10088
G0 F3937.5 X253.257 Y219.933
G0 X253.33 Y219.901
G0 X256.275 Y218.595
G0 X256.349 Y218.563
G0 X256.352 Y218.562
G0 X256.202 Y218.564
;TYPE:SUPPORT
G1 F600 E9.85088
G1 F900 X256.242 Y218.193 E9.86331
G1 X256.28 Y218.007 E9.86963
G1 X256.32 Y217.857 E9.8748
G1 X256.405 Y217.613 E9.88341
G1 X256.476 Y217.454 E9.88921
G1 X256.583 Y217.259 E9.89662
G1 X256.671 Y217.124 E9.90199
G1 X256.788 Y216.973 E9.90835
G1 X256.929 Y216.82 E9.91528
G1 X257.05 Y216.711 E9.92071
G1 X257.194 Y216.6 E9.92676
G1 X257.374 Y216.483 E9.93391
G1 X257.534 Y216.398 E9.93995
G1 X257.742 Y216.309 E9.94748
G1 X257.919 Y216.249 E9.95371
G1 X258.102 Y216.199 E9.96003
G1 X258.341 Y216.152 E9.96814
G1 X258.703 Y216.121 E9.98025
G1 X258.878 Y217.331 E10.02097
G1 X259.321 Y217.811 E10.04273
G1 X259.689 Y217.895 E10.0553
G1 X259.995 Y218.505 E10.07803
G1 X260.479 Y218.879 E10.09841
G1 X260.905 Y218.972 E10.11293
G1 X262.001 Y220.566 E10.17737
G1 X262.642 Y220.719 E10.19932
G1 X263.55 Y222.086 E10.25399
G1 X264.068 Y222.21 E10.27173
G1 X265.247 Y223.819 E10.33817
G1 X265.761 Y223.948 E10.35583
G1 X266.24 Y224.624 E10.38342
G1 X266.253 Y224.731 E10.38701
G1 X266.259 Y225.049 E10.39761
G1 X266.227 Y225.347 E10.40759
G1 X266.211 Y225.43 E10.41041
G1 X266.179 Y225.552 E10.41461
G1 X266.168 Y225.584 E10.41574
G1 X266.115 Y225.704 E10.42011
G1 X266.102 Y225.729 E10.42105
G1 X266.041 Y225.822 E10.42475
G1 X266.018 Y225.853 E10.42604
G1 X265.98 Y225.894 E10.4279
G1 X265.93 Y225.938 E10.43012
G1 X265.885 Y225.974 E10.43204
G1 X265.799 Y226.027 E10.4354
G1 X265.759 Y226.05 E10.43694
G1 X265.701 Y226.075 E10.43904
G1 X265.582 Y226.117 E10.44325
G1 X265.525 Y226.132 E10.44521
G1 X265.401 Y226.155 E10.44941
G1 X265.13 Y226.183 E10.45848
G1 X264.793 Y226.177 E10.46971
G1 X264.54 Y226.145 E10.47821
G1 X264.471 Y225.723 E10.49245
G1 X263.03 Y224.679 E10.55172
G1 X262.915 Y224.159 E10.56946
G1 X261.056 Y222.848 E10.64524
G1 X260.889 Y222.146 E10.66927
G1 X259.492 Y221.164 E10.72616
G1 X259.416 Y220.851 E10.73688
G1 X256.925 Y218.661 E10.84737
G1 X256.202 Y218.564 E10.87167
G0 F3937.5 X256.564 Y218.411
G1 F900 X256.564 Y217.761 E10.89332
G0 F3937.5 X256.438 Y218.246
G1 F900 X259.642 Y218.246 E11.00005
G0 F3937.5 X259.896 Y218.681
G1 F900 X259.896 Y221.203 E11.08405
G0 F3937.5 X260.43 Y221.578
G1 F900 X262.973 Y221.578 E11.16876
G0 F3937.5 X263.228 Y221.963
G1 F900 X263.228 Y224.575 E11.25577
G0 F3937.5 X263.691 Y224.91
G1 F900 X266.057 Y224.91 E11.33458
G0 F3937.5 X264.894 Y225.978
G1 F900 X264.894 Y223.676 E11.41126
G0 F3937.5 X264.579 Y223.244
G1 F900 X261.966 Y223.244 E11.4983
G0 F3937.5 X261.562 Y222.959
G1 F900 X261.562 Y220.28 E11.58754
G0 F3937.5 X261.31 Y219.912
G1 F900 X258.651 Y219.912 E11.67611
G0 F3937.5 X258.23 Y219.542
G1 F900 X258.23 Y216.377 E11.78154
G0 F3937.5 X258.568 Y216.58
G1 F900 X257.614 Y216.58 E11.81332
G1 F600 E10.06332
G0 F3937.5 X257.566 Y216.474
G0 X256.997 Y215.179
G0 X257.078 Y215.035
G0 X257.114 Y215.128
;TYPE:WALL-INNER
G1 F600 E11.81332
G1 F900 X256.844 Y215.247 E11.82315
G1 X256.609 Y215.369 E11.83197
G1 X256.361 Y215.531 E11.84183
G1 X256.158 Y215.688 E11.85038
G1 X255.965 Y215.862 E11.85904
G1 X255.765 Y216.08 E11.86889
G1 X255.607 Y216.285 E11.87751
G1 X255.464 Y216.504 E11.88623
G1 X255.325 Y216.761 E11.89596
G1 X255.217 Y217.005 E11.90485
G1 X255.168 Y217.145 E11.90979
G1 X255.118 Y217.289 E11.91487
G1 X255.049 Y217.545 E11.9237
G1 X254.993 Y217.821 E11.93308
G1 X254.935 Y218.396 E11.95233
G1 X254.946 Y219.006 E11.97265
G1 X255.027 Y219.634 E11.99374
G1 X255.158 Y220.224 E12.01388
G1 X255.169 Y220.261 E12.01516
G1 X255.358 Y220.868 E12.03634
G1 X255.617 Y221.52 E12.05971
G1 X255.937 Y222.172 E12.0839
G1 X256.268 Y222.752 E12.10615
G1 X256.679 Y223.385 E12.13129
G1 X257.137 Y224.002 E12.15688
G1 X257.639 Y224.602 E12.18294
G1 X258.188 Y225.183 E12.20957
G1 X258.779 Y225.739 E12.2366
G1 X259.419 Y226.272 E12.26434
G1 X259.923 Y226.648 E12.28529
G1 X260.515 Y227.04 E12.30894
G1 X261.195 Y227.432 E12.33508
G1 X261.801 Y227.727 E12.35753
G1 X262.447 Y227.99 E12.38077
G1 X263.094 Y228.197 E12.40339
G1 X263.735 Y228.342 E12.42529
G1 X264.364 Y228.422 E12.44641
G1 X264.975 Y228.433 E12.46676
G1 X265.502 Y228.381 E12.4844
G1 X265.819 Y228.322 E12.49514
G1 X266.082 Y228.252 E12.50421
G1 X266.353 Y228.155 E12.5138
G1 X266.607 Y228.046 E12.523
G1 X266.833 Y227.92 E12.53162
G1 X267.063 Y227.775 E12.54068
G1 X267.285 Y227.605 E12.54999
G1 X267.483 Y227.425 E12.55891
G1 X267.682 Y227.211 E12.56864
G1 X267.837 Y227.005 E12.57723
G1 X267.994 Y226.764 E12.58681
G1 X268.116 Y226.537 E12.59539
G1 X268.237 Y226.266 E12.60528
G1 X268.321 Y226.02 E12.61394
G1 X268.401 Y225.73 E12.62396
G1 X268.453 Y225.455 E12.63328
G1 X268.508 Y224.893 E12.65209
G1 X268.498 Y224.293 E12.67208
G1 X268.42 Y223.675 E12.69283
G1 X268.281 Y223.046 E12.71429
G1 X268.072 Y222.383 E12.73744
G1 X267.824 Y221.768 E12.75953
G1 X267.545 Y221.188 E12.78097
G1 X267.149 Y220.492 E12.80765
G1 X266.682 Y219.79 E12.83573
G1 X266.287 Y219.263 E12.85767
G1 X265.813 Y218.7 E12.88219
G1 X265.259 Y218.112 E12.9091
G1 X264.681 Y217.565 E12.9356
G1 X264.165 Y217.131 E12.95806
G1 X263.538 Y216.656 E12.98427
G1 X262.895 Y216.23 E13.00996
G1 X262.248 Y215.861 E13.03477
G1 X261.661 Y215.573 E13.05655
G1 X261.003 Y215.304 E13.08023
G1 X260.352 Y215.096 E13.10299
G1 X259.71 Y214.951 E13.12492
G1 X259.131 Y214.877 E13.14436
G1 X258.521 Y214.857 E13.16469
G1 X257.937 Y214.909 E13.18422
G1 X257.622 Y214.972 E13.19492
G1 X257.366 Y215.042 E13.20376
G1 X257.114 Y215.128 E13.21263
G0 F3937.5 X257.078 Y215.035
G0 X256.133 Y215.658
G0 X254.77 Y217.136
G0 X254.67 Y217.136
G1 F900 X254.67 Y214.277 E13.30787
G1 X270.17 Y214.277 E13.82418
G1 X270.17 Y240.277 E14.69025
G1 X229.67 Y240.277 E16.03932
G1 X229.67 Y234.777 E16.22252
G1 X254.67 Y234.777 E17.05528
G1 X254.67 Y220.263 E17.53875
G1 X254.67 Y220.224 E17.54003
G1 X254.67 Y219.634 E17.55662
G1 X254.67 Y219.006 E17.56985
G1 X254.67 Y218.396 E17.58084
G1 X254.67 Y217.821 E17.5921
G1 X254.67 Y217.545 E17.59575
G1 X254.67 Y217.289 E17.60153
G1 X254.67 Y217.136 E17.60636
G0 F3937.5 X255.596 Y217.436
;TYPE:WALL-OUTER
G1 F900 X255.536 Y217.66 E17.61409
G1 X255.488 Y217.896 E17.62211
G1 X255.435 Y218.417 E17.63955
G1 X255.445 Y218.969 E17.65794
G1 X255.52 Y219.547 E17.67736
G1 X255.642 Y220.095 E17.69606
G1 X255.83 Y220.701 E17.7172
G1 X256.075 Y221.317 E17.73928
G1 X256.379 Y221.938 E17.76231
G1 X256.695 Y222.492 E17.78355
G1 X257.09 Y223.099 E17.80768
G1 X257.53 Y223.692 E17.83227
G1 X258.013 Y224.27 E17.85737
G1 X258.541 Y224.829 E17.88298
G1 X259.11 Y225.364 E17.90899
G1 X259.729 Y225.879 E17.93582
G1 X260.211 Y226.239 E17.95586
G1 X260.778 Y226.615 E17.97852
G1 X261.429 Y226.99 E18.00354
G1 X262.005 Y227.27 E18.02488
G1 X262.618 Y227.52 E18.04693
G1 X263.225 Y227.714 E18.06816
G1 X263.822 Y227.849 E18.08855
G1 X264.4 Y227.923 E18.10796
G1 X264.955 Y227.933 E18.12645
G1 X265.431 Y227.886 E18.14238
G1 X265.708 Y227.834 E18.15177
G1 X265.933 Y227.774 E18.15952
G1 X266.17 Y227.689 E18.16791
G1 X266.387 Y227.596 E18.17578
G1 X266.578 Y227.49 E18.18305
G1 X266.777 Y227.364 E18.1909
G1 X266.964 Y227.221 E18.19874
G1 X267.131 Y227.069 E18.20626
G1 X267.298 Y226.889 E18.21444
G1 X267.428 Y226.717 E18.22162
G1 X267.564 Y226.509 E18.2299
G1 X267.667 Y226.317 E18.23716
G1 X267.771 Y226.083 E18.24569
G1 X267.843 Y225.872 E18.25311
G1 X267.914 Y225.616 E18.26196
G1 X267.958 Y225.384 E18.26983
G1 X268.008 Y224.873 E18.28693
G1 X267.999 Y224.329 E18.30506
G1 X267.927 Y223.76 E18.32416
G1 X267.798 Y223.175 E18.34411
G1 X267.601 Y222.552 E18.36588
G1 X267.366 Y221.97 E18.38679
G1 X267.102 Y221.42 E18.40711
G1 X266.723 Y220.755 E18.43261
G1 X266.273 Y220.079 E18.45966
G1 X265.895 Y219.574 E18.48067
G1 X265.439 Y219.033 E18.50424
G1 X264.905 Y218.465 E18.53021
G1 X264.348 Y217.938 E18.55575
G1 X263.853 Y217.522 E18.57729
G1 X263.249 Y217.064 E18.60254
G1 X262.633 Y216.656 E18.62715
G1 X262.014 Y216.303 E18.65088
G1 X261.456 Y216.029 E18.67159
G1 X260.832 Y215.774 E18.69405
G1 X260.221 Y215.579 E18.71541
G1 X259.623 Y215.444 E18.73583
G1 X259.091 Y215.376 E18.7537
G1 X258.535 Y215.358 E18.77223
G1 X258.008 Y215.405 E18.78985
G1 X257.737 Y215.459 E18.79905
G1 X257.513 Y215.52 E18.80679
G1 X257.296 Y215.594 E18.81443
G1 X257.06 Y215.698 E18.82302
G1 X256.862 Y215.801 E18.83045
G1 X256.651 Y215.939 E18.83885
G1 X256.479 Y216.072 E18.84609
G1 X256.317 Y216.218 E18.85336
G1 X256.148 Y216.402 E18.86168
G1 X256.015 Y216.575 E18.86895
G1 X255.894 Y216.76 E18.87631
G1 X255.774 Y216.982 E18.88472
G1 X255.682 Y217.189 E18.89226
G1 X255.596 Y217.436 E18.90097
G0 F3937.5 X255.536 Y217.66
G0 X255.533 Y217.678
G0 X254.945 Y217.559
G0 X254.74 Y214.347
G0 X254.17 Y213.777
G1 F900 X270.67 Y213.777 E19.45059
G1 X270.67 Y240.777 E20.34997
G1 X229.17 Y240.777 E21.73235
G1 X229.17 Y234.277 E21.94887
G1 X254.17 Y234.277 E22.78163
G1 X254.17 Y213.777 E23.46449
G0 F3937.5 X254.42 Y213.777
G0 X254.894 Y214.589
;TYPE:SKIN
G1 F900 X255.911 Y215.606 E23.5124
G1 X255.999 Y215.694
G0 F3937.5 X255.566 Y215.968
G1 F900 X254.894 Y215.296 E23.54406
G0 F3937.5 X255.084 Y216.193
G1 F900 X254.965 Y216.781 E23.55637
G0 F3937.5 X255.037 Y216.853
G0 X256.308 Y215.296
G1 F900 X255.513 Y214.501 E23.59382
G1 X255.425 Y214.413
G0 F3937.5 X256.488 Y214.769
G1 F900 X257.095 Y214.669 E23.61439
G1 X257.734 Y214.6 E23.62702
G1 X258.408 Y214.568 E23.6348
G1 X259.128 Y214.58 E23.64166
G1 X259.904 Y214.649 E23.65235
G1 X260.753 Y214.791 E23.673
G1 X261.74 Y215.071 E23.71353
G1 X262.398 Y215.729
G0 F3937.5 X262.584 Y214.501
G1 F900 X269.944 Y221.861 E24.06024
G1 X270.032 Y221.949
G0 F3937.5 X269.944 Y222.568
G1 F900 X266.27 Y218.894 E24.23332
G1 X266.182 Y218.806
G0 F3937.5 X264.47 Y217.094
G1 F900 X261.877 Y214.501 E24.35547
G1 X261.789 Y214.413
G0 F3937.5 X263.291 Y214.501
G1 F900 X269.944 Y221.154 E24.66888
G1 X270.032 Y221.242
G0 F3937.5 X269.944 Y220.446
G1 F900 X263.999 Y214.501 E24.94894
G1 X263.911 Y214.413
G0 F3937.5 X264.706 Y214.501
G1 F900 X269.944 Y219.739 E25.19569
G1 X270.032 Y219.827
G0 F3937.5 X269.944 Y219.032
G1 F900 X265.413 Y214.501 E25.40913
G1 X265.325 Y214.413
G0 F3937.5 X266.12 Y214.501
G1 F900 X269.944 Y218.325 E25.58927
G1 X270.032 Y218.413
G0 F3937.5 X269.944 Y217.618
G1 F900 X266.827 Y214.501 E25.73611
G1 X266.739 Y214.413
G0 F3937.5 X267.534 Y214.501
G1 F900 X269.944 Y216.911 E25.84964
G1 X270.032 Y216.999
G0 F3937.5 X269.944 Y216.204
G1 F900 X268.241 Y214.501 E25.92986
G1 X268.153 Y214.413
G0 F3937.5 X268.948 Y214.501
G1 F900 X269.944 Y215.497 E25.97678
G1 X270.032 Y215.585
G0 F3937.5 X269.944 Y214.79
G1 F900 X269.655 Y214.501 E25.9904
G0 F3937.5 X267.731 Y221.062
G1 F900 X269.944 Y223.275 E26.09465
G1 X270.032 Y223.363
G0 F3937.5 X269.944 Y223.982
G1 F900 X268.289 Y222.327 E26.17261
G1 X268.201 Y222.239
G0 F3937.5 X268.571 Y223.317
G1 F900 X269.944 Y224.689 E26.23727
G1 X270.032 Y224.777
G0 F3937.5 X269.944 Y225.396
G1 F900 X268.707 Y224.159 E26.29554
G1 X268.619 Y224.071
G0 F3937.5 X268.73 Y224.89
G1 F900 X269.944 Y226.103 E26.35271
G1 X270.032 Y226.191
G0 F3937.5 X269.944 Y226.81
G1 F900 X268.665 Y225.532 E26.41293
G1 X268.577 Y225.444
G0 F3937.5 X268.528 Y226.102
G1 F900 X269.944 Y227.517 E26.47961
G1 X270.032 Y227.605
G0 F3937.5 X269.944 Y228.225
G1 F900 X268.329 Y226.61 E26.55569
G1 X268.241 Y226.522
G0 F3937.5 X268.07 Y227.058
G1 F900 X269.944 Y228.932 E26.64397
G1 X270.032 Y229.02
G0 F3937.5 X269.944 Y229.639
G1 F900 X267.76 Y227.455 E26.74686
G1 X267.672 Y227.367
G0 F3937.5 X267.398 Y227.8
G1 F900 X269.944 Y230.346 E26.86679
