;Generated by Cura LulzBot Edition GCodeWriter Version: 2.6.69
;FLAVOR:RepRap
;TIME:3605
;Filament used: 0.985401m
;Layer height: 0.25
;Generated with Cura_SteamEngine 2.6.69
;This G-Code has been generated specifically for the LulzBot TAZ 5 with standard extruder
M140 S60    ; start bed heating up
G21                      ; set units to Millimetres
G90                      ; absolute positioning
M107                     ; disable fans
M82                      ; set extruder to absolute mode
G28 X0 Y0                ; home X and Y
G28 Z0                   ; home Z
G1 Z15.0 F{travel_speed} ; move extruder up
M117 Heating...                     ; progress indicator message on LCD
M109 R205  ; wait for extruder to reach printing temp
M190 S60    ; wait for bed to reach printing temp
G92 E0                   ; set extruder position to 0
G1 F200 E0               ; prime the nozzle with filament
G92 E0                   ; re-set extruder position to 0
G1 F{travel_speed}       ; set travel speed
M203 X192 Y208 Z3        ; set limits on travel speed
M117 TAZ 5 Printing...   ; progress indicator message on LCD

M221 S100
;LAYER_COUNT:151
;LAYER:0
M107
G0 F3937.5 X234.461 Y208.517 Z0.424
;TYPE:SKIRT
G1 F900 X234.855 Y208.137 E0.01823
G1 X235.3 Y207.818 E0.03647
G1 X235.787 Y207.568 E0.05471
G1 X236.305 Y207.391 E0.07294
G1 X236.843 Y207.292 E0.09116
G1 X237.254 Y207.269 E0.10487
G1 X253.238 Y207.27 E0.63731
G1 X253.778 Y207.309 E0.65534
G1 X257.199 Y207.806 E0.77049
G1 X262.648 Y208.35 E0.9529
G1 X268.127 Y208.584 E1.13558
G1 X274.93 Y208.605 E1.36219
G1 X275.476 Y208.647 E1.38043
G1 X276.01 Y208.767 E1.39866
G1 X276.521 Y208.964 E1.4169
G1 X276.997 Y209.234 E1.43513
G1 X277.43 Y209.569 E1.45337
G1 X277.808 Y209.965 E1.4716
G1 X278.126 Y210.411 E1.48985
G1 X278.374 Y210.898 E1.50806
G1 X278.55 Y211.417 E1.52631
G1 X278.648 Y211.955 E1.54453
G1 X278.669 Y212.355 E1.55787
G1 X278.669 Y237.335 E2.38996
G1 X278.629 Y237.881 E2.4082
G1 X278.51 Y238.415 E2.42642
G1 X278.315 Y238.926 E2.44464
G1 X278.047 Y239.404 E2.4629
G1 X277.712 Y239.837 E2.48113
G1 X277.318 Y240.217 E2.49936
G1 X276.873 Y240.536 E2.5176
G1 X276.386 Y240.786 E2.53584
G1 X275.868 Y240.963 E2.55407
G1 X275.33 Y241.062 E2.57229
G1 X274.921 Y241.085 E2.58594
G1 X259.637 Y241.094 E3.09506
G1 X259.189 Y241.067 E3.11001
G1 X252.271 Y240.239 E3.34209
G1 X246.809 Y239.85 E3.52449
G1 X237.214 Y239.749 E3.84412
G1 X236.668 Y239.703 E3.86238
G1 X236.135 Y239.579 E3.8806
G1 X235.626 Y239.378 E3.89883
G1 X235.152 Y239.105 E3.91705
G1 X234.722 Y238.766 E3.93529
G1 X234.346 Y238.368 E3.95353
G1 X234.032 Y237.919 E3.97178
G1 X233.787 Y237.43 E3.99
G1 X233.615 Y236.91 E4.00825
G1 X233.522 Y236.371 E4.02647
G1 X233.503 Y235.999 E4.03887
G1 X233.504 Y211.019 E4.87097
G1 X233.544 Y210.473 E4.8892
G1 X233.663 Y209.939 E4.90743
G1 X233.858 Y209.427 E4.92568
G1 X234.126 Y208.95 E4.9439
G1 X234.461 Y208.517 E4.96214
G0 F3937.5 X234.954 Y208.722
G1 F900 X235.341 Y208.391 E4.9791
G1 X235.776 Y208.125 E4.99608
G1 X236.246 Y207.929 E5.01305
G1 X236.741 Y207.81 E5.03001
G1 X237.254 Y207.769 E5.04715
G1 X253.238 Y207.77 E5.57958
G1 X253.706 Y207.804 E5.59521
G1 X257.145 Y208.304 E5.71097
G1 X262.611 Y208.849 E5.89395
G1 X268.104 Y209.084 E6.07709
G1 X274.929 Y209.105 E6.30443
G1 X275.437 Y209.147 E6.32141
G1 X275.932 Y209.267 E6.33838
G1 X276.402 Y209.463 E6.35534
G1 X276.836 Y209.73 E6.37231
G1 X277.222 Y210.062 E6.38927
G1 X277.552 Y210.45 E6.40624
G1 X277.818 Y210.885 E6.42323
G1 X278.012 Y211.356 E6.44019
G1 X278.13 Y211.852 E6.45718
G1 X278.169 Y212.355 E6.47398
G1 X278.169 Y237.335 E7.30607
G1 X278.129 Y237.843 E7.32305
G1 X278.01 Y238.338 E7.34001
G1 X277.815 Y238.809 E7.35699
G1 X277.549 Y239.244 E7.37397
G1 X277.219 Y239.631 E7.39091
G1 X276.832 Y239.963 E7.4079
G1 X276.397 Y240.229 E7.42488
G1 X275.927 Y240.425 E7.44185
G1 X275.432 Y240.544 E7.4588
G1 X274.921 Y240.585 E7.47588
G1 X259.637 Y240.594 E7.985
G1 X259.249 Y240.571 E7.99794
G1 X252.305 Y239.74 E8.2309
G1 X246.834 Y239.35 E8.4136
G1 X237.219 Y239.249 E8.7339
G1 X236.711 Y239.204 E8.75089
G1 X236.217 Y239.08 E8.76785
G1 X235.748 Y238.88 E8.78484
G1 X235.317 Y238.609 E8.8018
G1 X234.933 Y238.275 E8.81875
G1 X234.605 Y237.884 E8.83575
G1 X234.343 Y237.447 E8.85272
G1 X234.153 Y236.974 E8.8697
G1 X234.038 Y236.478 E8.88666
G1 X234.003 Y235.999 E8.90266
G1 X234.004 Y211.019 E9.73475
G1 X234.044 Y210.511 E9.75173
G1 X234.163 Y210.015 E9.76872
G1 X234.358 Y209.545 E9.78567
G1 X234.624 Y209.11 E9.80265
G1 X234.954 Y208.722 E9.81962
G1 F600 E8.06962
G0 F3937.5 X236.597 Y211.438
G0 X236.639 Y211.506
G0 X243.468 Y222.792
G0 X243.509 Y222.86
G0 X244.072 Y223.79
;TYPE:SUPPORT
G1 F600 E9.81962
G1 F900 X244.382 Y223.626 E9.8313
G1 X244.725 Y223.493 E9.84356
G1 X245.065 Y223.401 E9.85529
G1 X245.405 Y223.35 E9.86674
G1 X245.8 Y223.332 E9.87991
G1 X246.131 Y223.355 E9.89096
G1 X246.472 Y223.415 E9.9025
G1 X246.833 Y223.523 E9.91505
G1 X247.166 Y223.662 E9.92707
G1 X247.466 Y223.829 E9.93851
G1 X247.757 Y224.037 E9.95042
G1 X248.037 Y224.287 E9.96292
G1 X248.266 Y224.543 E9.97437
G1 X248.47 Y224.828 E9.98604
G1 X248.663 Y225.17 E9.99912
G1 X248.782 Y225.453 E10.00935
G1 X248.893 Y225.824 E10.02225
G1 X248.959 Y226.182 E10.03437
G1 X248.984 Y226.521 E10.0457
G1 X248.968 Y226.899 E10.0583
G1 X248.919 Y227.225 E10.06928
G1 X248.822 Y227.591 E10.08189
G1 X248.696 Y227.913 E10.09341
G1 X248.524 Y228.243 E10.10581
G1 X248.325 Y228.539 E10.11769
G1 X248.104 Y228.801 E10.1291
G1 X247.842 Y229.05 E10.14114
G1 X247.546 Y229.273 E10.15349
G1 X247.243 Y229.455 E10.16526
G1 X246.914 Y229.606 E10.17732
G1 X246.6 Y229.71 E10.18834
G1 X246.219 Y229.79 E10.20131
G1 X246.037 Y229.81 E10.20741
G1 X246.037 Y229.811 E10.20744
G1 X245.895 Y229.822 E10.21218
G1 X245.516 Y229.816 E10.22481
G1 X245.156 Y229.772 E10.23689
G1 X244.808 Y229.691 E10.24879
G1 X244.491 Y229.577 E10.26002
G1 X244.152 Y229.412 E10.27257
G1 X243.852 Y229.222 E10.2844
G1 X243.579 Y229.005 E10.29602
G1 X243.318 Y228.743 E10.30834
G1 X243.09 Y228.461 E10.32042
G1 X242.905 Y228.167 E10.33199
G1 X242.75 Y227.854 E10.34362
G1 X242.625 Y227.504 E10.356
G1 X242.542 Y227.161 E10.36776
G1 X242.498 Y226.811 E10.37951
G1 X242.493 Y226.448 E10.3916
G1 X242.526 Y226.09 E10.40358
G1 X242.599 Y225.745 E10.41532
G1 X242.71 Y225.408 E10.42714
G1 X242.861 Y225.072 E10.43941
G1 X243.04 Y224.771 E10.45108
G1 X243.259 Y224.48 E10.46321
G1 X243.492 Y224.233 E10.47452
G1 X243.79 Y223.981 E10.48752
G1 X244.072 Y223.79 E10.49887
G0 F3937.5 X243.945 Y224.108
G1 F900 X243.623 Y224.382 E10.51295
G1 X243.34 Y224.692 E10.52693
G1 X243.094 Y225.059 E10.54165
G1 X242.911 Y225.437 E10.55564
G1 X242.779 Y225.83 E10.56945
G1 X242.703 Y226.275 E10.58449
G1 X242.691 Y226.687 E10.59821
G1 X242.733 Y227.117 E10.61261
G1 X242.832 Y227.504 E10.62591
G1 X242.994 Y227.919 E10.64075
G1 X243.209 Y228.286 E10.65492
G1 X243.469 Y228.617 E10.66894
G1 X243.767 Y228.908 E10.68282
G1 X244.123 Y229.166 E10.69746
G1 X244.497 Y229.364 E10.71156
G1 X244.888 Y229.509 E10.72545
G1 X245.325 Y229.6 E10.74032
G1 X245.74 Y229.627 E10.75417
G1 X246.148 Y229.6 E10.76779
G1 X246.584 Y229.51 E10.78262
G1 X246.984 Y229.361 E10.79684
G1 X247.34 Y229.175 E10.81022
G1 X247.701 Y228.91 E10.82513
G1 X247.997 Y228.627 E10.83878
G1 X248.27 Y228.274 E10.85364
G1 X248.478 Y227.913 E10.86752
G1 X248.638 Y227.521 E10.88162
G1 X248.741 Y227.097 E10.89616
G1 X248.784 Y226.687 E10.90989
G1 X248.769 Y226.254 E10.92432
G1 X248.693 Y225.83 E10.93867
G1 X248.569 Y225.446 E10.95211
G1 X248.378 Y225.05 E10.96676
G1 X248.14 Y224.698 E10.98091
G1 X247.845 Y224.373 E10.99553
G1 X247.524 Y224.108 E11.0094
G1 X247.179 Y223.892 E11.02296
G1 X246.784 Y223.712 E11.03741
G1 X246.367 Y223.596 E11.05183
G1 X245.942 Y223.536 E11.06613
G1 X245.521 Y223.536 E11.08015
G1 X245.091 Y223.598 E11.09462
G1 X244.697 Y223.709 E11.10826
G1 X244.304 Y223.885 E11.1226
G1 X243.945 Y224.108 E11.13668
G1 F600 E9.38668
G0 F3937.5 X249.8 Y225.064
G0 X249.879 Y225.077
G0 X253.828 Y225.723
G0 X253.907 Y225.736
G0 X258.263 Y226.448
G0 X258.342 Y226.461
G0 X263.06 Y227.233
G0 X263.139 Y227.245
G0 X264.21 Y227.422
G1 F600 E11.13668
G1 F900 X264.281 Y227.09 E11.14799
G1 X264.398 Y226.729 E11.16063
G1 X264.54 Y226.417 E11.17205
G1 X264.724 Y226.108 E11.18403
G1 X264.951 Y225.807 E11.19659
G1 X265.198 Y225.543 E11.20863
G1 X265.328 Y225.431 E11.21435
G1 X265.439 Y225.341 E11.21911
G1 X265.77 Y225.116 E11.23244
G1 X266.062 Y224.963 E11.24342
G1 X266.41 Y224.827 E11.25586
G1 X266.747 Y224.736 E11.26749
G1 X267.096 Y224.683 E11.27925
G1 X267.476 Y224.667 E11.29192
G1 X267.652 Y224.676 E11.29779
G1 X267.804 Y224.688 E11.30287
G1 X268.169 Y224.754 E11.31522
G1 X268.515 Y224.856 E11.32724
G1 X268.838 Y224.993 E11.33893
G1 X269.166 Y225.174 E11.35141
G1 X269.443 Y225.371 E11.36273
G1 X269.704 Y225.605 E11.37441
G1 X269.958 Y225.888 E11.38707
G1 X270.152 Y226.16 E11.3982
G1 X270.341 Y226.496 E11.41104
G1 X270.472 Y226.803 E11.42216
G1 X270.576 Y227.149 E11.4342
G1 X270.643 Y227.521 E11.44679
G1 X270.668 Y227.855 E11.45794
G1 X270.652 Y228.224 E11.47025
G1 X270.601 Y228.563 E11.48167
G1 X270.504 Y228.928 E11.49425
G1 X270.378 Y229.252 E11.50583
G1 X270.21 Y229.575 E11.51795
G1 X270.016 Y229.865 E11.52958
G1 X269.782 Y230.141 E11.54163
G1 X269.522 Y230.389 E11.5536
G1 X269.234 Y230.607 E11.56563
G1 X268.946 Y230.779 E11.5768
G1 X268.584 Y230.944 E11.59006
G1 X268.268 Y231.049 E11.60115
G1 X268.065 Y231.095 E11.60808
G1 X267.936 Y231.119 E11.61245
G1 X267.561 Y231.157 E11.62501
G1 X267.2 Y231.151 E11.63703
G1 X266.836 Y231.108 E11.64924
G1 X266.501 Y231.028 E11.66072
G1 X266.173 Y230.91 E11.67233
G1 X265.838 Y230.747 E11.68474
G1 X265.535 Y230.556 E11.69667
G1 X265.261 Y230.337 E11.70835
G1 X265.009 Y230.086 E11.7202
G1 X264.773 Y229.792 E11.73276
G1 X264.594 Y229.511 E11.74386
G1 X264.428 Y229.171 E11.75646
G1 X264.311 Y228.848 E11.7679
G1 X264.23 Y228.504 E11.77967
G1 X264.182 Y228.135 E11.79207
G1 X264.177 Y227.781 E11.80386
G1 X264.21 Y227.422 E11.81587
G0 F3937.5 X264.387 Y227.602
G1 F900 X264.375 Y228.016 E11.82967
G1 X264.418 Y228.447 E11.8441
G1 X264.515 Y228.846 E11.85777
G1 X264.68 Y229.252 E11.87237
G1 X264.886 Y229.61 E11.88613
G1 X265.157 Y229.953 E11.90069
G1 X265.458 Y230.25 E11.91478
G1 X265.812 Y230.502 E11.92925
G1 X266.169 Y230.691 E11.94271
G1 X266.577 Y230.846 E11.95725
G1 X267.016 Y230.935 E11.97217
G1 X267.421 Y230.962 E11.98569
G1 X267.83 Y230.935 E11.99934
G1 X268.263 Y230.847 E12.01406
G1 X268.673 Y230.692 E12.02866
G1 X269.037 Y230.501 E12.04235
G1 X269.381 Y230.248 E12.05658
G1 X269.689 Y229.948 E12.0709
G1 X269.949 Y229.614 E12.085
G1 X270.161 Y229.249 E12.09906
G1 X270.324 Y228.848 E12.11348
G1 X270.422 Y228.443 E12.12736
G1 X270.47 Y228.023 E12.14144
G1 X270.451 Y227.589 E12.15591
G1 X270.382 Y227.175 E12.16989
G1 X270.244 Y226.759 E12.18449
G1 X270.059 Y226.383 E12.19845
G1 X269.83 Y226.042 E12.21213
G1 X269.538 Y225.715 E12.22673
G1 X269.203 Y225.441 E12.24115
G1 X268.857 Y225.223 E12.25477
G1 X268.458 Y225.046 E12.26931
G1 X268.062 Y224.931 E12.28305
G1 X267.632 Y224.87 E12.29751
G1 X267.2 Y224.87 E12.3119
G1 X266.778 Y224.931 E12.32611
G1 X266.386 Y225.047 E12.33973
G1 X265.99 Y225.218 E12.35409
G1 X265.632 Y225.444 E12.3682
G1 X265.309 Y225.712 E12.38218
G1 X265.016 Y226.037 E12.39675
G1 X264.779 Y226.392 E12.41097
G1 X264.599 Y226.76 E12.42462
G1 X264.463 Y227.168 E12.43894
G1 X264.387 Y227.602 E12.45362
G1 F600 E10.70362
G0 F3937.5 X263.104 Y227.602
G0 X263.024 Y227.602
G0 X258.343 Y227.602
G0 X258.263 Y227.602
G0 X253.909 Y227.602
G0 X252.474 Y227.602
G0 X251.556 Y227.173
G0 X251.457 Y227.163
;TYPE:WALL-INNER
G1 F600 E12.45362
G1 F900 X251.487 Y226.531 E12.4747
G1 X251.447 Y225.898 E12.49582
G1 X251.338 Y225.274 E12.51692
G1 X251.16 Y224.667 E12.53799
G1 X250.918 Y224.08 E12.55914
G1 X250.61 Y223.525 E12.58029
G1 X250.245 Y223.009 E12.60134
G1 X249.827 Y222.535 E12.62239
G1 X249.356 Y222.109 E12.64355
G1 X248.841 Y221.737 E12.66471
G1 X248.29 Y221.426 E12.68578
G1 X247.709 Y221.177 E12.70684
G1 X247.102 Y220.991 E12.72799
G1 X246.48 Y220.876 E12.74906
G1 X245.849 Y220.828 E12.77014
G1 X245.214 Y220.851 E12.7913
G1 X244.588 Y220.943 E12.81238
G1 X243.974 Y221.104 E12.83352
G1 X243.384 Y221.331 E12.85458
G1 X242.82 Y221.621 E12.87571
G1 X242.293 Y221.972 E12.8968
G1 X241.807 Y222.379 E12.91791
G1 X241.369 Y222.837 E12.93902
G1 X240.984 Y223.34 E12.96012
G1 X240.657 Y223.883 E12.98124
G1 X240.391 Y224.458 E13.00234
G1 X240.19 Y225.06 E13.02348
G1 X240.057 Y225.679 E13.04457
G1 X239.993 Y226.308 E13.06563
G1 X239.997 Y226.942 E13.08675
G1 X240.072 Y227.572 E13.10788
G1 X240.216 Y228.188 E13.12896
G1 X240.427 Y228.786 E13.15008
G1 X240.702 Y229.357 E13.17119
G1 X241.038 Y229.893 E13.19226
G1 X241.431 Y230.391 E13.2134
G1 X241.877 Y230.842 E13.23452
G1 X242.37 Y231.24 E13.25563
G1 X242.903 Y231.582 E13.27672
G1 X243.469 Y231.863 E13.29777
G1 X244.065 Y232.081 E13.31891
G1 X244.681 Y232.23 E13.34002
G1 X245.308 Y232.313 E13.36109
G1 X245.943 Y232.325 E13.38225
G1 X246.574 Y232.268 E13.40335
G1 X247.195 Y232.141 E13.42447
G1 X247.798 Y231.947 E13.44557
G1 X248.375 Y231.688 E13.46663
G1 X248.921 Y231.366 E13.48775
G1 X249.429 Y230.987 E13.50886
G1 X249.892 Y230.554 E13.52998
G1 X250.304 Y230.072 E13.5511
G1 X250.66 Y229.55 E13.57215
G1 X250.957 Y228.991 E13.59323
G1 X251.192 Y228.401 E13.61439
G1 X251.359 Y227.79 E13.63548
G1 X251.457 Y227.163 E13.65662
G0 F3937.5 X251.556 Y227.173
G0 X252.424 Y235.19
G0 X252.494 Y235.26
G1 F900 X237.994 Y235.26 E14.13962
G1 X237.994 Y211.76 E14.92242
G1 X252.494 Y211.76 E15.40542
G1 X252.494 Y235.26 E16.18821
G0 F3937.5 X252.994 Y235.76
;TYPE:WALL-OUTER
G1 F900 X237.494 Y235.76 E16.70452
G1 X237.494 Y211.26 E17.52063
G1 X252.994 Y211.26 E18.03694
G1 X252.994 Y235.76 E18.85304
G0 F3937.5 X252.744 Y235.76
G0 X252.424 Y235.19
G0 X249.516 Y231.042
G0 X249.108 Y230.603
G1 F900 X249.53 Y230.208 E18.87229
G1 X249.906 Y229.768 E18.89157
G1 X250.231 Y229.291 E18.9108
G1 X250.503 Y228.78 E18.93008
G1 X250.717 Y228.242 E18.94937
G1 X250.869 Y227.685 E18.9686
G1 X250.959 Y227.112 E18.98792
G1 X250.986 Y226.535 E19.00716
G1 X250.95 Y225.957 E19.02645
G1 X250.85 Y225.388 E19.0457
G1 X250.688 Y224.833 E19.06496
G1 X250.467 Y224.298 E19.08424
G1 X250.186 Y223.792 E19.10352
G1 X249.852 Y223.32 E19.12278
G1 X249.47 Y222.887 E19.14201
G1 X249.041 Y222.498 E19.1613
G1 X248.571 Y222.159 E19.18061
G1 X248.068 Y221.875 E19.19985
G1 X247.537 Y221.647 E19.2191
G1 X246.983 Y221.478 E19.23839
G1 X246.415 Y221.373 E19.25763
G1 X245.839 Y221.329 E19.27687
G1 X245.26 Y221.35 E19.29617
G1 X244.688 Y221.434 E19.31543
G1 X244.128 Y221.581 E19.33472
G1 X243.589 Y221.788 E19.35395
G1 X243.074 Y222.053 E19.37324
G1 X242.593 Y222.373 E19.39249
G1 X242.149 Y222.745 E19.41178
G1 X241.749 Y223.163 E19.43105
G1 X241.398 Y223.622 E19.4503
G1 X241.099 Y224.118 E19.46959
G1 X240.856 Y224.643 E19.48886
G1 X240.673 Y225.192 E19.50814
G1 X240.552 Y225.757 E19.52739
G1 X240.493 Y226.332 E19.54664
G1 X240.497 Y226.911 E19.56593
G1 X240.565 Y227.485 E19.58518
G1 X240.697 Y228.048 E19.60444
G1 X240.889 Y228.594 E19.62372
G1 X241.14 Y229.115 E19.64299
G1 X241.447 Y229.604 E19.66222
G1 X241.806 Y230.059 E19.68153
G1 X242.213 Y230.471 E19.70082
G1 X242.663 Y230.834 E19.72008
G1 X243.15 Y231.146 E19.73934
G1 X243.667 Y231.403 E19.75857
G1 X244.21 Y231.602 E19.77784
G1 X244.773 Y231.738 E19.79713
G1 X245.346 Y231.814 E19.81638
G1 X245.925 Y231.825 E19.83567
G1 X246.501 Y231.773 E19.85494
G1 X247.068 Y231.657 E19.87422
G1 X247.618 Y231.48 E19.89346
G1 X248.145 Y231.243 E19.91271
G1 X248.644 Y230.949 E19.932
G1 X249.108 Y230.603 E19.95128
G0 F3937.5 X249.29 Y230.433
G0 X249.924 Y230.832
;TYPE:SKIN
G1 F900 X252.268 Y233.176 E20.06171
G1 X252.356 Y233.264
G0 F3937.5 X252.268 Y232.469
G1 F900 X250.263 Y230.464 E20.15616
G1 X250.175 Y230.376
G0 F3937.5 X250.576 Y230.069
G1 F900 X252.268 Y231.762 E20.23589
G1 X252.356 Y231.85
G0 F3937.5 X252.268 Y231.055
G1 F900 X250.86 Y229.647 E20.30221
G1 X250.772 Y229.559
G0 F3937.5 X251.106 Y229.186
G1 F900 X252.268 Y230.348 E20.35695
G1 X252.356 Y230.436
