;Generated by Cura LulzBot Edition GCodeWriter Version: 2.6.69
;FLAVOR:RepRap
;TIME:7527
;Filament used: 2.98784m
;Layer height: 0.25
;Generated with Cura_SteamEngine 2.6.69
;This G-Code has been generated specifically for the LulzBot TAZ 5 with standard extruder
M140 S60    ; start bed heating up
G21                      ; set units to Millimetres
G90                      ; absolute positioning
M107                     ; disable fans
M82                      ; set extruder to absolute mode
G28 X0 Y0                ; home X and Y
G28 Z0                   ; home Z
G1 Z15.0 F{travel_speed} ; move extruder up
M117 Heating...                     ; progress indicator message on LCD
M109 R205  ; wait for extruder to reach printing temp
M190 S60    ; wait for bed to reach printing temp
G92 E0                   ; set extruder position to 0
G1 F200 E0               ; prime the nozzle with filament
G92 E0                   ; re-set extruder position to 0
G1 F{travel_speed}       ; set travel speed
M203 X192 Y208 Z3        ; set limits on travel speed
M117 TAZ 5 Printing...   ; progress indicator message on LCD

M221 S100
;LAYER_COUNT:175
;LAYER:0
M107
G0 F3937.5 X208.223 Y172.046 Z0.424
G0 X208.529 Y171.721
;TYPE:SKIRT
G1 F900 X209.849 Y170.475 E0.06046
G1 X210.092 Y170.264 E0.07118
G1 X211.336 Y169.277 E0.12408
G1 X211.564 Y169.11 E0.1335
G1 X212.841 Y168.245 E0.18487
G1 X213.163 Y168.05 E0.19741
G1 X215.527 Y166.774 E0.2869
G1 X215.866 Y166.613 E0.2994
G1 X217.301 Y166.015 E0.35118
G1 X217.632 Y165.894 E0.36292
G1 X219.798 Y165.222 E0.43846
G1 X220.113 Y165.139 E0.44932
G1 X221.587 Y164.819 E0.49956
G1 X221.86 Y164.771 E0.50879
G1 X223.393 Y164.555 E0.56036
G1 X223.768 Y164.521 E0.5729
G1 X226.875 Y164.398 E0.67648
G1 X227.098 Y164.396 E0.68391
G1 X231.954 Y164.493 E0.8457
G1 X232.347 Y164.521 E0.85882
G1 X233.787 Y164.702 E0.90716
G1 X234.063 Y164.748 E0.91648
G1 X235.496 Y165.038 E0.96519
G1 X235.771 Y165.104 E0.97461
G1 X237.266 Y165.526 E1.02635
G1 X237.54 Y165.615 E1.03595
G1 X239.008 Y166.154 E1.08804
G1 X239.282 Y166.267 E1.09791
G1 X240.637 Y166.89 E1.14759
G1 X240.881 Y167.013 E1.15669
G1 X242.239 Y167.762 E1.20835
G1 X242.495 Y167.917 E1.21832
G1 X243.804 Y168.782 E1.27058
G1 X244.04 Y168.952 E1.28027
G1 X245.249 Y169.893 E1.33131
G1 X245.465 Y170.074 E1.34069
G1 X246.591 Y171.095 E1.39132
G1 X246.969 Y171.491 E1.40956
G1 X247.373 Y172.094 E1.43374
G1 X249.003 Y175.119 E1.5482
G1 X251.795 Y179.81 E1.73004
G1 X254.849 Y184.338 E1.91197
G1 X258.129 Y188.654 E2.09254
G1 X261.673 Y192.806 E2.27438
G1 X265.426 Y196.732 E2.45529
G1 X269.452 Y200.491 E2.63877
G1 X271.469 Y202.221 E2.72729
G1 X273.931 Y204.206 E2.83263
G1 X274.331 Y204.58 E2.85087
G1 X274.673 Y205.008 E2.86912
G1 X274.948 Y205.481 E2.88735
G1 X275.152 Y205.989 E2.90558
G1 X275.279 Y206.522 E2.92383
G1 X275.328 Y207.125 E2.94399
G1 X275.329 Y211.11 E3.07673
G1 X275.289 Y211.656 E3.09496
G1 X275.17 Y212.19 E3.11319
G1 X274.975 Y212.702 E3.13144
G1 X274.707 Y213.179 E3.14966
G1 X274.373 Y213.612 E3.16788
G1 X273.979 Y213.992 E3.18611
G1 X273.534 Y214.311 E3.20435
G1 X273.047 Y214.562 E3.2226
G1 X272.529 Y214.739 E3.24083
G1 X271.991 Y214.838 E3.25906
G1 X271.579 Y214.861 E3.2728
G1 X190.597 Y214.861 E5.97034
G1 X190.051 Y214.821 E5.98858
G1 X189.517 Y214.702 E6.0068
G1 X189.006 Y214.507 E6.02502
G1 X188.528 Y214.239 E6.04328
G1 X188.095 Y213.904 E6.06151
G1 X187.715 Y213.51 E6.07974
G1 X187.396 Y213.065 E6.09798
G1 X187.146 Y212.578 E6.11622
G1 X186.969 Y212.06 E6.13445
G1 X186.87 Y211.522 E6.15267
G1 X186.847 Y211.11 E6.16642
G1 X186.848 Y207.125 E6.29916
G1 X186.888 Y206.579 E6.3174
G1 X187.007 Y206.045 E6.33562
G1 X187.203 Y205.534 E6.35385
G1 X187.471 Y205.056 E6.37211
G1 X187.822 Y204.605 E6.39114
G1 X189.989 Y202.219 E6.49851
G1 X193.467 Y198.032 E6.67982
G1 X196.713 Y193.641 E6.86171
G1 X199.694 Y189.091 E7.04291
G1 X202.417 Y184.374 E7.22433
G1 X204.867 Y179.514 E7.40563
G1 X207.654 Y172.977 E7.64234
G1 X207.904 Y172.491 E7.66055
G1 X208.223 Y172.046 E7.67879
G1 X208.529 Y171.721 E7.69365
G0 F3937.5 X208.872 Y172.085
G1 F900 X210.192 Y170.839 E7.75412
G1 X210.403 Y170.656 E7.76342
G1 X211.647 Y169.669 E7.81632
G1 X211.844 Y169.524 E7.82447
G1 X213.121 Y168.659 E7.87585
G1 X213.4 Y168.49 E7.88671
G1 X215.764 Y167.214 E7.9762
G1 X216.058 Y167.074 E7.98704
G1 X217.493 Y166.476 E8.03883
G1 X217.78 Y166.372 E8.049
G1 X219.946 Y165.7 E8.12454
G1 X220.219 Y165.628 E8.13394
G1 X221.693 Y165.308 E8.18419
G1 X221.93 Y165.266 E8.1922
G1 X223.463 Y165.05 E8.24377
G1 X223.787 Y165.021 E8.25461
G1 X226.894 Y164.898 E8.35818
G1 X227.088 Y164.896 E8.36465
G1 X231.944 Y164.993 E8.52643
G1 X232.284 Y165.017 E8.53779
G1 X233.724 Y165.198 E8.58613
G1 X233.964 Y165.238 E8.59424
G1 X235.397 Y165.528 E8.64294
G1 X235.635 Y165.585 E8.65109
G1 X237.13 Y166.007 E8.70284
G1 X237.367 Y166.084 E8.71114
G1 X238.835 Y166.623 E8.76323
G1 X239.073 Y166.721 E8.7718
G1 X240.428 Y167.344 E8.82148
G1 X240.64 Y167.451 E8.82939
G1 X241.998 Y168.2 E8.88105
G1 X242.22 Y168.335 E8.8897
G1 X243.529 Y169.2 E8.94197
G1 X243.733 Y169.346 E8.95032
G1 X244.942 Y170.287 E9.00136
G1 X245.129 Y170.444 E9.00949
G1 X246.255 Y171.465 E9.06012
G1 X246.605 Y171.836 E9.07711
G1 X246.933 Y172.331 E9.09689
G1 X248.566 Y175.361 E9.21155
G1 X251.375 Y180.081 E9.39451
G1 X254.441 Y184.627 E9.57716
G1 X257.746 Y188.975 E9.75908
G1 X261.301 Y193.141 E9.94151
G1 X265.086 Y197.099 E10.12394
G1 X269.089 Y200.838 E10.3064
G1 X271.169 Y202.622 E10.39768
G1 X273.618 Y204.596 E10.50245
G1 X273.988 Y204.946 E10.51942
G1 X274.299 Y205.349 E10.53638
G1 X274.543 Y205.796 E10.55334
G1 X274.715 Y206.276 E10.57032
G1 X274.809 Y206.777 E10.5873
G1 X274.828 Y207.125 E10.59891
G1 X274.829 Y211.11 E10.73166
G1 X274.789 Y211.618 E10.74863
G1 X274.67 Y212.114 E10.76562
G1 X274.476 Y212.584 E10.78256
G1 X274.21 Y213.019 E10.79954
G1 X273.879 Y213.407 E10.81653
G1 X273.492 Y213.738 E10.83349
G1 X273.058 Y214.005 E10.85047
G1 X272.588 Y214.201 E10.86743
G1 X272.092 Y214.32 E10.88442
G1 X271.579 Y214.361 E10.90156
G1 X190.597 Y214.361 E13.5991
G1 X190.089 Y214.321 E13.61608
G1 X189.594 Y214.202 E13.63303
G1 X189.123 Y214.007 E13.65002
G1 X188.688 Y213.741 E13.667
G1 X188.301 Y213.411 E13.68394
G1 X187.969 Y213.024 E13.70093
G1 X187.703 Y212.589 E13.71791
G1 X187.507 Y212.119 E13.73487
G1 X187.388 Y211.624 E13.75183
G1 X187.347 Y211.11 E13.76901
G1 X187.348 Y207.125 E13.90175
G1 X187.388 Y206.617 E13.91872
G1 X187.507 Y206.122 E13.93568
G1 X187.702 Y205.651 E13.95266
G1 X187.968 Y205.217 E13.96962
G1 X188.192 Y204.941 E13.98146
G1 X190.358 Y202.556 E14.08878
G1 X193.876 Y198.321 E14.27217
G1 X197.116 Y193.939 E14.4537
G1 X200.122 Y189.35 E14.63644
G1 X202.861 Y184.605 E14.81894
G1 X205.311 Y179.744 E15.00027
G1 X208.113 Y173.173 E15.23822
G1 X208.349 Y172.722 E15.25517
G1 X208.653 Y172.313 E15.27215
G1 X208.872 Y172.085 E15.28268
G1 F600 E13.53268
G0 F3937.5 X210.886 Y173.713
G0 X211.871 Y174.752
G0 X212.775 Y174.009
G0 X212.709 Y173.934
;TYPE:WALL-INNER
G1 F600 E15.28268
G1 F900 X213.837 Y173.013 E15.33119
G1 X215.034 Y172.17 E15.37995
G1 X216.29 Y171.416 E15.42875
G1 X217.591 Y170.758 E15.47732
G1 X219.004 Y170.17 E15.5283
G1 X220.371 Y169.715 E15.57629
G1 X221.774 Y169.357 E15.62452
G1 X223.208 Y169.098 E15.67306
G1 X224.654 Y168.945 E15.7215
G1 X226.139 Y168.893 E15.77099
G1 X230.083 Y168.9 E15.90237
G1 X231.617 Y168.963 E15.95351
G1 X233.108 Y169.14 E16.00352
G1 X234.566 Y169.431 E16.05305
G1 X236.016 Y169.839 E16.10322
G1 X237.419 Y170.354 E16.15301
G1 X238.719 Y170.949 E16.20063
G1 X240.033 Y171.674 E16.25062
G1 X241.289 Y172.502 E16.30073
G1 X242.457 Y173.408 E16.34997
G1 X243.354 Y174.222 E16.39032
G1 X243.297 Y207.62 E17.50282
G1 X243.297 Y207.87 E17.51115
G1 X243.547 Y207.87 E17.51654
G1 X270.838 Y207.87 E18.42561
G1 X270.838 Y210.37 E18.50888
G1 X191.338 Y210.37 E21.15706
G1 X191.338 Y207.87 E21.24033
G1 X211.796 Y207.868 E21.9218
G1 X211.853 Y174.745 E23.02514
G1 X212.709 Y173.934 E23.06442
G0 F3937.5 X212.775 Y174.009
G0 X215.671 Y176.714
G0 X215.754 Y176.769
G1 F900 X215.529 Y177.133 E23.07867
G1 X215.05 Y177.952 E23.11028
G1 X214.861 Y178.334 E23.12447
G1 X214.461 Y179.197 E23.15616
G1 X214.31 Y179.597 E23.1704
G1 X213.996 Y180.492 E23.20199
G1 X213.885 Y180.905 E23.21624
G1 X213.658 Y181.827 E23.24787
G1 X213.587 Y182.249 E23.26212
G1 X213.451 Y183.187 E23.29369
G1 X213.42 Y183.613 E23.30792
G1 X213.376 Y184.563 E23.3396
G1 X213.386 Y184.988 E23.35376
G1 X213.432 Y185.944 E23.38564
G1 X213.622 Y187.306 E23.43145
G1 X213.943 Y188.644 E23.47729
G1 X214.393 Y189.947 E23.5232
G1 X214.964 Y191.195 E23.56892
G1 X215.175 Y191.569 E23.58322
G1 X215.656 Y192.386 E23.61481
G1 X215.899 Y192.736 E23.629
G1 X216.458 Y193.507 E23.66072
G1 X216.736 Y193.832 E23.67497
G1 X217.368 Y194.546 E23.70673
G1 X218.365 Y195.484 E23.75233
G1 X218.701 Y195.752 E23.76664
G1 X219.456 Y196.329 E23.7983
G1 X219.815 Y196.562 E23.81255
G1 X220.62 Y197.062 E23.84412
G1 X221 Y197.26 E23.85839
G1 X221.851 Y197.68 E23.89
G1 X222.249 Y197.841 E23.90431
G1 X223.135 Y198.176 E23.93586
G1 X223.545 Y198.298 E23.95011
G1 X224.463 Y198.546 E23.98178
G1 X224.882 Y198.627 E23.996
G1 X225.818 Y198.787 E24.02763
G1 X226.245 Y198.826 E24.04191
G1 X227.19 Y198.894 E24.07347
G1 X227.617 Y198.894 E24.08769
G1 X228.572 Y198.872 E24.11951
G1 X229.938 Y198.715 E24.16531
G1 X231.285 Y198.425 E24.21121
G1 X232.597 Y198.008 E24.25707
G1 X233.858 Y197.467 E24.30278
G1 X234.238 Y197.265 E24.31711
G1 X235.067 Y196.805 E24.34869
G1 X235.424 Y196.568 E24.36297
G1 X236.206 Y196.029 E24.3946
G1 X236.538 Y195.76 E24.40884
G1 X237.261 Y195.148 E24.44039
G1 X237.568 Y194.849 E24.45466
G1 X238.232 Y194.168 E24.48635
G1 X238.505 Y193.841 E24.50054
G1 X239.1 Y193.1 E24.53219
G1 X239.342 Y192.747 E24.54645
G1 X239.86 Y191.953 E24.57803
G1 X240.068 Y191.579 E24.59228
G1 X240.508 Y190.739 E24.62387
G1 X240.679 Y190.345 E24.63818
G1 X241.035 Y189.466 E24.66977
G1 X241.167 Y189.059 E24.68402
G1 X241.437 Y188.149 E24.71564
G1 X241.529 Y187.732 E24.72986
G1 X241.71 Y186.801 E24.76145
G1 X241.762 Y186.376 E24.77572
G1 X241.853 Y185.429 E24.80741
G1 X241.861 Y185.003 E24.8216
G1 X241.862 Y184.048 E24.85341
G1 X241.739 Y182.679 E24.8992
G1 X241.482 Y181.326 E24.94507
G1 X241.096 Y180.004 E24.99095
G1 X240.584 Y178.726 E25.03681
G1 X239.954 Y177.506 E25.08254
G1 X239.726 Y177.142 E25.09685
G1 X239.203 Y176.343 E25.12866
G1 X238.351 Y175.272 E25.17425
G1 X238.058 Y174.958 E25.18855
G1 X237.393 Y174.278 E25.22024
G1 X237.072 Y173.996 E25.23447
G1 X236.347 Y173.385 E25.26605
G1 X236 Y173.134 E25.28032
G1 X235.218 Y172.596 E25.31193
G1 X234.85 Y172.381 E25.32613
G1 X234.019 Y171.919 E25.3578
G1 X233.63 Y171.74 E25.37207
G1 X232.761 Y171.361 E25.40365
G1 X232.358 Y171.22 E25.41787
G1 X231.454 Y170.928 E25.44951
G1 X231.039 Y170.826 E25.46375
G1 X230.111 Y170.622 E25.4954
G1 X229.688 Y170.561 E25.50963
G1 X228.746 Y170.448 E25.54124
G1 X228.321 Y170.427 E25.55541
G1 X227.368 Y170.404 E25.58717
G1 X226.942 Y170.426 E25.60138
G1 X225.99 Y170.495 E25.63317
G1 X224.633 Y170.719 E25.67898
G1 X223.307 Y171.071 E25.72468
G1 X222.902 Y171.216 E25.73901
G1 X222.015 Y171.553 E25.77062
G1 X221.629 Y171.734 E25.78482
G1 X220.776 Y172.154 E25.81649
G1 X220.408 Y172.374 E25.83077
G1 X219.603 Y172.874 E25.86234
G1 X219.257 Y173.128 E25.87664
G1 X218.504 Y173.703 E25.9082
G1 X218.185 Y173.988 E25.92245
G1 X217.491 Y174.634 E25.95403
G1 X217.2 Y174.949 E25.96831
G1 X216.571 Y175.66 E25.99993
G1 X216.312 Y176.001 E26.0142
G1 X215.754 Y176.769 E26.04582
G0 F3937.5 X216.17 Y177.047
;TYPE:WALL-OUTER
G1 F900 X215.958 Y177.391 E26.05928
G1 X215.49 Y178.189 E26.0901
G1 X215.312 Y178.55 E26.1035
G1 X214.922 Y179.39 E26.13435
G1 X214.78 Y179.768 E26.1478
G1 X214.474 Y180.64 E26.17859
G1 X214.369 Y181.03 E26.19204
G1 X214.148 Y181.928 E26.22285
G1 X214.081 Y182.326 E26.23629
G1 X213.948 Y183.241 E26.26709
G1 X213.919 Y183.643 E26.28051
G1 X213.876 Y184.568 E26.31136
G1 X213.886 Y184.97 E26.32475
G1 X213.93 Y185.897 E26.35567
G1 X214.114 Y187.213 E26.39993
G1 X214.424 Y188.504 E26.44416
G1 X214.858 Y189.761 E26.48845
G1 X215.41 Y190.968 E26.53266
G1 X215.608 Y191.32 E26.54612
G1 X216.077 Y192.116 E26.57689
G1 X216.307 Y192.447 E26.59032
G1 X216.851 Y193.197 E26.62118
G1 X217.113 Y193.504 E26.63463
G1 X217.727 Y194.197 E26.66547
G1 X218.693 Y195.106 E26.70965
G1 X219.009 Y195.358 E26.72311
G1 X219.745 Y195.92 E26.75396
G1 X220.083 Y196.14 E26.76739
G1 X220.868 Y196.627 E26.79817
G1 X221.226 Y196.814 E26.81162
G1 X222.056 Y197.223 E26.84244
G1 X222.431 Y197.375 E26.85592
G1 X223.295 Y197.702 E26.88669
G1 X223.682 Y197.817 E26.90014
G1 X224.576 Y198.059 E26.93099
G1 X224.971 Y198.135 E26.94439
G1 X225.883 Y198.291 E26.97521
G1 X226.286 Y198.328 E26.98869
G1 X227.208 Y198.394 E27.01948
G1 X227.611 Y198.394 E27.03291
G1 X228.538 Y198.373 E27.06379
G1 X229.857 Y198.221 E27.10802
G1 X231.156 Y197.941 E27.15228
G1 X232.422 Y197.539 E27.19653
G1 X233.642 Y197.016 E27.24075
G1 X233.999 Y196.826 E27.25422
G1 X234.807 Y196.377 E27.28501
G1 X235.144 Y196.154 E27.29847
G1 X235.906 Y195.628 E27.32931
G1 X236.219 Y195.375 E27.34272
G1 X236.925 Y194.778 E27.37352
G1 X237.214 Y194.496 E27.38697
G1 X237.86 Y193.833 E27.4178
G1 X238.118 Y193.524 E27.43121
G1 X238.698 Y192.802 E27.46206
G1 X238.926 Y192.469 E27.4755
G1 X239.432 Y191.695 E27.50631
G1 X239.628 Y191.342 E27.51975
G1 X240.057 Y190.523 E27.55055
G1 X240.218 Y190.152 E27.56402
G1 X240.565 Y189.295 E27.59482
G1 X240.689 Y188.911 E27.60826
G1 X240.953 Y188.024 E27.63909
G1 X241.039 Y187.631 E27.65249
G1 X241.216 Y186.723 E27.68331
G1 X241.265 Y186.322 E27.69676
G1 X241.353 Y185.4 E27.72762
G1 X241.361 Y184.998 E27.74101
G1 X241.362 Y184.07 E27.77192
G1 X241.243 Y182.748 E27.81613
G1 X240.995 Y181.443 E27.86038
G1 X240.623 Y180.167 E27.90466
G1 X240.129 Y178.934 E27.9489
G1 X239.519 Y177.754 E27.99315
G1 X239.305 Y177.412 E28.00659
G1 X238.797 Y176.636 E28.03748
G1 X237.972 Y175.599 E28.08162
G1 X237.696 Y175.303 E28.09511
G1 X237.049 Y174.641 E28.12594
G1 X236.746 Y174.375 E28.13937
G1 X236.039 Y173.779 E28.17017
G1 X235.712 Y173.543 E28.1836
G1 X234.95 Y173.018 E28.21443
G1 X234.602 Y172.815 E28.22785
G1 X233.793 Y172.365 E28.25869
G1 X233.426 Y172.196 E28.27214
G1 X232.578 Y171.827 E28.30295
G1 X232.198 Y171.694 E28.31636
G1 X231.317 Y171.409 E28.3472
G1 X230.926 Y171.313 E28.36062
G1 X230.022 Y171.114 E28.39145
G1 X229.623 Y171.057 E28.40487
G1 X228.704 Y170.947 E28.43571
G1 X228.302 Y170.927 E28.44911
G1 X227.375 Y170.904 E28.48
G1 X226.973 Y170.925 E28.49341
G1 X226.049 Y170.992 E28.52427
G1 X224.738 Y171.208 E28.56853
G1 X223.456 Y171.549 E28.61272
G1 X223.075 Y171.685 E28.62619
G1 X222.21 Y172.014 E28.65702
G1 X221.846 Y172.185 E28.67042
G1 X221.015 Y172.594 E28.70127
G1 X220.668 Y172.801 E28.71473
G1 X219.883 Y173.289 E28.74552
G1 X219.557 Y173.528 E28.75898
G1 X218.823 Y174.089 E28.78975
G1 X218.522 Y174.358 E28.8032
G1 X217.845 Y174.987 E28.83398
G1 X217.571 Y175.284 E28.84744
G1 X216.958 Y175.977 E28.87826
G1 X216.713 Y176.299 E28.89174
G1 X216.17 Y177.047 E28.92253
G0 F3937.5 X216.039 Y177.259
G0 X215.529 Y176.944
G0 X212.775 Y174.009
G0 X212.374 Y173.563
G1 F900 X213.541 Y172.609 E28.97274
G1 X214.759 Y171.752 E29.02235
G1 X216.047 Y170.979 E29.07239
G1 X217.386 Y170.302 E29.12236
G1 X218.82 Y169.705 E29.17411
G1 X220.23 Y169.235 E29.22361
G1 X221.673 Y168.867 E29.27322
G1 X223.135 Y168.603 E29.32271
G1 X224.626 Y168.445 E29.37265
G1 X226.123 Y168.393 E29.42255
G1 X230.104 Y168.4 E29.55516
G1 X231.657 Y168.464 E29.60693
G1 X233.177 Y168.644 E29.65792
G1 X234.681 Y168.944 E29.709
G1 X236.17 Y169.363 E29.76053
G1 X237.618 Y169.895 E29.81191
G1 X238.946 Y170.503 E29.86056
G1 X240.291 Y171.245 E29.91173
G1 X241.58 Y172.094 E29.96315
G1 X242.774 Y173.021 E30.0135
G1 X243.854 Y174.001 E30.06208
G1 X243.798 Y207.12 E31.16528
G1 X243.798 Y207.37 E31.17361
G1 X244.048 Y207.37 E31.179
G1 X271.338 Y207.37 E32.08804
G1 X271.338 Y210.87 E32.20463
G1 X190.838 Y210.87 E34.88611
G1 X190.838 Y207.37 E35.0027
G1 X211.297 Y207.368 E35.68419
G1 X211.353 Y174.529 E36.77807
