;Generated by Cura LulzBot Edition GCodeWriter Version: 2.6.69
;FLAVOR:RepRap
;TIME:3799
;Filament used: 1.94822m
;Layer height: 0.25
;Generated with Cura_SteamEngine 2.6.69
;This G-Code has been generated specifically for the LulzBot TAZ 5 with standard extruder
M140 S60    ; start bed heating up
G21                      ; set units to Millimetres
G90                      ; absolute positioning
M107                     ; disable fans
M82                      ; set extruder to absolute mode
G28 X0 Y0                ; home X and Y
G28 Z0                   ; home Z
G1 Z15.0 F{travel_speed} ; move extruder up
M117 Heating...                     ; progress indicator message on LCD
M109 R205  ; wait for extruder to reach printing temp
M190 S60    ; wait for bed to reach printing temp
G92 E0                   ; set extruder position to 0
G1 F200 E0               ; prime the nozzle with filament
G92 E0                   ; re-set extruder position to 0
G1 F{travel_speed}       ; set travel speed
M203 X192 Y208 Z3        ; set limits on travel speed
M117 TAZ 5 Printing...   ; progress indicator message on LCD

M221 S100
;LAYER_COUNT:79
;LAYER:0
M107
G0 F3937.5 X219.75 Y200.633 Z0.424
;TYPE:SKIRT
G1 F900 X220.145 Y200.254 E0.01823
G1 X220.591 Y199.937 E0.03646
G1 X221.268 Y199.614 E0.06145
G1 X225.65 Y198.039 E0.21656
G1 X230.685 Y195.931 E0.39838
G1 X235.592 Y193.545 E0.58013
G1 X237.949 Y192.27 E0.6694
G1 X242.649 Y189.467 E0.85168
G1 X247.162 Y186.417 E1.03312
G1 X251.486 Y183.125 E1.21415
G1 X255.624 Y179.586 E1.39552
G1 X259.94 Y175.44 E1.59488
G1 X260.361 Y175.09 E1.61311
G1 X260.829 Y174.806 E1.63135
G1 X261.333 Y174.593 E1.64958
G1 X261.863 Y174.455 E1.66782
G1 X262.539 Y174.394 E1.69043
G1 X269.518 Y174.395 E1.9229
G1 X270.063 Y174.435 E1.9411
G1 X270.598 Y174.554 E1.95936
G1 X271.109 Y174.75 E1.97759
G1 X271.586 Y175.018 E1.99582
G1 X272.019 Y175.352 E2.01403
G1 X272.399 Y175.746 E2.03227
G1 X272.718 Y176.191 E2.0505
G1 X272.968 Y176.678 E2.06874
G1 X273.145 Y177.196 E2.08697
G1 X273.244 Y177.734 E2.1052
G1 X273.267 Y178.145 E2.11891
G1 X273.266 Y220.126 E3.51731
G1 X273.226 Y220.672 E3.53555
G1 X273.107 Y221.206 E3.55377
G1 X272.912 Y221.718 E3.57202
G1 X272.644 Y222.195 E3.59024
G1 X272.309 Y222.628 E3.60848
G1 X271.915 Y223.008 E3.62671
G1 X271.47 Y223.327 E3.64495
G1 X270.983 Y223.577 E3.66319
G1 X270.465 Y223.754 E3.68142
G1 X269.927 Y223.853 E3.69964
G1 X269.517 Y223.876 E3.71332
G1 X235.675 Y223.885 E4.84061
G1 X230.197 Y224.04 E5.02316
G1 X224.202 Y224.536 E5.22354
G1 X223.868 Y224.549 E5.23467
G1 X222.381 Y224.539 E5.2842
G1 X221.835 Y224.495 E5.30245
G1 X221.302 Y224.373 E5.32066
G1 X220.792 Y224.174 E5.3389
G1 X220.316 Y223.903 E5.35715
G1 X219.767 Y223.453 E5.38079
G1 X219.235 Y222.926 E5.40574
G1 X218.875 Y222.514 E5.42396
G1 X218.579 Y222.053 E5.44221
G1 X218.354 Y221.554 E5.46044
G1 X218.203 Y221.028 E5.47867
G1 X218.131 Y220.486 E5.49688
G1 X218.139 Y219.931 E5.51537
G1 X218.53 Y215.518 E5.66295
G1 X218.766 Y210 E5.84692
G1 X218.786 Y203.132 E6.0757
G1 X218.828 Y202.586 E6.09394
G1 X218.948 Y202.053 E6.11214
G1 X219.145 Y201.542 E6.13038
G1 X219.414 Y201.065 E6.14862
G1 X219.75 Y200.633 E6.16685
G0 F3937.5 X220.243 Y200.84
G1 F900 X220.631 Y200.51 E6.18382
G1 X221.066 Y200.245 E6.20079
G1 X221.437 Y200.084 E6.21426
G1 X225.836 Y198.503 E6.36997
G1 X230.887 Y196.388 E6.55237
G1 X235.835 Y193.982 E6.73565
G1 X238.201 Y192.703 E6.82524
G1 X242.908 Y189.896 E7.00779
G1 X247.448 Y186.827 E7.19033
G1 X251.808 Y183.507 E7.37288
G1 X255.951 Y179.965 E7.55444
G1 X260.286 Y175.8 E7.75469
G1 X260.68 Y175.477 E7.77166
G1 X261.12 Y175.22 E7.78864
G1 X261.595 Y175.034 E7.80563
G1 X262.092 Y174.925 E7.82258
G1 X262.538 Y174.894 E7.83747
G1 X269.517 Y174.895 E8.06994
G1 X270.025 Y174.935 E8.08692
G1 X270.521 Y175.054 E8.10391
G1 X270.992 Y175.249 E8.12089
G1 X271.426 Y175.515 E8.13784
G1 X271.814 Y175.846 E8.15483
G1 X272.145 Y176.233 E8.17179
G1 X272.411 Y176.667 E8.18875
G1 X272.607 Y177.138 E8.20574
G1 X272.726 Y177.633 E8.2227
G1 X272.767 Y178.145 E8.23981
G1 X272.766 Y220.126 E9.63821
G1 X272.726 Y220.634 E9.65519
G1 X272.607 Y221.129 E9.67215
G1 X272.412 Y221.6 E9.68913
G1 X272.146 Y222.035 E9.70611
G1 X271.816 Y222.422 E9.72305
G1 X271.429 Y222.754 E9.74004
G1 X270.994 Y223.02 E9.75702
G1 X270.524 Y223.216 E9.77399
G1 X270.029 Y223.335 E9.79094
G1 X269.517 Y223.376 E9.80805
G1 X235.696 Y223.385 E10.93464
G1 X230.161 Y223.542 E11.11909
G1 X224.161 Y224.038 E11.31963
G1 X223.871 Y224.049 E11.3293
G1 X222.384 Y224.039 E11.37883
G1 X221.876 Y223.996 E11.39582
G1 X221.382 Y223.873 E11.41277
G1 X220.912 Y223.675 E11.42976
G1 X220.48 Y223.407 E11.4467
G1 X220.119 Y223.098 E11.46253
G1 X219.587 Y222.571 E11.48747
G1 X219.254 Y222.185 E11.50445
G1 X218.986 Y221.752 E11.52141
G1 X218.788 Y221.282 E11.5384
G1 X218.667 Y220.787 E11.55538
G1 X218.624 Y220.28 E11.57232
G1 X218.637 Y219.975 E11.58249
G1 X219.03 Y215.54 E11.7308
G1 X219.266 Y210.023 E11.91475
G1 X219.286 Y203.134 E12.14422
G1 X219.327 Y202.626 E12.1612
G1 X219.448 Y202.131 E12.17817
G1 X219.644 Y201.66 E12.19517
G1 X219.911 Y201.227 E12.21211
G1 X220.243 Y200.84 E12.2291
G1 F600 E10.4791
G0 F3937.5 X223.29 Y202.47
G0 X223.29 Y203.899
G0 X223.346 Y203.955
G0 X223.276 Y203.885
;TYPE:WALL-INNER
G1 F600 E12.2291
G1 F900 X263.276 Y203.885 E13.56151
G1 X263.276 Y178.885 E14.39427
G1 X268.776 Y178.885 E14.57748
G1 X268.776 Y219.385 E15.92655
G1 X225.579 Y219.385 E17.36545
G1 X225.301 Y219.141 E17.37777
G1 X224.992 Y218.926 E17.39031
G1 X224.688 Y218.749 E17.40203
G1 X224.334 Y218.592 E17.41493
G1 X223.997 Y218.471 E17.42686
G1 X223.614 Y218.374 E17.44002
G1 X223.276 Y218.308 E17.45149
G1 X223.276 Y203.885 E17.93193
G0 F3937.5 X222.776 Y203.385
;TYPE:WALL-OUTER
G1 F900 X262.776 Y203.385 E19.26434
G1 X262.776 Y178.385 E20.0971
G1 X269.276 Y178.385 E20.31362
G1 X269.276 Y219.885 E21.696
G1 X225.354 Y219.885 E23.15905
G1 X225.22 Y219.734 E23.16578
G1 X224.993 Y219.536 E23.17581
G1 X224.723 Y219.348 E23.18677
G1 X224.46 Y219.195 E23.19691
G1 X224.148 Y219.057 E23.20827
G1 X223.85 Y218.95 E23.21882
G1 X223.505 Y218.862 E23.23068
G1 X223.179 Y218.799 E23.24174
G1 X222.776 Y218.762 E23.25522
G1 X222.776 Y203.385 E23.76743
G0 F3937.5 X223.026 Y203.385
G0 X223.346 Y203.955
G0 X223.5 Y204.408
;TYPE:SKIN
G1 F900 X238.251 Y219.159 E24.46232
G1 X238.339 Y219.247
G0 F3937.5 X238.958 Y219.159
G1 F900 X223.908 Y204.109 E25.1713
G1 X223.82 Y204.021
G0 F3937.5 X224.616 Y204.109
G1 F900 X239.666 Y219.159 E25.88027
G1 X239.754 Y219.247
G0 F3937.5 X240.373 Y219.159
G1 F900 X225.323 Y204.109 E26.58925
G1 X225.235 Y204.021
G0 F3937.5 X226.03 Y204.109
G1 F900 X241.08 Y219.159 E27.29822
G1 X241.168 Y219.247
G0 F3937.5 X241.787 Y219.159
G1 F900 X226.737 Y204.109 E28.0072
G1 X226.649 Y204.021
G0 F3937.5 X227.444 Y204.109
G1 F900 X242.494 Y219.159 E28.71617
G1 X242.582 Y219.247
G0 F3937.5 X243.201 Y219.159
G1 F900 X228.151 Y204.109 E29.42515
G1 X228.063 Y204.021
G0 F3937.5 X228.858 Y204.109
G1 F900 X243.908 Y219.159 E30.13412
G1 X243.996 Y219.247
G0 F3937.5 X244.615 Y219.159
G1 F900 X229.565 Y204.109 E30.8431
G1 X229.477 Y204.021
G0 F3937.5 X230.272 Y204.109
G1 F900 X245.322 Y219.159 E31.55207
G1 X245.41 Y219.247
G0 F3937.5 X246.03 Y219.159
G1 F900 X230.979 Y204.109 E32.26107
G1 X230.891 Y204.021
G0 F3937.5 X231.687 Y204.109
G1 F900 X246.737 Y219.159 E32.97004
G1 X246.825 Y219.247
G0 F3937.5 X247.444 Y219.159
G1 F900 X232.394 Y204.109 E33.67902
G1 X232.306 Y204.021
G0 F3937.5 X233.101 Y204.109
G1 F900 X248.151 Y219.159 E34.38799
G1 X248.239 Y219.247
G0 F3937.5 X248.858 Y219.159
G1 F900 X233.808 Y204.109 E35.09697
G1 X233.72 Y204.021
G0 F3937.5 X234.515 Y204.109
G1 F900 X249.565 Y219.159 E35.80594
G1 X249.653 Y219.247
G0 F3937.5 X250.272 Y219.159
G1 F900 X235.222 Y204.109 E36.51492
G1 X235.134 Y204.021
G0 F3937.5 X235.929 Y204.109
G1 F900 X250.979 Y219.159 E37.22389
G1 X251.067 Y219.247
G0 F3937.5 X251.686 Y219.159
G1 F900 X236.636 Y204.109 E37.93287
G1 X236.548 Y204.021
G0 F3937.5 X237.343 Y204.109
G1 F900 X252.393 Y219.159 E38.64184
G1 X252.481 Y219.247
G0 F3937.5 X253.101 Y219.159
G1 F900 X238.051 Y204.109 E39.35082
G1 X237.963 Y204.021
G0 F3937.5 X238.758 Y204.109
G1 F900 X253.808 Y219.159 E40.05979
G1 X253.896 Y219.247
G0 F3937.5 X254.515 Y219.159
G1 F900 X239.465 Y204.109 E40.76877
G1 X239.377 Y204.021
G0 F3937.5 X240.172 Y204.109
G1 F900 X255.222 Y219.159 E41.47774
G1 X255.31 Y219.247
G0 F3937.5 X255.929 Y219.159
G1 F900 X240.879 Y204.109 E42.18672
G1 X240.791 Y204.021
G0 F3937.5 X241.586 Y204.109
G1 F900 X256.636 Y219.159 E42.89569
G1 X256.724 Y219.247
G0 F3937.5 X257.343 Y219.159
G1 F900 X242.293 Y204.109 E43.60467
G1 X242.205 Y204.021
G0 F3937.5 X243 Y204.109
G1 F900 X258.05 Y219.159 E44.31364
G1 X258.138 Y219.247
G0 F3937.5 X258.757 Y219.159
G1 F900 X243.707 Y204.109 E45.02262
G1 X243.619 Y204.021
G0 F3937.5 X244.414 Y204.109
G1 F900 X259.465 Y219.159 E45.73161
G1 X259.553 Y219.247
G0 F3937.5 X260.172 Y219.159
G1 F900 X245.122 Y204.109 E46.44059
G1 X245.034 Y204.021
G0 F3937.5 X245.829 Y204.109
G1 F900 X260.879 Y219.159 E47.14956
G1 X260.967 Y219.247
G0 F3937.5 X261.586 Y219.159
G1 F900 X246.536 Y204.109 E47.85854
G1 X246.448 Y204.021
G0 F3937.5 X247.243 Y204.109
G1 F900 X262.293 Y219.159 E48.56751
G1 X262.381 Y219.247
G0 F3937.5 X263 Y219.159
G1 F900 X247.95 Y204.109 E49.27649
G1 X247.862 Y204.021
G0 F3937.5 X248.657 Y204.109
G1 F900 X263.707 Y219.159 E49.98546
G1 X263.795 Y219.247
G0 F3937.5 X264.414 Y219.159
G1 F900 X249.364 Y204.109 E50.69444
G1 X249.276 Y204.021
G0 F3937.5 X250.071 Y204.109
G1 F900 X265.121 Y219.159 E51.40341
G1 X265.209 Y219.247
G0 F3937.5 X265.829 Y219.159
G1 F900 X250.778 Y204.109 E52.11241
G1 X250.69 Y204.021
G0 F3937.5 X251.486 Y204.109
G1 F900 X266.536 Y219.159 E52.82139
G1 X266.624 Y219.247
G0 F3937.5 X267.243 Y219.159
G1 F900 X252.193 Y204.109 E53.53036
G1 X252.105 Y204.021
G0 F3937.5 X252.9 Y204.109
G1 F900 X267.95 Y219.159 E54.23934
G1 X268.038 Y219.247
G0 F3937.5 X268.55 Y219.053
G1 F900 X253.607 Y204.109 E54.94329
G1 X253.519 Y204.021
G0 F3937.5 X254.314 Y204.109
G1 F900 X268.55 Y218.346 E55.61395
G1 X268.638 Y218.434
G0 F3937.5 X268.55 Y217.638
G1 F900 X255.021 Y204.109 E56.25127
G1 X254.933 Y204.021
G0 F3937.5 X255.728 Y204.109
G1 F900 X268.55 Y216.931 E56.85529
G1 X268.638 Y217.019
G0 F3937.5 X268.55 Y216.224
G1 F900 X256.435 Y204.109 E57.426
G1 X256.347 Y204.021
G0 F3937.5 X257.142 Y204.109
G1 F900 X268.55 Y215.517 E57.96341
G1 X268.638 Y215.605
G0 F3937.5 X268.55 Y214.81
G1 F900 X257.85 Y204.109 E58.46749
G1 X257.762 Y204.021
G0 F3937.5 X258.557 Y204.109
G1 F900 X268.55 Y214.103 E58.93826
G1 X268.638 Y214.191
G0 F3937.5 X268.55 Y213.396
G1 F900 X259.264 Y204.109 E59.37573
G1 X259.176 Y204.021
G0 F3937.5 X259.971 Y204.109
G1 F900 X268.55 Y212.689 E59.77989
G1 X268.638 Y212.777
G0 F3937.5 X268.55 Y211.982
G1 F900 X260.678 Y204.109 E60.15075
G1 X260.59 Y204.021
G0 F3937.5 X261.385 Y204.109
G1 F900 X268.55 Y211.275 E60.4883
G1 X268.638 Y211.363
G0 F3937.5 X268.55 Y210.567
G1 F900 X262.092 Y204.109 E60.79252
G1 X262.004 Y204.021
G0 F3937.5 X262.799 Y204.109
G1 F900 X268.55 Y209.86 E61.06344
G1 X268.638 Y209.948
G0 F3937.5 X268.55 Y209.153
G1 F900 X263.499 Y204.102 E61.30139
G1 X263.411 Y204.014
G0 F3937.5 X263.499 Y203.395
G1 F900 X268.55 Y208.446 E61.53933
G1 X268.638 Y208.534
G0 F3937.5 X268.55 Y207.739
G1 F900 X263.499 Y202.688 E61.77727
G1 X263.411 Y202.6
G0 F3937.5 X263.499 Y201.981
G1 F900 X268.55 Y207.032 E62.01521
G1 X268.638 Y207.12
G0 F3937.5 X268.55 Y206.325
G1 F900 X263.499 Y201.274 E62.25315
G1 X263.411 Y201.186
G0 F3937.5 X263.499 Y200.567
G1 F900 X268.55 Y205.618 E62.4911
G1 X268.638 Y205.706
G0 F3937.5 X268.55 Y204.911
G1 F900 X263.499 Y199.86 E62.72904
G1 X263.411 Y199.772
G0 F3937.5 X263.499 Y199.153
G1 F900 X268.55 Y204.203 E62.96696
G1 X268.638 Y204.291
G0 F3937.5 X268.55 Y203.496
G1 F900 X263.499 Y198.445 E63.2049
G1 X263.411 Y198.357
G0 F3937.5 X263.499 Y197.738
G1 F900 X268.55 Y202.789 E63.44284
G1 X268.638 Y202.877
G0 F3937.5 X268.55 Y202.082
G1 F900 X263.499 Y197.031 E63.68078
G1 X263.411 Y196.943
G0 F3937.5 X263.499 Y196.324
G1 F900 X268.55 Y201.375 E63.91873
G1 X268.638 Y201.463
G0 F3937.5 X268.55 Y200.668
G1 F900 X263.499 Y195.617 E64.15667
G1 X263.411 Y195.529
G0 F3937.5 X263.499 Y194.91
G1 F900 X268.55 Y199.961 E64.39461
G1 X268.638 Y200.049
G0 F3937.5 X268.55 Y199.254
G1 F900 X263.499 Y194.203 E64.63255
G1 X263.411 Y194.115
G0 F3937.5 X263.499 Y193.496
G1 F900 X268.55 Y198.547 E64.8705
G1 X268.638 Y198.635
G0 F3937.5 X268.55 Y197.839
G1 F900 X263.499 Y192.789 E65.10842
G1 X263.411 Y192.701
G0 F3937.5 X263.499 Y192.082
G1 F900 X268.55 Y197.132 E65.34633
G1 X268.638 Y197.22
G0 F3937.5 X268.55 Y196.425
G1 F900 X263.499 Y191.374 E65.58428
G1 X263.411 Y191.286
G0 F3937.5 X263.499 Y190.667
G1 F900 X268.55 Y195.718 E65.82222
G1 X268.638 Y195.806
G0 F3937.5 X268.55 Y195.011
G1 F900 X263.499 Y189.96 E66.06016
G1 X263.411 Y189.872
G0 F3937.5 X263.499 Y189.253
G1 F900 X268.55 Y194.304 E66.2981
G1 X268.638 Y194.392
G0 F3937.5 X268.55 Y193.597
G1 F900 X263.499 Y188.546 E66.53605
G1 X263.411 Y188.458
G0 F3937.5 X263.499 Y187.839
G1 F900 X268.55 Y192.89 E66.77399
G1 X268.638 Y192.978
G0 F3937.5 X268.55 Y192.183
G1 F900 X263.499 Y187.132 E67.01193
G1 X263.411 Y187.044
G0 F3937.5 X263.499 Y186.425
G1 F900 X268.55 Y191.476 E67.24987
G1 X268.638 Y191.564
G0 F3937.5 X268.55 Y190.768
G1 F900 X263.499 Y185.718 E67.48779
G1 X263.411 Y185.63
G0 F3937.5 X263.499 Y185.01
G1 F900 X268.55 Y190.061 E67.72573
G1 X268.638 Y190.149
G0 F3937.5 X268.55 Y189.354
G1 F900 X263.499 Y184.303 E67.96368
G1 X263.411 Y184.215
G0 F3937.5 X263.499 Y183.596
G1 F900 X268.55 Y188.647 E68.20162
G1 X268.638 Y188.735
G0 F3937.5 X268.55 Y187.94
G1 F900 X263.499 Y182.889 E68.43956
G1 X263.411 Y182.801
G0 F3937.5 X263.499 Y182.182
G1 F900 X268.55 Y187.233 E68.6775
G1 X268.638 Y187.321
G0 F3937.5 X268.55 Y186.526
G1 F900 X263.499 Y181.475 E68.91545
G1 X263.411 Y181.387
G0 F3937.5 X263.499 Y180.768
G1 F900 X268.55 Y185.819 E69.15339
G1 X268.638 Y185.907
G0 F3937.5 X268.55 Y185.112
G1 F900 X263.499 Y180.061 E69.39133
G1 X263.411 Y179.973
G0 F3937.5 X263.499 Y179.354
G1 F900 X268.55 Y184.404 E69.62925
G1 X268.638 Y184.492
G0 F3937.5 X268.55 Y183.697
G1 F900 X263.962 Y179.11 E69.84536
G1 X263.874 Y179.022
G0 F3937.5 X264.67 Y179.11
G1 F900 X268.55 Y182.99 E70.02814
G1 X268.638 Y183.078
G0 F3937.5 X268.55 Y182.283
G1 F900 X265.377 Y179.11 E70.17761
G1 X265.289 Y179.022
G0 F3937.5 X266.084 Y179.11
G1 F900 X268.55 Y181.576 E70.29378
G1 X268.638 Y181.664
G0 F3937.5 X268.55 Y180.869
G1 F900 X266.791 Y179.11 E70.37664
G1 X266.703 Y179.022
G0 F3937.5 X267.498 Y179.11
G1 F900 X268.55 Y180.162 E70.4262
G1 X268.638 Y180.25
G0 F3937.5 X268.55 Y179.455
G1 F900 X268.205 Y179.11 E70.44245
G0 F3937.5 X263.304 Y203.913
G0 X237.544 Y219.159
G1 F900 X223.5 Y205.115 E71.10403
G1 X223.412 Y205.027
G0 F3937.5 X223.5 Y205.822
G1 F900 X236.837 Y219.159 E71.73231
G1 X236.925 Y219.247
G0 F3937.5 X236.13 Y219.159
G1 F900 X223.5 Y206.529 E72.32729
G1 X223.412 Y206.441
G0 F3937.5 X223.5 Y207.236
G1 F900 X235.423 Y219.159 E72.88895
G1 X235.511 Y219.247
G0 F3937.5 X234.716 Y219.159
G1 F900 X223.5 Y207.943 E73.41732
G1 X223.412 Y207.855
G0 F3937.5 X223.5 Y208.65
G1 F900 X234.009 Y219.159 E73.91238
G1 X234.097 Y219.247
G0 F3937.5 X233.302 Y219.159
G1 F900 X223.5 Y209.358 E74.3741
G1 X223.412 Y209.27
G0 F3937.5 X223.5 Y210.065
G1 F900 X232.594 Y219.159 E74.8025
G1 X232.682 Y219.247
G0 F3937.5 X231.887 Y219.159
G1 F900 X223.5 Y210.772 E75.1976
G1 X223.412 Y210.684
G0 F3937.5 X223.5 Y211.479
G1 F900 X231.18 Y219.159 E75.55939
G1 X231.268 Y219.247
G0 F3937.5 X230.473 Y219.159
G1 F900 X223.5 Y212.186 E75.88787
G1 X223.412 Y212.098
G0 F3937.5 X223.5 Y212.893
G1 F900 X229.766 Y219.159 E76.18305
G1 X229.854 Y219.247
G0 F3937.5 X229.059 Y219.159
G1 F900 X223.5 Y213.6 E76.44492
G1 X223.412 Y213.512
G0 F3937.5 X223.5 Y214.307
G1 F900 X228.352 Y219.159 E76.67349
G1 X228.44 Y219.247
G0 F3937.5 X227.645 Y219.159
G1 F900 X223.5 Y215.014 E76.86875
G1 X223.412 Y214.926
G0 F3937.5 X223.5 Y215.722
