;Generated by Cura LulzBot Edition GCodeWriter Version: 2.6.69
;FLAVOR:RepRap
;TIME:1018
;Filament used: 0.120457m
;Layer height: 0.14
;Generated with Cura_SteamEngine 2.6.69
;This G-Code has been generated specifically for the LulzBot TAZ 5 with standard extruder
M140 S60    ; start bed heating up
G21                      ; set units to Millimetres
G90                      ; absolute positioning
M107                     ; disable fans
M82                      ; set extruder to absolute mode
G28 X0 Y0                ; home X and Y
G28 Z0                   ; home Z
G1 Z15.0 F{travel_speed} ; move extruder up
M117 Heating...                     ; progress indicator message on LCD
M109 R205  ; wait for extruder to reach printing temp
M190 S60    ; wait for bed to reach printing temp
G92 E0                   ; set extruder position to 0
G1 F200 E0               ; prime the nozzle with filament
G92 E0                   ; re-set extruder position to 0
G1 F{travel_speed}       ; set travel speed
M203 X192 Y208 Z3        ; set limits on travel speed
M117 TAZ 5 Printing...   ; progress indicator message on LCD

M221 S100
;LAYER_COUNT:84
;LAYER:0
M107
G0 F2625 X137.024 Y127.286 Z0.424
;TYPE:SKIRT
G1 F900 X137.467 Y126.858 E0.02052
G1 X137.73 Y126.65 E0.03169
G1 X138.913 Y125.782 E0.08056
G1 X139.432 Y125.451 E0.10107
G1 X139.842 Y125.25 E0.11628
G1 X141.201 Y124.664 E0.16558
G1 X141.953 Y124.412 E0.19199
G1 X142.599 Y124.254 E0.21415
G1 X143.403 Y124.129 E0.24125
G1 X144.949 Y124.023 E0.29287
G1 X145.565 Y124.021 E0.31339
G1 X146.146 Y124.093 E0.33289
G1 X147.838 Y124.409 E0.39023
G1 X148.435 Y124.561 E0.41075
G1 X148.83 Y124.709 E0.4248
G1 X149.892 Y125.162 E0.46326
G1 X150.442 Y125.44 E0.48378
G1 X150.731 Y125.625 E0.49522
G1 X151.913 Y126.443 E0.5431
G1 X152.396 Y126.826 E0.56363
G1 X152.717 Y127.146 E0.57873
G1 X153.708 Y128.231 E0.62768
G1 X154.093 Y128.712 E0.6482
G1 X154.327 Y129.081 E0.66275
G1 X155.021 Y130.298 E0.70942
G1 X155.316 Y130.915 E0.7322
G1 X155.457 Y131.274 E0.74505
G1 X155.611 Y131.732 E0.76114
G1 X155.904 Y132.781 E0.79742
G1 X156.042 Y133.466 E0.8207
G1 X156.133 Y134.189 E0.84497
G1 X156.169 Y134.868 E0.86762
G1 X156.149 Y135.973 E0.90444
G1 X156.097 Y136.592 E0.92513
G1 X156.001 Y137.232 E0.94669
G1 X155.895 Y137.744 E0.9641
G1 X155.697 Y138.491 E0.98985
G1 X155.485 Y139.114 E1.01177
G1 X155.056 Y140.135 E1.04866
G1 X154.728 Y140.775 E1.07261
G1 X154.338 Y141.412 E1.09749
G1 X153.866 Y142.056 E1.12409
G1 X152.905 Y143.157 E1.17277
G1 X152.313 Y143.726 E1.20012
G1 X151.706 Y144.217 E1.22613
G1 X151.053 Y144.661 E1.25243
G1 X149.839 Y145.346 E1.29886
G1 X149.284 Y145.613 E1.31938
G1 X148.889 Y145.753 E1.33334
G1 X147.523 Y146.169 E1.3809
G1 X146.725 Y146.339 E1.40808
G1 X145.945 Y146.436 E1.43426
G1 X145.15 Y146.467 E1.46076
G1 X143.745 Y146.405 E1.50761
G1 X143.132 Y146.338 E1.52815
G1 X142.712 Y146.245 E1.54248
G1 X141.335 Y145.872 E1.59
G1 X140.752 Y145.672 E1.61053
G1 X140.353 Y145.484 E1.62522
G1 X139.036 Y144.786 E1.67488
G1 X138.511 Y144.463 E1.69541
G1 X138.23 Y144.247 E1.70721
G1 X137.391 Y143.552 E1.7435
G1 X136.841 Y143.015 E1.76911
G1 X136.127 Y142.196 E1.8053
G1 X135.753 Y141.707 E1.82581
G1 X135.576 Y141.42 E1.83704
G1 X134.842 Y140.127 E1.88657
G1 X134.573 Y139.573 E1.90708
G1 X134.425 Y139.154 E1.92188
G1 X134.016 Y137.798 E1.96906
G1 X133.877 Y137.198 E1.98958
G1 X133.825 Y136.752 E2.00454
G1 X133.724 Y135.283 E2.05358
G1 X133.749 Y134.373 E2.08391
G1 X133.869 Y133.404 E2.11643
G1 X134.022 Y132.66 E2.14173
G1 X134.353 Y131.523 E2.18118
G1 X134.608 Y130.846 E2.20528
G1 X134.925 Y130.165 E2.2303
G1 X135.263 Y129.56 E2.25338
G1 X135.857 Y128.657 E2.28939
G1 X136.309 Y128.073 E2.31399
G1 X137.024 Y127.286 E2.3494
G0 F2625 X137.394 Y127.622
G1 F900 X138.026 Y127.053 E2.37773
G1 X139.209 Y126.185 E2.42661
G1 X139.701 Y125.874 E2.446
G1 X140.04 Y125.709 E2.45855
G1 X141.399 Y125.123 E2.50785
G1 X142.072 Y124.898 E2.53149
G1 X142.718 Y124.74 E2.55364
G1 X143.437 Y124.628 E2.57788
G1 X144.983 Y124.522 E2.6295
G1 X145.566 Y124.522 E2.64892
G1 X146.054 Y124.584 E2.66531
G1 X147.746 Y124.9 E2.72264
G1 X148.31 Y125.046 E2.74205
G1 X148.633 Y125.169 E2.75356
G1 X149.695 Y125.622 E2.79202
G1 X150.447 Y126.036 E2.82062
G1 X151.629 Y126.854 E2.8685
G1 X152.084 Y127.218 E2.88791
G1 X152.348 Y127.483 E2.90037
G1 X153.339 Y128.568 E2.94932
G1 X153.702 Y129.024 E2.96873
G1 X153.893 Y129.329 E2.98072
G1 X154.587 Y130.546 E3.02738
G1 X154.851 Y131.097 E3.04774
G1 X154.992 Y131.456 E3.06058
G1 X155.129 Y131.867 E3.07502
G1 X155.422 Y132.916 E3.1113
G1 X155.546 Y133.528 E3.1321
G1 X155.637 Y134.251 E3.15637
G1 X155.669 Y134.859 E3.17665
G1 X155.649 Y135.964 E3.21346
G1 X155.603 Y136.517 E3.23195
G1 X155.507 Y137.157 E3.2535
G1 X155.412 Y137.616 E3.26912
G1 X155.214 Y138.363 E3.29486
G1 X155.024 Y138.92 E3.31446
G1 X154.595 Y139.941 E3.35135
G1 X154.302 Y140.514 E3.37279
G1 X153.912 Y141.151 E3.39767
G1 X153.489 Y141.727 E3.42148
G1 X152.528 Y142.828 E3.47016
G1 X151.999 Y143.337 E3.49461
G1 X151.392 Y143.828 E3.52062
G1 X150.808 Y144.225 E3.54414
G1 X149.594 Y144.91 E3.59057
G1 X149.068 Y145.161 E3.60998
G1 X148.743 Y145.275 E3.62146
G1 X147.377 Y145.691 E3.66902
G1 X146.663 Y145.843 E3.69334
G1 X145.883 Y145.94 E3.71952
G1 X145.172 Y145.968 E3.74322
G1 X143.767 Y145.906 E3.79007
G1 X143.188 Y145.84 E3.80948
G1 X142.843 Y145.762 E3.82126
G1 X141.466 Y145.389 E3.86878
G1 X140.915 Y145.199 E3.8882
G1 X140.587 Y145.042 E3.90031
G1 X139.27 Y144.344 E3.94996
G1 X138.549 Y143.862 E3.97885
G1 X137.71 Y143.167 E4.01514
G1 X137.217 Y142.687 E4.03806
G1 X136.503 Y141.868 E4.07426
G1 X136.011 Y141.173 E4.10262
G1 X135.277 Y139.88 E4.15215
G1 X135.025 Y139.355 E4.17154
G1 X134.904 Y139.009 E4.18375
G1 X134.495 Y137.653 E4.23093
G1 X134.365 Y137.085 E4.25034
G1 X134.324 Y136.718 E4.26264
G1 X134.223 Y135.249 E4.31169
G1 X134.245 Y134.435 E4.33882
G1 X134.365 Y133.466 E4.37134
G1 X134.502 Y132.8 E4.39399
G1 X134.833 Y131.663 E4.43344
G1 X135.061 Y131.057 E4.455
G1 X135.378 Y130.376 E4.48002
G1 X135.68 Y129.834 E4.50069
G1 X136.274 Y128.931 E4.5367
G1 X136.679 Y128.409 E4.5587
G1 X137.394 Y127.622 E4.59412
G0 F2625 X137.764 Y127.958
G1 F900 X138.322 Y127.457 E4.6191
G1 X139.505 Y126.589 E4.66798
G1 X139.968 Y126.298 E4.68619
G1 X140.238 Y126.168 E4.69618
G1 X141.597 Y125.582 E4.74547
G1 X142.191 Y125.383 E4.76634
G1 X142.837 Y125.225 E4.78849
G1 X143.471 Y125.127 E4.80986
G1 X145.017 Y125.021 E4.86148
G1 X145.565 Y125.023 E4.87974
G1 X145.962 Y125.076 E4.89308
G1 X147.654 Y125.392 E4.95041
G1 X148.437 Y125.629 E4.97766
G1 X149.499 Y126.082 E5.01612
G1 X150.162 Y126.447 E5.04133
G1 X151.344 Y127.265 E5.08922
G1 X151.77 Y127.609 E5.10745
G1 X151.979 Y127.82 E5.11735
G1 X152.97 Y128.905 E5.1663
G1 X153.309 Y129.335 E5.18454
G1 X153.459 Y129.576 E5.19399
G1 X154.153 Y130.793 E5.24066
G1 X154.385 Y131.28 E5.25863
G1 X154.526 Y131.639 E5.27147
G1 X154.648 Y132.001 E5.2842
G1 X154.941 Y133.05 E5.32048
G1 X155.05 Y133.591 E5.33886
G1 X155.141 Y134.314 E5.36314
G1 X155.169 Y134.85 E5.38101
G1 X155.149 Y135.955 E5.41783
G1 X155.109 Y136.443 E5.43414
G1 X155.013 Y137.083 E5.4557
G1 X154.929 Y137.488 E5.46947
G1 X154.731 Y138.235 E5.49522
G1 X154.563 Y138.727 E5.51253
G1 X154.134 Y139.748 E5.54942
G1 X153.875 Y140.253 E5.56833
G1 X153.485 Y140.89 E5.59321
G1 X153.112 Y141.398 E5.6142
G1 X152.151 Y142.499 E5.66288
G1 X151.684 Y142.949 E5.68448
G1 X151.077 Y143.44 E5.71049
G1 X150.562 Y143.79 E5.73123
G1 X149.348 Y144.475 E5.77766
G1 X148.597 Y144.796 E5.80487
G1 X147.231 Y145.212 E5.85243
G1 X146.602 Y145.346 E5.87386
G1 X145.822 Y145.443 E5.90004
G1 X145.194 Y145.468 E5.92097
G1 X143.789 Y145.406 E5.96782
G1 X143.245 Y145.342 E5.98607
G1 X142.974 Y145.28 E5.99533
G1 X141.597 Y144.907 E6.04285
G1 X141.08 Y144.725 E6.06111
G1 X140.821 Y144.6 E6.07069
G1 X139.504 Y143.902 E6.12034
G1 X138.868 Y143.477 E6.14582
G1 X138.029 Y142.782 E6.18211
G1 X137.594 Y142.358 E6.20234
G1 X136.88 Y141.539 E6.23853
G1 X136.446 Y140.926 E6.26355
G1 X135.712 Y139.633 E6.31308
G1 X135.477 Y139.139 E6.3313
G1 X135.383 Y138.865 E6.34095
G1 X134.974 Y137.509 E6.38813
G1 X134.854 Y136.975 E6.40636
G1 X134.823 Y136.683 E6.41614
G1 X134.722 Y135.214 E6.46519
G1 X134.741 Y134.496 E6.48912
G1 X134.861 Y133.527 E6.52164
G1 X134.982 Y132.94 E6.5416
G1 X135.313 Y131.803 E6.58105
G1 X135.514 Y131.268 E6.60009
G1 X135.831 Y130.587 E6.62511
G1 X136.098 Y130.109 E6.64335
G1 X136.692 Y129.206 E6.67935
G1 X137.049 Y128.745 E6.69877
G1 X137.764 Y127.958 E6.73419
G0 F2625 X138.135 Y128.295
G1 F900 X138.617 Y127.86 E6.75582
G1 X139.8 Y126.992 E6.8047
G1 X140.436 Y126.628 E6.8291
G1 X141.795 Y126.042 E6.8784
G1 X142.31 Y125.869 E6.8965
G1 X142.956 Y125.711 E6.91865
G1 X143.506 Y125.626 E6.93719
G1 X145.052 Y125.52 E6.98881
G1 X145.561 Y125.525 E7.00577
G1 X145.871 Y125.567 E7.01619
G1 X147.563 Y125.883 E7.07352
G1 X148.241 Y126.089 E7.09713
G1 X149.303 Y126.542 E7.13558
G1 X149.877 Y126.859 E7.15743
G1 X151.059 Y127.677 E7.20531
G1 X151.61 Y128.157 E7.22965
G1 X152.601 Y129.242 E7.2786
G1 X153.024 Y129.824 E7.30256
G1 X153.718 Y131.041 E7.34923
G1 X153.92 Y131.463 E7.36482
G1 X154.061 Y131.822 E7.37766
G1 X154.166 Y132.136 E7.38869
G1 X154.459 Y133.185 E7.42497
G1 X154.554 Y133.653 E7.44088
G1 X154.645 Y134.376 E7.46515
G1 X154.669 Y134.841 E7.48066
G1 X154.649 Y135.946 E7.51748
G1 X154.614 Y136.369 E7.53162
G1 X154.518 Y137.009 E7.55317
G1 X154.446 Y137.36 E7.56511
G1 X154.248 Y138.107 E7.59085
G1 X154.102 Y138.533 E7.60585
G1 X153.673 Y139.554 E7.64274
G1 X153.449 Y139.992 E7.65913
G1 X153.059 Y140.629 E7.68401
G1 X152.735 Y141.069 E7.70221
G1 X151.774 Y142.17 E7.75089
G1 X151.37 Y142.56 E7.76959
G1 X150.763 Y143.051 E7.7956
G1 X150.316 Y143.355 E7.81361
G1 X149.102 Y144.04 E7.86004
G1 X148.452 Y144.318 E7.88359
G1 X147.086 Y144.734 E7.93115
G1 X146.54 Y144.85 E7.94975
G1 X145.76 Y144.947 E7.97593
G1 X145.216 Y144.969 E7.99406
G1 X143.811 Y144.907 E8.04091
G1 X143.104 Y144.797 E8.06474
G1 X141.727 Y144.424 E8.11227
G1 X141.055 Y144.159 E8.13633
G1 X139.738 Y143.461 E8.18598
G1 X139.187 Y143.092 E8.20807
G1 X138.348 Y142.397 E8.24436
G1 X137.971 Y142.03 E8.26188
G1 X137.257 Y141.211 E8.29808
G1 X136.881 Y140.679 E8.31978
G1 X136.147 Y139.386 E8.3693
G1 X135.861 Y138.721 E8.39342
G1 X135.452 Y137.365 E8.4406
G1 X135.322 Y136.649 E8.46484
G1 X135.221 Y135.18 E8.51388
G1 X135.238 Y134.558 E8.53461
G1 X135.358 Y133.589 E8.56714
G1 X135.463 Y133.08 E8.58445
G1 X135.794 Y131.943 E8.62389
G1 X135.968 Y131.479 E8.6404
G1 X136.285 Y130.798 E8.66542
G1 X136.516 Y130.384 E8.68121
G1 X137.11 Y129.481 E8.71722
G1 X137.42 Y129.082 E8.73405
G1 X138.135 Y128.295 E8.76947
G1 F600 E7.26947
G0 F2625 X139.876 Y130.195
G0 X139.93 Y130.254
G0 X141.26 Y131.705
G0 X141.314 Y131.764
G0 X142.048 Y132.563
;TYPE:SUPPORT
G1 F600 E8.76947
G1 F900 X142.379 Y132.244 E8.78478
G1 X142.744 Y131.968 E8.80002
G1 X143.18 Y131.713 E8.81685
G1 X143.606 Y131.529 E8.83231
G1 X144.056 Y131.396 E8.84794
G1 X144.54 Y131.314 E8.86429
G1 X145.011 Y131.293 E8.87999
G1 X145.487 Y131.33 E8.8959
G1 X145.944 Y131.42 E8.91141
G1 X146.425 Y131.577 E8.92827
G1 X146.821 Y131.763 E8.94284
G1 X147.24 Y132.027 E8.95934
G1 X147.611 Y132.325 E8.97519
G1 X147.948 Y132.674 E8.99135
G1 X148.224 Y133.036 E9.00651
G1 X148.471 Y133.46 E9.02286
G1 X148.657 Y133.893 E9.03855
G1 X148.796 Y134.365 E9.05494
G1 X148.874 Y134.824 E9.07045
G1 X148.897 Y135.31 E9.08666
G1 X148.861 Y135.763 E9.1018
G1 X148.768 Y136.223 E9.11743
G1 X148.628 Y136.66 E9.13271
G1 X148.455 Y137.032 E9.14638
G1 X148.21 Y137.424 E9.16178
G1 X147.867 Y137.833 E9.17956
G1 X147.556 Y138.139 E9.19409
G1 X147.208 Y138.4 E9.20858
G1 X146.783 Y138.647 E9.22496
G1 X146.298 Y138.859 E9.24259
G1 X145.847 Y138.995 E9.25828
G1 X145.481 Y139.057 E9.27064
G1 X144.881 Y139.086 E9.29065
G1 X144.46 Y139.049 E9.30473
G1 X143.967 Y138.956 E9.32144
G1 X143.542 Y138.812 E9.33639
G1 X143.111 Y138.608 E9.35227
G1 X142.699 Y138.35 E9.36847
G1 X142.32 Y138.041 E9.38476
G1 X142.009 Y137.722 E9.3996
G1 X141.702 Y137.325 E9.41631
G1 X141.464 Y136.917 E9.43205
G1 X141.264 Y136.447 E9.44906
G1 X141.148 Y136.05 E9.46284
G1 X141.071 Y135.577 E9.4788
G1 X141.045 Y135.041 E9.49668
G1 X141.08 Y134.597 E9.51151
G1 X141.173 Y134.131 E9.52734
G1 X141.313 Y133.712 E9.54206
G1 X141.48 Y133.356 E9.55516
G1 X141.73 Y132.958 E9.57081
G1 X142.048 Y132.563 E9.5877
G0 F2625 X141.763 Y133.28
G1 F900 X148.135 Y133.28 E9.79996
G0 F2625 X148.274 Y133.519
G1 F900 X148.274 Y136.944 E9.91405
G0 F2625 X148.429 Y136.612
G1 F900 X141.551 Y136.612 E10.14315
G0 F2625 X141.61 Y136.75
G1 F900 X141.61 Y133.55 E10.24975
G0 F2625 X141.253 Y134.946
G1 F900 X148.681 Y134.946 E10.49718
G0 F2625 X146.608 Y131.885
G1 F900 X146.608 Y138.507 E10.71776
G0 F2625 X147.021 Y138.278
G1 F900 X142.96 Y138.278 E10.85303
G0 F2625 X143.276 Y138.464
G1 F900 X143.276 Y131.888 E11.07208
G0 F2625 X144.021 Y131.614
G1 F900 X145.892 Y131.614 E11.1344
G0 F2625 X144.942 Y131.494
G1 F900 X144.942 Y138.884 E11.38057
G1 F600 E9.88057
G0 F2625 X145.004 Y140.272
G0 X145.044 Y141.186
G0 X144.854 Y141.293
G0 X144.855 Y141.194
;TYPE:WALL-OUTER
G1 F600 E11.38057
G1 F900 X145.376 Y141.171 E11.39794
G1 X145.573 Y141.162 E11.40451
G1 X146.027 Y141.086 E11.41984
G1 X146.282 Y141.043 E11.42846
G1 X146.678 Y140.927 E11.4422
G1 X146.971 Y140.841 E11.45237
G1 X147.298 Y140.699 E11.46425
G1 X147.631 Y140.555 E11.47633
G1 X147.896 Y140.4 E11.48656
G1 X148.251 Y140.192 E11.50026
G1 X148.444 Y140.046 E11.50833
G1 X148.824 Y139.758 E11.52421
G1 X148.961 Y139.625 E11.53057
G1 X149.34 Y139.258 E11.54814
G1 X149.425 Y139.153 E11.55264
G1 X149.792 Y138.698 E11.57211
G1 X149.833 Y138.632 E11.5747
G1 X150.173 Y138.09 E11.59601
G1 X150.188 Y138.057 E11.59722
G1 X150.483 Y137.427 E11.62039
G1 X150.56 Y137.263 E11.62643
G1 X150.54 Y137.249 E11.62724
G1 X150.688 Y136.796 E11.64312
G1 X150.702 Y136.756 E11.64453
G1 X150.825 Y136.138 E11.66552
G1 X150.843 Y136.051 E11.66848
G1 X150.885 Y135.49 E11.68722
G1 X150.897 Y135.335 E11.6924
G1 X150.874 Y134.814 E11.70977
G1 X150.865 Y134.617 E11.71634
G1 X150.788 Y134.156 E11.7319
G1 X150.746 Y133.908 E11.74028
G1 X150.636 Y133.533 E11.7533
G1 X150.544 Y133.219 E11.7642
G1 X150.404 Y132.894 E11.77599
G1 X150.259 Y132.558 E11.78818
G1 X150.104 Y132.293 E11.7984
G1 X149.896 Y131.938 E11.81211
G1 X149.762 Y131.761 E11.8195
G1 X149.462 Y131.365 E11.83605
G1 X149.33 Y131.229 E11.84237
G1 X148.962 Y130.849 E11.85999
G1 X148.855 Y130.763 E11.86456
G1 X148.403 Y130.398 E11.88391
G1 X148.328 Y130.351 E11.88686
G1 X147.794 Y130.017 E11.90784
G1 X147.781 Y130.011 E11.90832
G1 X147.143 Y129.711 E11.9318
G1 X146.506 Y129.503 E11.95412
G1 X146.461 Y129.488 E11.9557
G1 X145.847 Y129.366 E11.97656
G1 X145.756 Y129.347 E11.97965
G1 X145.182 Y129.304 E11.99883
G1 X145.04 Y129.293 E12.00357
G1 X144.536 Y129.315 E12.02037
G1 X144.322 Y129.325 E12.02751
G1 X143.863 Y129.401 E12.04301
G1 X143.613 Y129.443 E12.05145
G1 X143.215 Y129.56 E12.06527
G1 X142.924 Y129.647 E12.07539
G1 X142.615 Y129.78 E12.08659
G1 X142.264 Y129.932 E12.09934
G1 X142.008 Y130.081 E12.1092
G1 X141.643 Y130.294 E12.12328
G1 X141.442 Y130.446 E12.13167
G1 X141.071 Y130.728 E12.1472
G1 X140.926 Y130.869 E12.15393
G1 X140.555 Y131.229 E12.17115
G1 X140.476 Y131.327 E12.17535
G1 X140.103 Y131.788 E12.1951
G1 X140.056 Y131.864 E12.19808
G1 X139.722 Y132.397 E12.21903
G1 X139.706 Y132.431 E12.22028
G1 X139.417 Y133.049 E12.24301
G1 X139.206 Y133.691 E12.26552
G1 X139.193 Y133.73 E12.26689
G1 X139.069 Y134.351 E12.28798
G1 X139.052 Y134.435 E12.29083
G1 X139.009 Y134.999 E12.30968
G1 X138.997 Y135.153 E12.31482
G1 X139.02 Y135.658 E12.33166
G1 X139.03 Y135.87 E12.33873
G1 X139.105 Y136.325 E12.35409
G1 X139.148 Y136.579 E12.36267
G1 X139.263 Y136.97 E12.37625
G1 X139.351 Y137.269 E12.38663
G1 X139.493 Y137.598 E12.39857
G1 X139.636 Y137.929 E12.41058
G1 X139.795 Y138.201 E12.42107
G1 X139.999 Y138.549 E12.43451
G1 X140.154 Y138.754 E12.44307
G1 X140.433 Y139.121 E12.45843
G1 X140.566 Y139.258 E12.46479
G1 X140.933 Y139.637 E12.48236
G1 X141.038 Y139.722 E12.48686
