;Generated by Cura LulzBot Edition GCodeWriter Version: 2.6.69
;FLAVOR:RepRap
;TIME:4126
;Filament used: 1.63975m
;Layer height: 0.25
;Generated with Cura_SteamEngine 2.6.69
;This G-Code has been generated specifically for the LulzBot TAZ 5 with standard extruder
M140 S60    ; start bed heating up
G21                      ; set units to Millimetres
G90                      ; absolute positioning
M107                     ; disable fans
M82                      ; set extruder to absolute mode
G28 X0 Y0                ; home X and Y
G28 Z0                   ; home Z
G1 Z15.0 F{travel_speed} ; move extruder up
M117 Heating...                     ; progress indicator message on LCD
M109 R205  ; wait for extruder to reach printing temp
M190 S60    ; wait for bed to reach printing temp
G92 E0                   ; set extruder position to 0
G1 F200 E0               ; prime the nozzle with filament
G92 E0                   ; re-set extruder position to 0
G1 F{travel_speed}       ; set travel speed
M203 X192 Y208 Z3        ; set limits on travel speed
M117 TAZ 5 Printing...   ; progress indicator message on LCD

M221 S100
;LAYER_COUNT:31
;LAYER:0
M107
G0 F2625 X118.112 Y66.035 Z0.424
;TYPE:SKIRT
G1 F900 X118.378 Y65.6 E0.01698
G1 X118.709 Y65.213 E0.03395
G1 X119.096 Y64.882 E0.05091
G1 X119.53 Y64.615 E0.06788
G1 X120.001 Y64.419 E0.08488
G1 X120.698 Y64.274 E0.10859
G1 X124.69 Y63.89 E0.24218
G1 X130.12 Y63.111 E0.42491
G1 X135.512 Y62.023 E0.60814
G1 X138.233 Y61.353 E0.70148
G1 X138.736 Y61.271 E0.71846
G1 X139.011 Y61.259 E0.72763
G1 X151.035 Y61.263 E1.12815
G1 X151.389 Y61.282 E1.13996
G1 X153.351 Y61.498 E1.20571
G1 X158.834 Y61.889 E1.38881
G1 X164.315 Y61.971 E1.57141
G1 X169.775 Y61.743 E1.75344
G1 X175.035 Y61.263 E1.92938
G1 X175.333 Y61.25 E1.93932
G1 X186.994 Y61.259 E2.32775
G1 X187.501 Y61.299 E2.34469
G1 X187.997 Y61.419 E2.36169
G1 X188.467 Y61.614 E2.37864
G1 X188.902 Y61.88 E2.39562
G1 X189.289 Y62.211 E2.41259
G1 X189.62 Y62.598 E2.42955
G1 X189.886 Y63.033 E2.44653
G1 X190.082 Y63.503 E2.4635
G1 X190.201 Y63.999 E2.48049
G1 X190.241 Y64.509 E2.49753
G1 X190.24 Y76.495 E2.89679
G1 X190.2 Y77.003 E2.91376
G1 X190.148 Y77.262 E2.92256
G1 X188.911 Y82.36 E3.0973
G1 X188.369 Y85.051 E3.18874
G1 X187.919 Y87.699 E3.27821
G1 X187.223 Y93.153 E3.46136
G1 X186.836 Y98.63 E3.64426
G1 X186.75 Y102.687 E3.77943
G1 X186.79 Y175.026 E6.18907
G1 X187.1 Y180.502 E6.37177
G1 X187.717 Y185.933 E6.55384
G1 X188.645 Y191.346 E6.73678
G1 X189.212 Y193.98 E6.82653
G1 X190.143 Y197.714 E6.95471
G1 X190.228 Y198.216 E6.97167
G1 X190.24 Y198.5 E6.98114
G1 X190.241 Y210.491 E7.38057
G1 X190.201 Y210.999 E7.39754
G1 X190.082 Y211.494 E7.4145
G1 X189.888 Y211.965 E7.43147
G1 X189.622 Y212.4 E7.44845
G1 X189.291 Y212.787 E7.46542
G1 X188.904 Y213.118 E7.48238
G1 X188.47 Y213.385 E7.49935
G1 X187.999 Y213.581 E7.51635
G1 X187.302 Y213.726 E7.54006
G1 X183.31 Y214.11 E7.67365
G1 X177.88 Y214.889 E7.85638
G1 X172.488 Y215.977 E8.03961
G1 X169.767 Y216.647 E8.13295
G1 X169.264 Y216.729 E8.14993
G1 X168.989 Y216.741 E8.1591
G1 X156.965 Y216.737 E8.55962
G1 X156.611 Y216.718 E8.57143
G1 X154.649 Y216.502 E8.63718
G1 X149.166 Y216.111 E8.82028
G1 X143.685 Y216.029 E9.00288
G1 X138.216 Y216.258 E9.18521
G1 X133.298 Y216.726 E9.34977
G1 X132.99 Y216.741 E9.36004
G1 X121.009 Y216.741 E9.75913
G1 X120.501 Y216.701 E9.77611
G1 X120.006 Y216.582 E9.79307
G1 X119.535 Y216.387 E9.81005
G1 X119.1 Y216.121 E9.82703
G1 X118.713 Y215.791 E9.84397
G1 X118.381 Y215.404 E9.86096
G1 X118.115 Y214.969 E9.87794
G1 X117.919 Y214.499 E9.89491
G1 X117.8 Y214.004 E9.91186
G1 X117.759 Y213.491 E9.92901
G1 X117.76 Y201.51 E10.3281
G1 X117.8 Y201.002 E10.34507
G1 X117.862 Y200.702 E10.35528
G1 X118.467 Y198.348 E10.43624
G1 X119.635 Y192.928 E10.62092
G1 X120.081 Y190.301 E10.70968
G1 X120.777 Y184.847 E10.89283
G1 X121.164 Y179.37 E11.07573
G1 X121.25 Y175.313 E11.2109
G1 X121.21 Y102.974 E13.62054
G1 X120.9 Y97.498 E13.80323
G1 X120.283 Y92.067 E13.98531
G1 X119.355 Y86.654 E14.16825
G1 X118.793 Y84.042 E14.25724
G1 X117.856 Y80.28 E14.38639
G1 X117.772 Y79.778 E14.40334
G1 X117.76 Y79.495 E14.41278
G1 X117.759 Y67.509 E14.81203
G1 X117.799 Y67.001 E14.82901
G1 X117.918 Y66.506 E14.84597
G1 X118.112 Y66.035 E14.86293
G1 F600 E13.86293
G0 F2625 X120.335 Y68.264
G0 X121.764 Y68.264
G0 X121.82 Y68.32
G0 X121.75 Y68.25
;TYPE:WALL-INNER
G1 F600 E14.86293
G1 F900 X132.25 Y68.25 E15.21269
G1 X132.25 Y78.75 E15.56245
G1 X128.75 Y78.75 E15.67904
G1 X128.75 Y202.25 E19.79287
G1 X132.25 Y202.25 E19.90945
G1 X132.25 Y212.75 E20.25921
G1 X121.75 Y212.75 E20.60897
G1 X121.75 Y202.25 E20.95873
G1 X125.25 Y202.25 E21.07532
G1 X125.25 Y78.75 E25.18915
G1 X121.75 Y78.75 E25.30573
G1 X121.75 Y68.25 E25.65549
G0 F2625 X121.82 Y68.32
G0 X124.483 Y71.284
G0 X124.558 Y71.35
G1 F900 X124.23 Y71.795 E25.67391
G1 X123.981 Y72.287 E25.69227
G1 X123.821 Y72.814 E25.71062
G1 X123.75 Y73.361 E25.72899
G1 X123.773 Y73.914 E25.74743
G1 X123.89 Y74.453 E25.7658
G1 X124.096 Y74.965 E25.78419
G1 X124.384 Y75.434 E25.80252
G1 X124.749 Y75.849 E25.82093
G1 X125.179 Y76.195 E25.83931
G1 X125.66 Y76.464 E25.85767
G1 X126.181 Y76.648 E25.87608
G1 X126.724 Y76.741 E25.89443
G1 X127.276 Y76.741 E25.91281
G1 X127.819 Y76.648 E25.93117
G1 X128.34 Y76.464 E25.94957
G1 X128.821 Y76.195 E25.96793
G1 X129.251 Y75.849 E25.98631
G1 X129.616 Y75.434 E26.00472
G1 X129.904 Y74.965 E26.02306
G1 X130.11 Y74.453 E26.04144
G1 X130.227 Y73.914 E26.05981
G1 X130.25 Y73.361 E26.07825
G1 X130.179 Y72.814 E26.09662
G1 X130.019 Y72.287 E26.11497
G1 X129.77 Y71.795 E26.13334
G1 X129.442 Y71.35 E26.15175
G1 X129.044 Y70.969 E26.1701
G1 X128.586 Y70.66 E26.18851
G1 X128.084 Y70.433 E26.20686
G1 X127.55 Y70.294 E26.22524
G1 X127 Y70.247 E26.24363
G1 X126.45 Y70.294 E26.26201
G1 X125.916 Y70.433 E26.28039
G1 X125.414 Y70.66 E26.29875
G1 X124.956 Y70.969 E26.31715
G1 X124.558 Y71.35 E26.3355
G0 F2625 X124.483 Y71.284
G0 X123.944 Y72.273
G0 X123.782 Y72.806
G0 X123.711 Y73.36
G0 X123.734 Y73.919
G0 X124.623 Y78.71
G0 X125.278 Y78.722
G0 X127 Y204.147
G0 X127 Y204.247
G1 F900 X126.45 Y204.294 E26.35389
G1 X125.916 Y204.433 E26.37227
G1 X125.414 Y204.66 E26.39062
G1 X124.956 Y204.969 E26.40903
G1 X124.558 Y205.35 E26.42738
G1 X124.23 Y205.795 E26.44579
G1 X123.981 Y206.287 E26.46416
G1 X123.821 Y206.814 E26.48251
G1 X123.75 Y207.361 E26.50088
G1 X123.773 Y207.914 E26.51932
G1 X123.89 Y208.453 E26.53769
G1 X124.096 Y208.964 E26.55604
G1 X124.384 Y209.434 E26.5744
G1 X124.749 Y209.849 E26.59281
G1 X125.179 Y210.195 E26.6112
G1 X125.66 Y210.464 E26.62956
G1 X126.181 Y210.648 E26.64796
G1 X126.724 Y210.741 E26.66631
G1 X127.276 Y210.741 E26.6847
G1 X127.819 Y210.648 E26.70305
G1 X128.34 Y210.464 E26.72146
G1 X128.821 Y210.195 E26.73981
G1 X129.251 Y209.849 E26.7582
G1 X129.616 Y209.434 E26.77661
G1 X129.904 Y208.964 E26.79497
G1 X130.11 Y208.453 E26.81332
G1 X130.227 Y207.914 E26.83169
G1 X130.25 Y207.361 E26.85013
G1 X130.179 Y206.814 E26.8685
G1 X130.019 Y206.287 E26.88685
G1 X129.77 Y205.795 E26.90522
G1 X129.442 Y205.35 E26.92363
G1 X129.044 Y204.969 E26.94199
G1 X128.586 Y204.66 E26.96039
G1 X128.084 Y204.433 E26.97874
G1 X127.55 Y204.294 E26.99712
G1 X127 Y204.247 E27.01551
G0 F2625 X127 Y204.749
;TYPE:WALL-OUTER
G1 F900 X126.535 Y204.789 E27.03106
G1 X126.083 Y204.906 E27.04661
G1 X125.659 Y205.098 E27.06211
G1 X125.271 Y205.36 E27.07771
G1 X124.935 Y205.682 E27.09321
G1 X124.657 Y206.058 E27.10879
G1 X124.447 Y206.474 E27.12431
G1 X124.311 Y206.92 E27.13984
G1 X124.251 Y207.383 E27.15539
G1 X124.271 Y207.85 E27.17096
G1 X124.37 Y208.306 E27.18651
G1 X124.544 Y208.738 E27.20202
G1 X124.788 Y209.136 E27.21757
G1 X125.096 Y209.486 E27.2331
G1 X125.46 Y209.779 E27.24867
G1 X125.867 Y210.007 E27.2642
G1 X126.307 Y210.162 E27.27974
G1 X126.767 Y210.241 E27.29529
G1 X127.233 Y210.241 E27.31081
G1 X127.693 Y210.162 E27.32636
G1 X128.133 Y210.007 E27.3419
G1 X128.54 Y209.779 E27.35744
G1 X128.904 Y209.486 E27.37301
G1 X129.212 Y209.136 E27.38854
G1 X129.456 Y208.738 E27.40409
G1 X129.63 Y208.306 E27.4196
G1 X129.729 Y207.85 E27.43514
G1 X129.749 Y207.383 E27.45071
G1 X129.689 Y206.92 E27.46626
G1 X129.553 Y206.474 E27.4818
G1 X129.343 Y206.058 E27.49732
G1 X129.065 Y205.682 E27.5129
G1 X128.729 Y205.36 E27.5284
G1 X128.341 Y205.098 E27.54399
G1 X127.917 Y204.906 E27.5595
G1 X127.465 Y204.789 E27.57505
G1 X127 Y204.749 E27.5906
G0 F2625 X126.751 Y204.77
G0 X126.702 Y204.172
G0 X128.65 Y201.75
G0 X129.25 Y201.75
G1 F900 X132.75 Y201.75 E27.70718
G1 X132.75 Y213.25 E28.09025
G1 X121.25 Y213.25 E28.47332
G1 X121.25 Y201.75 E28.85639
G1 X124.75 Y201.75 E28.97298
G1 X124.75 Y79.25 E33.05349
G1 X121.25 Y79.25 E33.17008
G1 X121.25 Y67.75 E33.55315
G1 X132.75 Y67.75 E33.93622
G1 X132.75 Y79.25 E34.31929
G1 X129.25 Y79.25 E34.43587
G1 X129.25 Y201.75 E38.51639
G0 F2625 X129.5 Y201.75
G0 X129.5 Y202.35
G0 X128.722 Y202.278
G0 X127.233 Y76.841
G0 X127.233 Y76.241
G1 F900 X127.693 Y76.162 E38.53194
G1 X128.133 Y76.007 E38.54748
G1 X128.54 Y75.779 E38.56302
G1 X128.904 Y75.486 E38.57859
G1 X129.212 Y75.136 E38.59412
G1 X129.456 Y74.739 E38.60964
G1 X129.63 Y74.306 E38.62518
G1 X129.729 Y73.85 E38.64073
G1 X129.749 Y73.383 E38.6563
G1 X129.689 Y72.92 E38.67185
G1 X129.553 Y72.474 E38.68738
G1 X129.343 Y72.058 E38.7029
G1 X129.065 Y71.682 E38.71848
G1 X128.729 Y71.36 E38.73398
G1 X128.341 Y71.098 E38.74957
G1 X127.917 Y70.906 E38.76508
G1 X127.465 Y70.789 E38.78063
G1 X127 Y70.749 E38.79618
G1 X126.535 Y70.789 E38.81172
G1 X126.083 Y70.906 E38.82728
G1 X125.659 Y71.098 E38.84278
G1 X125.271 Y71.36 E38.85838
G1 X124.935 Y71.682 E38.87388
G1 X124.657 Y72.058 E38.88945
G1 X124.447 Y72.474 E38.90498
G1 X124.311 Y72.92 E38.92051
G1 X124.251 Y73.383 E38.93606
G1 X124.271 Y73.85 E38.95163
G1 X124.37 Y74.306 E38.96717
G1 X124.544 Y74.739 E38.98272
G1 X124.788 Y75.136 E38.99824
G1 X125.096 Y75.486 E39.01377
G1 X125.46 Y75.779 E39.02934
G1 X125.867 Y76.007 E39.04488
G1 X126.307 Y76.162 E39.06042
G1 X126.767 Y76.241 E39.07596
G1 X127.233 Y76.241 E39.09148
G0 F2625 X127.479 Y76.199
G0 X127.792 Y76.88
;TYPE:SKIN
G1 F900 X129.436 Y78.524 E39.16893
G1 X129.524 Y78.612
G0 F2625 X130.143 Y78.524
G1 F900 X128.326 Y76.707 E39.25453
G1 X128.238 Y76.619
G0 F2625 X128.793 Y76.467
G1 F900 X130.85 Y78.524 E39.35143
G1 X130.938 Y78.612
G0 F2625 X131.557 Y78.524
G1 F900 X129.206 Y76.173 E39.46218
G1 X129.118 Y76.085
G0 F2625 X129.567 Y75.827
G1 F900 X132.024 Y78.284 E39.57792
G1 X132.112 Y78.372
G0 F2625 X132.024 Y77.577
G1 F900 X129.879 Y75.432 E39.67897
G1 X129.791 Y75.344
G0 F2625 X130.138 Y74.983
G1 F900 X132.024 Y76.87 E39.76784
G1 X132.112 Y76.958
G0 F2625 X132.024 Y76.163
G1 F900 X130.335 Y74.473 E39.84743
G1 X130.247 Y74.385
G0 F2625 X130.452 Y73.883
G1 F900 X132.024 Y75.456 E39.9215
G1 X132.112 Y75.544
G0 F2625 X132.024 Y74.748
G1 F900 X130.452 Y73.176 E39.99556
G1 X130.364 Y73.088
G0 F2625 X130.246 Y72.263
G1 F900 X132.024 Y74.041 E40.07932
G1 X132.112 Y74.129
G0 F2625 X132.024 Y73.334
G1 F900 X127.164 Y68.474 E40.30826
G1 X127.076 Y68.386
G0 F2625 X127.871 Y68.474
G1 F900 X132.024 Y72.627 E40.5039
G1 X132.112 Y72.715
G0 F2625 X132.024 Y71.92
G1 F900 X128.578 Y68.474 E40.66623
G1 X128.49 Y68.386
G0 F2625 X129.285 Y68.474
G1 F900 X132.024 Y71.213 E40.79526
G1 X132.112 Y71.301
G0 F2625 X132.024 Y70.506
G1 F900 X129.993 Y68.474 E40.89096
G1 X129.905 Y68.386
G0 F2625 X130.7 Y68.474
G1 F900 X132.024 Y69.799 E40.95336
G1 X132.112 Y69.887
G0 F2625 X132.024 Y69.092
G1 F900 X131.407 Y68.474 E40.98245
G0 F2625 X128.237 Y70.254
G1 F900 X126.457 Y68.474 E41.0663
G1 X126.369 Y68.386
G0 F2625 X125.75 Y68.474
G1 F900 X127.324 Y70.048 E41.14045
G1 X127.412 Y70.136
G0 F2625 X126.621 Y70.053
G1 F900 X125.043 Y68.474 E41.21481
G1 X124.955 Y68.386
G0 F2625 X124.336 Y68.474
G1 F900 X126.031 Y70.169 E41.29465
G1 X126.119 Y70.257
G0 F2625 X125.519 Y70.364
G1 F900 X123.629 Y68.474 E41.38369
G1 X123.541 Y68.386
G0 F2625 X122.922 Y68.474
G1 F900 X125.068 Y70.62 E41.48478
G1 X125.156 Y70.708
G0 F2625 X124.669 Y70.929
G1 F900 X122.214 Y68.474 E41.60043
G1 X122.126 Y68.386
G0 F2625 X121.973 Y68.94
G1 F900 X124.322 Y71.289 E41.71109
G1 X124.41 Y71.377
G0 F2625 X124.025 Y71.699
G1 F900 X121.973 Y69.647 E41.80775
G1 X121.885 Y69.559
G0 F2625 X121.973 Y70.355
G1 F900 X123.787 Y72.168 E41.89318
G1 X123.875 Y72.256
G0 F2625 X123.618 Y72.706
G1 F900 X121.973 Y71.062 E41.97065
G1 X121.885 Y70.974
G0 F2625 X121.973 Y71.769
G1 F900 X123.528 Y73.323 E42.04388
G1 X123.616 Y73.411
G0 F2625 X123.578 Y74.08
G1 F900 X121.973 Y72.476 E42.11947
G1 X121.885 Y72.388
G0 F2625 X121.973 Y73.183
G1 F900 X123.951 Y75.161 E42.21265
G1 X124.039 Y75.249
G0 F2625 X125.326 Y76.536
G1 F900 X128.525 Y79.734 E42.36332
G1 X128.613 Y79.822
G0 F2625 X128.525 Y79.027
G1 F900 X126.413 Y76.916 E42.46279
G1 X126.325 Y76.828
G0 F2625 X127.17 Y76.965
G1 F900 X128.729 Y78.524 E42.53623
G1 X128.817 Y78.612
G0 F2625 X128.722 Y78.722
G0 X128.525 Y80.441
G1 F900 X121.973 Y73.89 E42.84486
G1 X121.885 Y73.802
G0 F2625 X121.973 Y74.597
G1 F900 X128.525 Y81.148 E43.15349
G1 X128.613 Y81.236
G0 F2625 X128.525 Y81.856
G1 F900 X125.473 Y78.804 E43.29726
G1 X125.385 Y78.716
G0 F2625 X125.193 Y78.524
G1 F900 X121.973 Y75.304 E43.44895
G1 X121.885 Y75.216
G0 F2625 X121.973 Y76.011
G1 F900 X124.486 Y78.524 E43.56733
G1 X124.574 Y78.612
G0 F2625 X123.779 Y78.524
G1 F900 X121.973 Y76.718 E43.65241
G1 X121.885 Y76.63
G0 F2625 X121.973 Y77.426
G1 F900 X123.072 Y78.524 E43.70416
G1 X123.16 Y78.612
G0 F2625 X122.365 Y78.524
G1 F900 X121.973 Y78.133 E43.7226
G0 F2625 X125.278 Y78.722
G0 X125.473 Y79.512
G1 F900 X128.525 Y82.563 E43.86635
G1 X128.613 Y82.651
G0 F2625 X128.525 Y83.27
G1 F900 X125.473 Y80.219 E44.0101
G1 X125.385 Y80.131
G0 F2625 X125.473 Y80.926
G1 F900 X128.525 Y83.977 E44.15385
G1 X128.613 Y84.065
G0 F2625 X128.525 Y84.684
G1 F900 X125.473 Y81.633 E44.2976
G1 X125.385 Y81.545
G0 F2625 X125.473 Y82.34
G1 F900 X128.525 Y85.391 E44.44135
G1 X128.613 Y85.479
G0 F2625 X128.525 Y86.098
G1 F900 X125.473 Y83.047 E44.5851
G1 X125.385 Y82.959
G0 F2625 X125.473 Y83.754
G1 F900 X128.525 Y86.805 E44.72885
G1 X128.613 Y86.893
G0 F2625 X128.525 Y87.512
G1 F900 X125.473 Y84.461 E44.8726
G1 X125.385 Y84.373
G0 F2625 X125.473 Y85.168
G1 F900 X128.525 Y88.22 E45.01637
G1 X128.613 Y88.308
G0 F2625 X128.525 Y88.927
G1 F900 X125.473 Y85.875 E45.16014
G1 X125.385 Y85.787
G0 F2625 X125.473 Y86.583
G1 F900 X128.525 Y89.634 E45.30389
G1 X128.613 Y89.722
G0 F2625 X128.525 Y90.341
G1 F900 X125.473 Y87.29 E45.44764
G1 X125.385 Y87.202
G0 F2625 X125.473 Y87.997
G1 F900 X128.525 Y91.048 E45.59139
G1 X128.613 Y91.136
G0 F2625 X128.525 Y91.755
G1 F900 X125.473 Y88.704 E45.73514
G1 X125.385 Y88.616
G0 F2625 X125.473 Y89.411
G1 F900 X128.525 Y92.462 E45.87889
G1 X128.613 Y92.55
G0 F2625 X128.525 Y93.169
G1 F900 X125.473 Y90.118 E46.02264
G1 X125.385 Y90.03
G0 F2625 X125.473 Y90.825
G1 F900 X128.525 Y93.876 E46.16639
G1 X128.613 Y93.964
G0 F2625 X128.525 Y94.584
G1 F900 X125.473 Y91.532 E46.31017
G1 X125.385 Y91.444
G0 F2625 X125.473 Y92.239
G1 F900 X128.525 Y95.291 E46.45394
G1 X128.613 Y95.379
G0 F2625 X128.525 Y95.998
G1 F900 X125.473 Y92.947 E46.59769
G1 X125.385 Y92.859
G0 F2625 X125.473 Y93.654
G1 F900 X128.525 Y96.705 E46.74144
G1 X128.613 Y96.793
G0 F2625 X128.525 Y97.412
G1 F900 X125.473 Y94.361 E46.88519
G1 X125.385 Y94.273
G0 F2625 X125.473 Y95.068
G1 F900 X128.525 Y98.119 E47.02894
G1 X128.613 Y98.207
G0 F2625 X128.525 Y98.826
G1 F900 X125.473 Y95.775 E47.17269
G1 X125.385 Y95.687
G0 F2625 X125.473 Y96.482
G1 F900 X128.525 Y99.533 E47.31644
G1 X128.613 Y99.621
G0 F2625 X128.525 Y100.24
G1 F900 X125.473 Y97.189 E47.46019
G1 X125.385 Y97.101
G0 F2625 X125.473 Y97.896
G1 F900 X128.525 Y100.947 E47.60394
G1 X128.613 Y101.035
G0 F2625 X128.525 Y101.655
G1 F900 X125.473 Y98.603 E47.74771
G1 X125.385 Y98.515
G0 F2625 X125.473 Y99.311
G1 F900 X128.525 Y102.362 E47.89146
G1 X128.613 Y102.45
G0 F2625 X128.525 Y103.069
G1 F900 X125.473 Y100.018 E48.03521
G1 X125.385 Y99.93
G0 F2625 X125.473 Y100.725
G1 F900 X128.525 Y103.776 E48.17896
