;Generated by Cura LulzBot Edition GCodeWriter Version: 2.6.69
;FLAVOR:RepRap
<<<<<<< HEAD
;TIME:10917
;Filament used: 5.59898m
=======
;TIME:9679
;Filament used: 5.78009m
>>>>>>> bbqburrito6
;Layer height: 0.25
;Generated with Cura_SteamEngine 2.6.69
;This G-Code has been generated specifically for the LulzBot TAZ 5 with standard extruder
M140 S60    ; start bed heating up
G21                      ; set units to Millimetres
G90                      ; absolute positioning
M107                     ; disable fans
M82                      ; set extruder to absolute mode
G28 X0 Y0                ; home X and Y
G28 Z0                   ; home Z
G1 Z15.0 F{travel_speed} ; move extruder up
M117 Heating...                     ; progress indicator message on LCD
<<<<<<< HEAD
M109 R215  ; wait for extruder to reach printing temp
=======
M109 R205  ; wait for extruder to reach printing temp
>>>>>>> bbqburrito6
M190 S60    ; wait for bed to reach printing temp
G92 E0                   ; set extruder position to 0
G1 F200 E0               ; prime the nozzle with filament
G92 E0                   ; re-set extruder position to 0
G1 F{travel_speed}       ; set travel speed
M203 X192 Y208 Z3        ; set limits on travel speed
M117 TAZ 5 Printing...   ; progress indicator message on LCD

M221 S100
;LAYER_COUNT:47
;LAYER:0
M107
<<<<<<< HEAD
G0 F2625 X69.708 Y46.339 Z0.424
;TYPE:SKIRT
G1 F900 X70.038 Y45.952 E0.01694
G1 X70.425 Y45.62 E0.03393
G1 X70.86 Y45.354 E0.05091
G1 X71.33 Y45.158 E0.06787
G1 X71.825 Y45.039 E0.08483
G1 X72.338 Y44.998 E0.10197
G1 X218.32 Y44.999 E4.96469
G1 X218.828 Y45.039 E4.98166
G1 X219.323 Y45.158 E4.99862
G1 X219.794 Y45.353 E5.0156
G1 X220.229 Y45.619 E5.03258
G1 X220.616 Y45.949 E5.04953
G1 X220.948 Y46.336 E5.06651
G1 X221.214 Y46.771 E5.0835
G1 X221.41 Y47.241 E5.10046
G1 X221.529 Y47.736 E5.11742
G1 X221.57 Y48.249 E5.13456
G1 X221.57 Y228.23 E11.12979
G1 X221.53 Y228.738 E11.14677
G1 X221.411 Y229.233 E11.16372
G1 X221.216 Y229.704 E11.1807
G1 X220.95 Y230.139 E11.19769
G1 X220.62 Y230.526 E11.21463
G1 X220.233 Y230.858 E11.23162
G1 X219.798 Y231.124 E11.2486
G1 X219.328 Y231.32 E11.26556
G1 X218.833 Y231.439 E11.28252
G1 X218.32 Y231.48 E11.29966
G1 X72.338 Y231.48 E16.16238
G1 X71.83 Y231.44 E16.17935
G1 X71.335 Y231.321 E16.19631
G1 X70.864 Y231.126 E16.21329
G1 X70.429 Y230.86 E16.23027
G1 X70.042 Y230.53 E16.24722
G1 X69.71 Y230.143 E16.2642
G1 X69.444 Y229.708 E16.28118
G1 X69.248 Y229.238 E16.29815
G1 X69.129 Y228.743 E16.31511
G1 X69.088 Y228.23 E16.33225
G1 X69.088 Y48.248 E22.32751
G1 X69.128 Y47.74 E22.34449
G1 X69.247 Y47.245 E22.36145
G1 X69.442 Y46.774 E22.37843
G1 X69.708 Y46.339 E22.39541
G1 F600 E21.39541
G0 F2625 X71.683 Y49.751
G0 X71.723 Y49.82
G0 X77.128 Y59.155
G0 X77.168 Y59.224
G0 X77.713 Y60.164
;TYPE:SUPPORT
G1 F600 E22.39541
G1 F900 X77.83 Y60.101 E22.39984
G1 X78.024 Y60.033 E22.40669
G1 X78.23 Y59.999 E22.41364
G1 X78.428 Y59.999 E22.42024
G1 X78.627 Y60.033 E22.42696
G1 X78.827 Y60.101 E22.434
G1 X78.877 Y60.128 E22.43589
G1 X78.96 Y60.172 E22.43902
G1 X79.009 Y60.199 E22.44088
G1 X79.029 Y60.215 E22.44174
G1 X79.177 Y60.329 E22.44796
G1 X79.31 Y60.474 E22.45451
G1 X79.39 Y60.595 E22.45934
G1 X79.421 Y60.644 E22.46128
G1 X79.507 Y60.84 E22.46841
G1 X79.531 Y60.929 E22.47148
G1 X79.556 Y61.03 E22.47494
G1 X79.579 Y61.309 E22.48427
G1 X79.579 Y203.189 E27.21034
G1 X77.079 Y203.189 E27.29362
G1 X77.079 Y61.3 E32.01999
G1 X77.101 Y61.031 E32.02898
G1 X77.15 Y60.839 E32.03558
G1 X77.166 Y60.802 E32.03692
G1 X77.222 Y60.67 E32.0417
G1 X77.352 Y60.469 E32.04967
G1 X77.417 Y60.4 E32.05283
G1 X77.488 Y60.323 E32.05632
G1 X77.609 Y60.229 E32.06142
G1 X77.646 Y60.2 E32.06299
G1 X77.713 Y60.164 E32.06552
G0 F2625 X78.302 Y60.199
G1 F900 X78.302 Y202.989 E36.82191
G0 F2625 X77.278 Y201.586
G1 F900 X79.378 Y201.586 E36.89186
G0 F2625 X79.378 Y199.92
G1 F900 X77.278 Y199.92 E36.96181
G0 F2625 X77.278 Y198.254
G1 F900 X79.378 Y198.254 E37.03177
G0 F2625 X79.378 Y196.588
G1 F900 X77.278 Y196.588 E37.10172
G0 F2625 X77.278 Y194.922
G1 F900 X79.378 Y194.922 E37.17167
G0 F2625 X79.378 Y193.256
G1 F900 X77.278 Y193.256 E37.24162
G0 F2625 X77.278 Y191.59
G1 F900 X79.378 Y191.59 E37.31157
G0 F2625 X79.378 Y189.924
G1 F900 X77.278 Y189.924 E37.38152
G0 F2625 X77.278 Y188.258
G1 F900 X79.378 Y188.258 E37.45148
G0 F2625 X79.378 Y186.592
G1 F900 X77.278 Y186.592 E37.52143
G0 F2625 X77.278 Y184.926
G1 F900 X79.378 Y184.926 E37.59138
G0 F2625 X79.378 Y183.26
G1 F900 X77.278 Y183.26 E37.66133
G0 F2625 X77.278 Y181.594
G1 F900 X79.378 Y181.594 E37.73128
G0 F2625 X79.378 Y179.928
G1 F900 X77.278 Y179.928 E37.80124
G0 F2625 X77.278 Y178.262
G1 F900 X79.378 Y178.262 E37.87119
G0 F2625 X79.378 Y176.596
G1 F900 X77.278 Y176.596 E37.94114
G0 F2625 X77.278 Y174.93
G1 F900 X79.378 Y174.93 E38.01109
G0 F2625 X79.378 Y173.264
G1 F900 X77.278 Y173.264 E38.08104
G0 F2625 X77.278 Y171.598
G1 F900 X79.378 Y171.598 E38.15099
G0 F2625 X79.378 Y169.932
G1 F900 X77.278 Y169.932 E38.22095
G0 F2625 X77.278 Y168.266
G1 F900 X79.378 Y168.266 E38.2909
G0 F2625 X79.378 Y166.6
G1 F900 X77.278 Y166.6 E38.36085
G0 F2625 X77.278 Y164.934
G1 F900 X79.378 Y164.934 E38.4308
G0 F2625 X79.378 Y163.268
G1 F900 X77.278 Y163.268 E38.50075
G0 F2625 X77.278 Y161.602
G1 F900 X79.378 Y161.602 E38.5707
G0 F2625 X79.378 Y159.936
G1 F900 X77.278 Y159.936 E38.64066
G0 F2625 X77.278 Y158.27
G1 F900 X79.378 Y158.27 E38.71061
G0 F2625 X79.378 Y156.604
G1 F900 X77.278 Y156.604 E38.78056
G0 F2625 X77.278 Y154.938
G1 F900 X79.378 Y154.938 E38.85051
G0 F2625 X79.378 Y153.272
G1 F900 X77.278 Y153.272 E38.92046
G0 F2625 X77.278 Y151.606
G1 F900 X79.378 Y151.606 E38.99042
G0 F2625 X79.378 Y149.94
G1 F900 X77.278 Y149.94 E39.06037
G0 F2625 X77.278 Y148.274
G1 F900 X79.378 Y148.274 E39.13032
G0 F2625 X79.378 Y146.608
G1 F900 X77.278 Y146.608 E39.20027
G0 F2625 X77.278 Y144.942
G1 F900 X79.378 Y144.942 E39.27022
G0 F2625 X79.378 Y143.276
G1 F900 X77.278 Y143.276 E39.34017
G0 F2625 X77.278 Y141.61
G1 F900 X79.378 Y141.61 E39.41013
G0 F2625 X79.378 Y139.944
G1 F900 X77.278 Y139.944 E39.48008
G0 F2625 X77.278 Y138.278
G1 F900 X79.378 Y138.278 E39.55003
G0 F2625 X79.378 Y136.612
G1 F900 X77.278 Y136.612 E39.61998
G0 F2625 X77.278 Y134.946
G1 F900 X79.378 Y134.946 E39.68993
G0 F2625 X79.378 Y133.28
G1 F900 X77.278 Y133.28 E39.75988
G0 F2625 X77.278 Y131.614
G1 F900 X79.378 Y131.614 E39.82984
G0 F2625 X79.378 Y129.948
G1 F900 X77.278 Y129.948 E39.89979
G0 F2625 X77.278 Y128.282
G1 F900 X79.378 Y128.282 E39.96974
G0 F2625 X79.378 Y126.616
G1 F900 X77.278 Y126.616 E40.03969
G0 F2625 X77.278 Y124.95
G1 F900 X79.378 Y124.95 E40.10964
G0 F2625 X79.378 Y123.284
G1 F900 X77.278 Y123.284 E40.1796
G0 F2625 X77.278 Y121.618
G1 F900 X79.378 Y121.618 E40.24955
G0 F2625 X79.378 Y119.952
G1 F900 X77.278 Y119.952 E40.3195
G0 F2625 X77.279 Y118.286
G1 F900 X79.379 Y118.286 E40.38945
G0 F2625 X79.379 Y116.62
G1 F900 X77.279 Y116.62 E40.4594
G0 F2625 X77.279 Y114.954
G1 F900 X79.379 Y114.954 E40.52935
G0 F2625 X79.379 Y113.288
G1 F900 X77.279 Y113.288 E40.59931
G0 F2625 X77.279 Y111.622
G1 F900 X79.379 Y111.622 E40.66926
G0 F2625 X79.379 Y109.956
G1 F900 X77.279 Y109.956 E40.73921
G0 F2625 X77.279 Y108.29
G1 F900 X79.379 Y108.29 E40.80916
G0 F2625 X79.379 Y106.624
G1 F900 X77.279 Y106.624 E40.87911
G0 F2625 X77.279 Y104.958
G1 F900 X79.379 Y104.958 E40.94906
G0 F2625 X79.379 Y103.292
G1 F900 X77.279 Y103.292 E41.01902
G0 F2625 X77.279 Y101.626
G1 F900 X79.379 Y101.626 E41.08897
G0 F2625 X79.379 Y99.96
G1 F900 X77.279 Y99.96 E41.15892
G0 F2625 X77.279 Y98.294
G1 F900 X79.379 Y98.294 E41.22887
G0 F2625 X79.379 Y96.628
G1 F900 X77.279 Y96.628 E41.29882
G0 F2625 X77.279 Y94.962
G1 F900 X79.379 Y94.962 E41.36877
G0 F2625 X79.379 Y93.296
G1 F900 X77.279 Y93.296 E41.43873
G0 F2625 X77.279 Y91.63
G1 F900 X79.379 Y91.63 E41.50868
G0 F2625 X79.379 Y89.964
G1 F900 X77.279 Y89.964 E41.57863
G0 F2625 X77.279 Y88.298
G1 F900 X79.379 Y88.298 E41.64858
G0 F2625 X79.379 Y86.632
G1 F900 X77.279 Y86.632 E41.71853
G0 F2625 X77.279 Y84.966
G1 F900 X79.379 Y84.966 E41.78849
G0 F2625 X79.379 Y83.3
G1 F900 X77.279 Y83.3 E41.85844
G0 F2625 X77.279 Y81.634
G1 F900 X79.379 Y81.634 E41.92839
G0 F2625 X79.379 Y79.968
G1 F900 X77.279 Y79.968 E41.99834
G0 F2625 X77.279 Y78.302
G1 F900 X79.379 Y78.302 E42.06829
G0 F2625 X79.379 Y76.636
G1 F900 X77.279 Y76.636 E42.13824
G0 F2625 X77.279 Y74.97
G1 F900 X79.379 Y74.97 E42.2082
G0 F2625 X79.379 Y73.304
G1 F900 X77.279 Y73.304 E42.27815
G0 F2625 X77.279 Y71.638
G1 F900 X79.379 Y71.638 E42.3481
G0 F2625 X79.379 Y69.972
G1 F900 X77.279 Y69.972 E42.41805
G0 F2625 X77.279 Y68.306
G1 F900 X79.379 Y68.306 E42.488
G0 F2625 X79.379 Y66.64
G1 F900 X77.279 Y66.64 E42.55795
G0 F2625 X77.279 Y64.974
G1 F900 X79.379 Y64.974 E42.62791
G0 F2625 X79.379 Y63.308
G1 F900 X77.279 Y63.308 E42.69786
G0 F2625 X77.279 Y61.642
G1 F900 X79.379 Y61.642 E42.76781
G1 F600 E41.76781
G0 F2625 X80.662 Y61.579
G0 X80.742 Y61.575
G0 X84.913 Y61.374
G0 X84.982 Y58.892
G0 X142.951 Y58.897
G0 X144.575 Y58.501
G1 F600 E42.76781
G1 F900 X144.591 Y54.99 E42.88476
G1 X144.619 Y54.99 E42.8857
G1 X145.667 Y54.991 E42.92061
G1 X146.077 Y54.991 E42.93426
G1 X146.078 Y55.182 E42.94063
G1 X146.082 Y58.769 E43.06011
G1 X144.463 Y58.768 E43.11404
G1 X144.575 Y58.501 E43.12368
G0 F2625 X144.777 Y58.31
G1 F900 X145.882 Y58.31 E43.16049
G0 F2625 X144.942 Y58.568
G1 F900 X144.942 Y55.191 E43.27298
G0 F2625 X144.784 Y56.644
G1 F900 X145.88 Y56.644 E43.30949
G1 F600 E42.30949
G0 F2625 X147.17 Y58.366
G0 X147.705 Y58.898
G0 X205.676 Y58.892
G0 X205.744 Y60.918
G0 X209.917 Y61.216
G0 X209.997 Y61.221
G0 X211.079 Y61.3
G1 F600 E43.30949
G1 F900 X211.101 Y61.031 E43.31848
G1 X211.151 Y60.835 E43.32522
G1 X211.187 Y60.752 E43.32823
G1 X211.228 Y60.662 E43.33153
G1 X211.352 Y60.469 E43.33917
G1 X211.429 Y60.386 E43.34294
G1 X211.485 Y60.324 E43.34572
G1 X211.627 Y60.217 E43.35164
G1 X211.648 Y60.2 E43.35254
G1 X211.84 Y60.097 E43.3598
G1 X212.021 Y60.034 E43.36619
G1 X212.233 Y59.999 E43.37334
G1 X212.423 Y59.999 E43.37967
G1 X212.639 Y60.035 E43.38697
G1 X212.827 Y60.101 E43.3936
G1 X212.996 Y60.191 E43.39998
G1 X213.172 Y60.327 E43.40739
G1 X213.243 Y60.403 E43.41085
G1 X213.307 Y60.47 E43.41394
G1 X213.383 Y60.586 E43.41856
G1 X213.423 Y60.648 E43.42102
G1 X213.507 Y60.84 E43.428
G1 X213.531 Y60.929 E43.43107
G1 X213.556 Y61.03 E43.43454
G1 X213.579 Y61.309 E43.44386
G1 X213.579 Y203.189 E48.16993
G1 X211.079 Y203.189 E48.25321
G1 X211.079 Y61.3 E52.97958
G0 F2625 X211.279 Y61.642
G1 F900 X213.379 Y61.642 E53.04954
G0 F2625 X213.248 Y60.748
G1 F900 X213.248 Y202.989 E57.78763
G0 F2625 X213.379 Y201.586
G1 F900 X211.279 Y201.586 E57.85759
G0 F2625 X211.582 Y202.989
G1 F900 X211.582 Y60.515 E62.60345
G0 F2625 X211.279 Y63.308
G1 F900 X213.379 Y63.308 E62.6734
G0 F2625 X213.379 Y64.974
G1 F900 X211.279 Y64.974 E62.74335
G0 F2625 X211.279 Y66.64
G1 F900 X213.379 Y66.64 E62.8133
G0 F2625 X213.379 Y68.306
G1 F900 X211.279 Y68.306 E62.88325
G0 F2625 X211.279 Y69.972
G1 F900 X213.379 Y69.972 E62.95321
G0 F2625 X213.379 Y71.638
G1 F900 X211.279 Y71.638 E63.02316
G0 F2625 X211.279 Y73.304
G1 F900 X213.379 Y73.304 E63.09311
G0 F2625 X213.379 Y74.97
G1 F900 X211.279 Y74.97 E63.16306
G0 F2625 X211.279 Y76.636
G1 F900 X213.379 Y76.636 E63.23301
G0 F2625 X213.379 Y78.302
G1 F900 X211.279 Y78.302 E63.30296
G0 F2625 X211.279 Y79.968
G1 F900 X213.379 Y79.968 E63.37292
G0 F2625 X213.379 Y81.634
G1 F900 X211.279 Y81.634 E63.44287
G0 F2625 X211.279 Y83.3
G1 F900 X213.379 Y83.3 E63.51282
G0 F2625 X213.379 Y84.966
G1 F900 X211.279 Y84.966 E63.58277
G0 F2625 X211.279 Y86.632
G1 F900 X213.379 Y86.632 E63.65272
G0 F2625 X213.379 Y88.298
G1 F900 X211.279 Y88.298 E63.72268
G0 F2625 X211.279 Y89.964
G1 F900 X213.379 Y89.964 E63.79263
G0 F2625 X213.379 Y91.63
G1 F900 X211.279 Y91.63 E63.86258
G0 F2625 X211.279 Y93.296
G1 F900 X213.379 Y93.296 E63.93253
G0 F2625 X213.379 Y94.962
G1 F900 X211.279 Y94.962 E64.00248
G0 F2625 X211.279 Y96.628
G1 F900 X213.379 Y96.628 E64.07243
G0 F2625 X213.379 Y98.294
G1 F900 X211.279 Y98.294 E64.14239
G0 F2625 X211.279 Y99.96
G1 F900 X213.379 Y99.96 E64.21234
G0 F2625 X213.379 Y101.626
G1 F900 X211.279 Y101.626 E64.28229
G0 F2625 X211.279 Y103.292
G1 F900 X213.379 Y103.292 E64.35224
G0 F2625 X213.379 Y104.958
G1 F900 X211.279 Y104.958 E64.42219
G0 F2625 X211.279 Y106.624
G1 F900 X213.379 Y106.624 E64.49214
G0 F2625 X213.379 Y108.29
G1 F900 X211.279 Y108.29 E64.5621
G0 F2625 X211.279 Y109.956
G1 F900 X213.379 Y109.956 E64.63205
G0 F2625 X213.379 Y111.622
G1 F900 X211.279 Y111.622 E64.702
G0 F2625 X211.279 Y113.288
G1 F900 X213.379 Y113.288 E64.77195
G0 F2625 X213.379 Y114.954
G1 F900 X211.279 Y114.954 E64.8419
G0 F2625 X211.279 Y116.62
G1 F900 X213.379 Y116.62 E64.91185
G0 F2625 X213.379 Y118.286
G1 F900 X211.279 Y118.286 E64.98181
G0 F2625 X211.279 Y119.952
G1 F900 X213.379 Y119.952 E65.05176
G0 F2625 X213.379 Y121.618
G1 F900 X211.279 Y121.618 E65.12171
G0 F2625 X211.279 Y123.284
G1 F900 X213.379 Y123.284 E65.19166
G0 F2625 X213.379 Y124.95
G1 F900 X211.279 Y124.95 E65.26161
G0 F2625 X211.279 Y126.616
G1 F900 X213.379 Y126.616 E65.33157
G0 F2625 X213.379 Y128.282
G1 F900 X211.279 Y128.282 E65.40152
G0 F2625 X211.279 Y129.948
G1 F900 X213.379 Y129.948 E65.47147
G0 F2625 X213.379 Y131.614
G1 F900 X211.279 Y131.614 E65.54142
G0 F2625 X211.279 Y133.28
G1 F900 X213.379 Y133.28 E65.61137
G0 F2625 X213.379 Y134.946
G1 F900 X211.279 Y134.946 E65.68132
G0 F2625 X211.279 Y136.612
G1 F900 X213.379 Y136.612 E65.75128
G0 F2625 X213.379 Y138.278
G1 F900 X211.279 Y138.278 E65.82123
G0 F2625 X211.279 Y139.944
G1 F900 X213.379 Y139.944 E65.89118
G0 F2625 X213.379 Y141.61
G1 F900 X211.279 Y141.61 E65.96113
G0 F2625 X211.279 Y143.276
G1 F900 X213.379 Y143.276 E66.03108
G0 F2625 X213.379 Y144.942
G1 F900 X211.279 Y144.942 E66.10103
G0 F2625 X211.279 Y146.608
G1 F900 X213.379 Y146.608 E66.17099
G0 F2625 X213.379 Y148.274
G1 F900 X211.279 Y148.274 E66.24094
G0 F2625 X211.279 Y149.94
G1 F900 X213.379 Y149.94 E66.31089
G0 F2625 X213.379 Y151.606
G1 F900 X211.279 Y151.606 E66.38084
G0 F2625 X211.279 Y153.272
G1 F900 X213.379 Y153.272 E66.45079
G0 F2625 X213.379 Y154.938
G1 F900 X211.279 Y154.938 E66.52075
G0 F2625 X211.279 Y156.604
G1 F900 X213.379 Y156.604 E66.5907
G0 F2625 X213.379 Y158.27
G1 F900 X211.279 Y158.27 E66.66065
G0 F2625 X211.279 Y159.936
G1 F900 X213.379 Y159.936 E66.7306
G0 F2625 X213.379 Y161.602
G1 F900 X211.279 Y161.602 E66.80055
G0 F2625 X211.279 Y163.268
G1 F900 X213.379 Y163.268 E66.8705
G0 F2625 X213.379 Y164.934
G1 F900 X211.279 Y164.934 E66.94046
G0 F2625 X211.279 Y166.6
G1 F900 X213.379 Y166.6 E67.01041
G0 F2625 X213.379 Y168.266
G1 F900 X211.279 Y168.266 E67.08036
G0 F2625 X211.279 Y169.932
G1 F900 X213.379 Y169.932 E67.15031
G0 F2625 X213.379 Y171.598
G1 F900 X211.279 Y171.598 E67.22026
G0 F2625 X211.279 Y173.264
G1 F900 X213.379 Y173.264 E67.29021
G0 F2625 X213.379 Y174.93
G1 F900 X211.279 Y174.93 E67.36017
G0 F2625 X211.279 Y176.596
G1 F900 X213.379 Y176.596 E67.43012
G0 F2625 X213.379 Y178.262
G1 F900 X211.279 Y178.262 E67.50007
G0 F2625 X211.279 Y179.928
G1 F900 X213.379 Y179.928 E67.57002
G0 F2625 X213.379 Y181.594
G1 F900 X211.279 Y181.594 E67.63997
G0 F2625 X211.279 Y183.26
G1 F900 X213.379 Y183.26 E67.70993
G0 F2625 X213.379 Y184.926
G1 F900 X211.279 Y184.926 E67.77988
G0 F2625 X211.279 Y186.592
G1 F900 X213.379 Y186.592 E67.84983
G0 F2625 X213.379 Y188.258
G1 F900 X211.279 Y188.258 E67.91978
G0 F2625 X211.279 Y189.924
G1 F900 X213.379 Y189.924 E67.98973
G0 F2625 X213.379 Y191.59
G1 F900 X211.279 Y191.59 E68.05968
G0 F2625 X211.279 Y193.256
G1 F900 X213.379 Y193.256 E68.12964
G0 F2625 X213.379 Y194.922
G1 F900 X211.279 Y194.922 E68.19959
G0 F2625 X211.279 Y196.588
G1 F900 X213.379 Y196.588 E68.26954
G0 F2625 X213.379 Y198.254
G1 F900 X211.279 Y198.254 E68.33949
G0 F2625 X211.279 Y199.92
G1 F900 X213.379 Y199.92 E68.40944
G1 F600 E67.40944
G0 F2625 X209.992 Y200.814
G0 X209.915 Y200.835
G0 X205.741 Y201.938
G0 X205.664 Y201.959
G0 X146.082 Y217.709
G1 F600 E68.40944
