;Generated by Cura LulzBot Edition GCodeWriter Version: 2.6.69
;FLAVOR:RepRap
;TIME:18492
;Filament used: 4.91768m
;Layer height: 0.14
;Generated with Cura_SteamEngine 2.6.69
;This G-Code has been generated specifically for the LulzBot TAZ 5 with standard extruder
M140 S60    ; start bed heating up
G21                      ; set units to Millimetres
G90                      ; absolute positioning
M107                     ; disable fans
M82                      ; set extruder to absolute mode
G28 X0 Y0                ; home X and Y
G28 Z0                   ; home Z
G1 Z15.0 F{travel_speed} ; move extruder up
M117 Heating...                     ; progress indicator message on LCD
M109 R205  ; wait for extruder to reach printing temp
M190 S60    ; wait for bed to reach printing temp
G92 E0                   ; set extruder position to 0
G1 F200 E0               ; prime the nozzle with filament
G92 E0                   ; re-set extruder position to 0
G1 F{travel_speed}       ; set travel speed
M203 X192 Y208 Z3        ; set limits on travel speed
M117 TAZ 5 Printing...   ; progress indicator message on LCD

M221 S100
;LAYER_COUNT:249
;LAYER:0
M107
G0 F2625 X73.638 Y88.859 Z0.424
;TYPE:SKIRT
G1 F900 X74.075 Y88.598 E0.01696
G1 X74.548 Y88.408 E0.03393
G1 X75.045 Y88.294 E0.05092
G1 X75.52 Y88.259 E0.06679
G1 X214.481 Y88.26 E4.69563
G1 X214.989 Y88.3 E4.7126
G1 X215.484 Y88.419 E4.72956
G1 X215.955 Y88.614 E4.74654
G1 X216.39 Y88.88 E4.76352
G1 X216.777 Y89.21 E4.78047
G1 X217.109 Y89.597 E4.79745
G1 X217.375 Y90.032 E4.81443
G1 X217.571 Y90.502 E4.8314
G1 X217.69 Y90.997 E4.84836
G1 X217.731 Y91.503 E4.86527
G1 X217.74 Y95.687 E5.00464
G1 X217.897 Y101.23 E5.18935
G1 X218.359 Y106.672 E5.37128
G1 X219.131 Y112.09 E5.55358
G1 X219.872 Y115.955 E5.68466
G1 X219.93 Y116.567 E5.70514
G1 X219.93 Y183.428 E7.93231
G1 X219.89 Y183.936 E7.94928
G1 X219.771 Y184.431 E7.96624
G1 X219.576 Y184.902 E7.98322
G1 X219.31 Y185.337 E8.0002
G1 X219 Y185.704 E8.01621
G1 X218.747 Y185.962 E8.02824
G1 X218.363 Y186.296 E8.0452
G1 X217.932 Y186.567 E8.06215
G1 X217.631 Y186.705 E8.07318
G1 X211.596 Y189.113 E8.28962
G1 X211.11 Y189.264 E8.30658
G1 X210.393 Y189.344 E8.33061
G1 X206.566 Y189.345 E8.45809
G1 X205.918 Y189.28 E8.47978
G1 X202.48 Y188.582 E8.59664
G1 X197.045 Y187.73 E8.77989
G1 X191.594 Y187.191 E8.96235
G1 X188.872 Y187.036 E9.05317
G1 X184.77 Y186.95 E9.18984
G1 X102.465 Y186.99 E11.93145
G1 X96.989 Y187.3 E12.11415
G1 X91.566 Y187.916 E12.29595
G1 X83.722 Y189.303 E12.56129
G1 X83.149 Y189.353 E12.58045
G1 X79.581 Y189.345 E12.6993
G1 X79.073 Y189.304 E12.71628
G1 X78.373 Y189.109 E12.74048
G1 X72.853 Y186.883 E12.93874
G1 X72.854 Y186.881 E12.93882
G1 X72.722 Y186.83 E12.94353
G1 X72.146 Y186.568 E12.96461
G1 X71.701 Y186.322 E12.98155
G1 X71.161 Y185.875 E13.0049
G1 X70.989 Y185.698 E13.01312
G1 X70.664 Y185.306 E13.03008
G1 X70.404 Y184.868 E13.04705
G1 X70.215 Y184.394 E13.06405
G1 X70.103 Y183.897 E13.08102
G1 X70.07 Y183.433 E13.09651
G1 X70.071 Y116.564 E15.32394
G1 X70.133 Y115.931 E15.34513
G1 X70.627 Y113.447 E15.42949
G1 X71.479 Y108.011 E15.61278
G1 X72.019 Y102.556 E15.79537
G1 X72.172 Y99.866 E15.88512
G1 X72.27 Y91.471 E16.16478
G1 X72.316 Y90.964 E16.18174
G1 X72.441 Y90.47 E16.19871
G1 X72.641 Y90.001 E16.2157
G1 X72.912 Y89.57 E16.23266
G1 X73.247 Y89.186 E16.24963
G1 X73.638 Y88.859 E16.26661
G0 F2625 X73.677 Y116.55
;TYPE:SUPPORT
G1 F900 X73.76 Y116.55 E16.26938
G1 X73.76 Y183.45 E18.49784
G1 X73.677 Y183.45 E18.5006
G1 X73.56 Y183.333 E18.50611
G1 X73.56 Y116.667 E20.72678
G1 X73.677 Y116.55 E20.7323
G1 F600 E19.2323
G0 F2625 X74.849 Y183.628
G0 X75.382 Y184.161
G0 X85.118 Y184.161
G0 X85.651 Y183.628
G0 X86.74 Y120.55
G1 F600 E20.7323
G1 F900 X126.541 Y120.55 E22.05808
G1 X127.04 Y120.051 E22.08159
G1 X127.04 Y98.25 E22.80779
G1 X131.94 Y98.25 E22.97101
G1 X131.94 Y120.051 E23.69721
G1 X132.439 Y120.55 E23.72071
G1 X157.541 Y120.55 E24.55687
G1 X158.04 Y120.051 E24.58038
G1 X158.04 Y98.25 E25.30658
G1 X162.94 Y98.25 E25.4698
G1 X162.94 Y120.051 E26.196
G1 X163.439 Y120.55 E26.2195
G1 X203.24 Y120.55 E27.54529
G1 X203.24 Y125.45 E27.70851
G1 X163.439 Y125.45 E29.0343
G1 X162.94 Y125.949 E29.0578
G1 X162.94 Y149.051 E29.82734
G1 X163.439 Y149.55 E29.85084
G1 X203.24 Y149.55 E31.17663
G1 X203.24 Y154.45 E31.33985
G1 X163.439 Y154.45 E32.66564
G1 X162.94 Y154.949 E32.68914
G1 X162.94 Y178.051 E33.45868
G1 X163.439 Y178.55 E33.48219
G1 X203.24 Y178.55 E34.80797
G1 X203.24 Y183.45 E34.97119
G1 X86.74 Y183.45 E38.85185
G1 X86.74 Y178.55 E39.01507
G1 X126.541 Y178.55 E40.34086
G1 X127.04 Y178.051 E40.36436
G1 X127.04 Y154.949 E41.1339
G1 X126.541 Y154.45 E41.15741
G1 X86.74 Y154.45 E42.48319
G1 X86.74 Y149.55 E42.64641
G1 X126.541 Y149.55 E43.9722
G1 X127.04 Y149.051 E43.99571
G1 X127.04 Y125.949 E44.76524
G1 X126.541 Y125.45 E44.78875
G1 X86.74 Y125.45 E46.11453
G1 X86.74 Y120.55 E46.27775
G0 F2625 X131.94 Y125.949
G1 F900 X131.94 Y149.051 E47.04729
G1 X132.439 Y149.55 E47.0708
G1 X157.541 Y149.55 E47.90695
G1 X158.04 Y149.051 E47.93046
G1 X158.04 Y125.949 E48.7
G1 X157.541 Y125.45 E48.7235
G1 X132.439 Y125.45 E49.55966
G1 X131.94 Y125.949 E49.58317
G0 F2625 X132.439 Y154.45
G1 F900 X131.94 Y154.949 E49.60667
G1 X131.94 Y178.051 E50.37621
G1 X132.439 Y178.55 E50.39972
G1 X157.541 Y178.55 E51.23587
G1 X158.04 Y178.051 E51.25938
G1 X158.04 Y154.949 E52.02892
G1 X157.541 Y154.45 E52.05242
G1 X132.439 Y154.45 E52.88858
G0 F2625 X131.74 Y154.938
G1 F900 X127.239 Y154.938 E53.03851
G0 F2625 X126.616 Y154.25
G1 F900 X126.616 Y149.75 E53.18841
G0 F2625 X127.239 Y148.274
G1 F900 X131.74 Y148.274 E53.33834
G0 F2625 X131.74 Y146.608
G1 F900 X127.239 Y146.608 E53.48827
G0 F2625 X127.239 Y144.942
G1 F900 X131.74 Y144.942 E53.6382
G0 F2625 X131.74 Y143.276
G1 F900 X127.239 Y143.276 E53.78813
G0 F2625 X127.239 Y141.61
G1 F900 X131.74 Y141.61 E53.93806
G0 F2625 X131.74 Y139.944
G1 F900 X127.239 Y139.944 E54.08799
G0 F2625 X127.239 Y138.278
G1 F900 X131.74 Y138.278 E54.23792
G0 F2625 X131.74 Y136.612
G1 F900 X127.239 Y136.612 E54.38785
G0 F2625 X127.239 Y134.946
G1 F900 X131.74 Y134.946 E54.53778
G0 F2625 X131.74 Y133.28
G1 F900 X127.239 Y133.28 E54.68771
G0 F2625 X127.239 Y131.614
G1 F900 X131.74 Y131.614 E54.83764
G0 F2625 X131.74 Y129.948
G1 F900 X127.239 Y129.948 E54.98757
G0 F2625 X127.239 Y128.282
G1 F900 X131.74 Y128.282 E55.1375
G0 F2625 X131.74 Y126.616
G1 F900 X127.239 Y126.616 E55.28743
G0 F2625 X126.616 Y125.25
G1 F900 X126.616 Y120.75 E55.43732
G0 F2625 X127.239 Y119.952
G1 F900 X131.74 Y119.952 E55.58725
G0 F2625 X131.74 Y118.286
G1 F900 X127.24 Y118.286 E55.73715
G0 F2625 X127.24 Y116.62
G1 F900 X131.74 Y116.62 E55.88705
G0 F2625 X131.74 Y114.954
G1 F900 X127.24 Y114.954 E56.03694
G0 F2625 X127.24 Y113.288
G1 F900 X131.74 Y113.288 E56.18684
G0 F2625 X131.74 Y111.622
G1 F900 X127.24 Y111.622 E56.33674
G0 F2625 X127.24 Y109.956
G1 F900 X131.74 Y109.956 E56.48663
G0 F2625 X131.74 Y108.29
G1 F900 X127.24 Y108.29 E56.63653
G0 F2625 X127.24 Y106.624
G1 F900 X131.74 Y106.624 E56.78643
G0 F2625 X131.74 Y104.958
G1 F900 X127.24 Y104.958 E56.93632
G0 F2625 X127.24 Y103.292
G1 F900 X131.74 Y103.292 E57.08622
G0 F2625 X131.74 Y101.626
G1 F900 X127.24 Y101.626 E57.23611
G0 F2625 X127.24 Y99.96
G1 F900 X131.74 Y99.96 E57.38601
G0 F2625 X131.614 Y98.45
G1 F900 X131.614 Y183.25 E60.21073
G0 F2625 X133.28 Y183.25
G1 F900 X133.28 Y178.75 E60.36063
G0 F2625 X131.868 Y178.262
G1 F900 X127.111 Y178.262 E60.51908
G0 F2625 X126.616 Y178.75
G1 F900 X126.616 Y183.25 E60.66898
G0 F2625 X124.95 Y183.25
G1 F900 X124.95 Y178.75 E60.81888
G0 F2625 X123.284 Y178.75
G1 F900 X123.284 Y183.25 E60.96877
G0 F2625 X121.618 Y183.25
G1 F900 X121.618 Y178.75 E61.11867
G0 F2625 X119.952 Y178.75
G1 F900 X119.952 Y183.25 E61.26857
G0 F2625 X118.286 Y183.25
G1 F900 X118.286 Y178.75 E61.41846
G0 F2625 X116.62 Y178.75
G1 F900 X116.62 Y183.25 E61.56836
G0 F2625 X114.954 Y183.25
G1 F900 X114.954 Y178.75 E61.71826
G0 F2625 X113.288 Y178.75
G1 F900 X113.288 Y183.25 E61.86815
G0 F2625 X111.622 Y183.25
G1 F900 X111.622 Y178.75 E62.01805
G0 F2625 X109.956 Y178.75
G1 F900 X109.956 Y183.25 E62.16795
G0 F2625 X108.29 Y183.25
G1 F900 X108.29 Y178.75 E62.31784
G0 F2625 X106.624 Y178.75
G1 F900 X106.624 Y183.25 E62.46774
G0 F2625 X104.958 Y183.25
G1 F900 X104.958 Y178.75 E62.61764
G0 F2625 X103.292 Y178.75
G1 F900 X103.292 Y183.25 E62.76753
G0 F2625 X101.626 Y183.25
G1 F900 X101.626 Y178.75 E62.91743
G0 F2625 X99.96 Y178.75
G1 F900 X99.96 Y183.25 E63.06733
G0 F2625 X98.294 Y183.25
G1 F900 X98.294 Y178.75 E63.21722
G0 F2625 X96.628 Y178.75
G1 F900 X96.628 Y183.25 E63.36712
G0 F2625 X94.962 Y183.25
G1 F900 X94.962 Y178.75 E63.51702
G0 F2625 X93.296 Y178.75
G1 F900 X93.296 Y183.25 E63.66691
G0 F2625 X91.63 Y183.25
G1 F900 X91.63 Y178.75 E63.81681
G0 F2625 X89.964 Y178.75
G1 F900 X89.964 Y183.25 E63.96671
G0 F2625 X88.298 Y183.25
G1 F900 X88.298 Y178.75 E64.1166
G0 F2625 X86.939 Y179.928
G1 F900 X203.04 Y179.928 E67.98397
G0 F2625 X203.04 Y181.594
G1 F900 X86.939 Y181.594 E71.85134
G0 F2625 X88.298 Y154.25
G1 F900 X88.298 Y149.75 E72.00123
G0 F2625 X86.939 Y149.94
G1 F900 X203.04 Y149.94 E75.8686
G0 F2625 X201.586 Y149.75
G1 F900 X201.586 Y154.25 E76.01849
G0 F2625 X199.92 Y154.25
G1 F900 X199.92 Y149.75 E76.16839
G0 F2625 X198.254 Y149.75
G1 F900 X198.254 Y154.25 E76.31829
G0 F2625 X196.588 Y154.25
G1 F900 X196.588 Y149.75 E76.46818
G0 F2625 X194.922 Y149.75
G1 F900 X194.922 Y154.25 E76.61808
G0 F2625 X193.256 Y154.25
G1 F900 X193.256 Y149.75 E76.76798
G0 F2625 X191.59 Y149.75
G1 F900 X191.59 Y154.25 E76.91787
G0 F2625 X189.924 Y154.25
G1 F900 X189.924 Y149.75 E77.06777
G0 F2625 X188.258 Y149.75
G1 F900 X188.258 Y154.25 E77.21767
G0 F2625 X186.592 Y154.25
G1 F900 X186.592 Y149.75 E77.36756
G0 F2625 X184.926 Y149.75
G1 F900 X184.926 Y154.25 E77.51746
G0 F2625 X183.26 Y154.25
G1 F900 X183.26 Y149.75 E77.66736
G0 F2625 X181.594 Y149.75
G1 F900 X181.594 Y154.25 E77.81725
G0 F2625 X179.928 Y154.25
G1 F900 X179.928 Y149.75 E77.96715
G0 F2625 X178.262 Y149.75
G1 F900 X178.262 Y154.25 E78.11705
G0 F2625 X176.596 Y154.25
G1 F900 X176.596 Y149.75 E78.26694
G0 F2625 X174.93 Y149.75
G1 F900 X174.93 Y154.25 E78.41684
G0 F2625 X173.264 Y154.25
G1 F900 X173.264 Y149.75 E78.56674
G0 F2625 X171.598 Y149.75
G1 F900 X171.598 Y154.25 E78.71663
G0 F2625 X169.932 Y154.25
G1 F900 X169.932 Y149.75 E78.86653
G0 F2625 X168.266 Y149.75
G1 F900 X168.266 Y154.25 E79.01643
G0 F2625 X166.6 Y154.25
G1 F900 X166.6 Y149.75 E79.16632
G0 F2625 X164.934 Y149.75
G1 F900 X164.934 Y154.25 E79.31622
G0 F2625 X163.268 Y154.338
G1 F900 X163.268 Y149.662 E79.47198
G0 F2625 X162.74 Y148.274
G1 F900 X158.24 Y148.274 E79.62188
G0 F2625 X158.24 Y146.608
G1 F900 X162.74 Y146.608 E79.77177
G0 F2625 X162.74 Y144.942
G1 F900 X158.24 Y144.942 E79.92167
G0 F2625 X158.24 Y143.276
G1 F900 X162.74 Y143.276 E80.07157
G0 F2625 X162.74 Y141.61
G1 F900 X158.24 Y141.61 E80.22146
G0 F2625 X158.24 Y139.944
G1 F900 X162.74 Y139.944 E80.37136
G0 F2625 X162.74 Y138.278
G1 F900 X158.24 Y138.278 E80.52126
G0 F2625 X158.24 Y136.612
G1 F900 X162.74 Y136.612 E80.67115
G0 F2625 X162.74 Y134.946
G1 F900 X158.24 Y134.946 E80.82105
G0 F2625 X158.24 Y133.28
G1 F900 X162.74 Y133.28 E80.97095
G0 F2625 X162.74 Y131.614
G1 F900 X158.24 Y131.614 E81.12084
G0 F2625 X158.24 Y129.948
G1 F900 X162.74 Y129.948 E81.27074
G0 F2625 X162.74 Y128.282
G1 F900 X158.24 Y128.282 E81.42064
G0 F2625 X158.24 Y126.616
G1 F900 X162.74 Y126.616 E81.57053
G0 F2625 X163.268 Y125.338
G1 F900 X163.268 Y120.662 E81.72629
G0 F2625 X162.74 Y119.952
G1 F900 X158.24 Y119.952 E81.87619
G0 F2625 X158.24 Y118.286
G1 F900 X162.74 Y118.286 E82.02608
G0 F2625 X162.74 Y116.62
G1 F900 X158.24 Y116.62 E82.17598
G0 F2625 X158.24 Y114.954
G1 F900 X162.74 Y114.954 E82.32588
G0 F2625 X162.74 Y113.288
G1 F900 X158.24 Y113.288 E82.47577
G0 F2625 X158.24 Y111.622
G1 F900 X162.74 Y111.622 E82.62567
G0 F2625 X162.74 Y109.956
G1 F900 X158.24 Y109.956 E82.77557
G0 F2625 X158.24 Y108.29
G1 F900 X162.74 Y108.29 E82.92546
G0 F2625 X162.74 Y106.624
G1 F900 X158.24 Y106.624 E83.07536
G0 F2625 X158.24 Y104.958
G1 F900 X162.74 Y104.958 E83.22526
G0 F2625 X162.74 Y103.292
G1 F900 X158.24 Y103.292 E83.37515
G0 F2625 X158.24 Y101.626
G1 F900 X162.74 Y101.626 E83.52505
G0 F2625 X162.74 Y99.96
G1 F900 X158.24 Y99.96 E83.67495
G0 F2625 X158.27 Y98.45
G1 F900 X158.27 Y183.25 E86.49967
G0 F2625 X156.604 Y183.25
G1 F900 X156.604 Y178.75 E86.64956
G0 F2625 X158.112 Y178.262
G1 F900 X162.868 Y178.262 E86.80799
G0 F2625 X163.268 Y178.662
G1 F900 X163.268 Y183.25 E86.96081
G0 F2625 X164.934 Y183.25
G1 F900 X164.934 Y178.75 E87.11071
G0 F2625 X166.6 Y178.75
G1 F900 X166.6 Y183.25 E87.26061
G0 F2625 X168.266 Y183.25
G1 F900 X168.266 Y178.75 E87.4105
G0 F2625 X169.932 Y178.75
G1 F900 X169.932 Y183.25 E87.5604
G0 F2625 X171.598 Y183.25
G1 F900 X171.598 Y178.75 E87.7103
G0 F2625 X173.264 Y178.75
G1 F900 X173.264 Y183.25 E87.86019
G0 F2625 X174.93 Y183.25
G1 F900 X174.93 Y178.75 E88.01009
G0 F2625 X176.596 Y178.75
G1 F900 X176.596 Y183.25 E88.15999
G0 F2625 X178.262 Y183.25
G1 F900 X178.262 Y178.75 E88.30988
G0 F2625 X179.928 Y178.75
G1 F900 X179.928 Y183.25 E88.45978
G0 F2625 X181.594 Y183.25
G1 F900 X181.594 Y178.75 E88.60968
G0 F2625 X183.26 Y178.75
G1 F900 X183.26 Y183.25 E88.75957
G0 F2625 X184.926 Y183.25
G1 F900 X184.926 Y178.75 E88.90947
G0 F2625 X186.592 Y178.75
G1 F900 X186.592 Y183.25 E89.05937
G0 F2625 X188.258 Y183.25
G1 F900 X188.258 Y178.75 E89.20926
G0 F2625 X189.924 Y178.75
G1 F900 X189.924 Y183.25 E89.35916
G0 F2625 X191.59 Y183.25
G1 F900 X191.59 Y178.75 E89.50906
G0 F2625 X193.256 Y178.75
G1 F900 X193.256 Y183.25 E89.65895
G0 F2625 X194.922 Y183.25
G1 F900 X194.922 Y178.75 E89.80885
G0 F2625 X196.588 Y178.75
G1 F900 X196.588 Y183.25 E89.95875
G0 F2625 X198.254 Y183.25
G1 F900 X198.254 Y178.75 E90.10864
G0 F2625 X199.92 Y178.75
G1 F900 X199.92 Y183.25 E90.25854
G0 F2625 X201.586 Y183.25
G1 F900 X201.586 Y178.75 E90.40844
G0 F2625 X203.04 Y153.272
G1 F900 X86.939 Y153.272 E94.2758
G0 F2625 X86.939 Y151.606
G1 F900 X203.04 Y151.606 E98.14317
G0 F2625 X201.586 Y125.25
G1 F900 X201.586 Y120.75 E98.29307
G0 F2625 X199.92 Y120.75
G1 F900 X199.92 Y125.25 E98.44296
G0 F2625 X198.254 Y125.25
G1 F900 X198.254 Y120.75 E98.59286
G0 F2625 X196.588 Y120.75
G1 F900 X196.588 Y125.25 E98.74276
G0 F2625 X194.922 Y125.25
G1 F900 X194.922 Y120.75 E98.89265
G0 F2625 X193.256 Y120.75
G1 F900 X193.256 Y125.25 E99.04255
G0 F2625 X191.59 Y125.25
G1 F900 X191.59 Y120.75 E99.19245
G0 F2625 X189.924 Y120.75
G1 F900 X189.924 Y125.25 E99.34234
G0 F2625 X188.258 Y125.25
G1 F900 X188.258 Y120.75 E99.49224
G0 F2625 X186.592 Y120.75
G1 F900 X186.592 Y125.25 E99.64214
G0 F2625 X184.926 Y125.25
G1 F900 X184.926 Y120.75 E99.79203
G0 F2625 X183.26 Y120.75
G1 F900 X183.26 Y125.25 E99.94193
G0 F2625 X181.594 Y125.25
G1 F900 X181.594 Y120.75 E100.09183
G0 F2625 X179.928 Y120.75
G1 F900 X179.928 Y125.25 E100.24172
G0 F2625 X178.262 Y125.25
G1 F900 X178.262 Y120.75 E100.39162
G0 F2625 X176.596 Y120.75
G1 F900 X176.596 Y125.25 E100.54152
G0 F2625 X174.93 Y125.25
G1 F900 X174.93 Y120.75 E100.69141
G0 F2625 X173.264 Y120.75
G1 F900 X173.264 Y125.25 E100.84131
G0 F2625 X171.598 Y125.25
G1 F900 X171.598 Y120.75 E100.99121
G0 F2625 X169.932 Y120.75
G1 F900 X169.932 Y125.25 E101.1411
G0 F2625 X168.266 Y125.25
G1 F900 X168.266 Y120.75 E101.291
G0 F2625 X166.6 Y120.75
G1 F900 X166.6 Y125.25 E101.4409
G0 F2625 X164.934 Y125.25
G1 F900 X164.934 Y120.75 E101.59079
G0 F2625 X156.604 Y120.75
G1 F900 X156.604 Y125.25 E101.74069
G0 F2625 X154.938 Y125.25
G1 F900 X154.938 Y120.75 E101.89059
G0 F2625 X153.272 Y120.75
G1 F900 X153.272 Y125.25 E102.04048
G0 F2625 X151.606 Y125.25
G1 F900 X151.606 Y120.75 E102.19038
G0 F2625 X149.94 Y120.75
G1 F900 X149.94 Y125.25 E102.34028
G0 F2625 X148.274 Y125.25
G1 F900 X148.274 Y120.75 E102.49017
G0 F2625 X146.608 Y120.75
G1 F900 X146.608 Y125.25 E102.64007
G0 F2625 X144.942 Y125.25
G1 F900 X144.942 Y120.75 E102.78996
G0 F2625 X143.276 Y120.75
G1 F900 X143.276 Y125.25 E102.93986
G0 F2625 X141.61 Y125.25
