;Generated by Cura LulzBot Edition GCodeWriter Version: 2.6.69
;FLAVOR:RepRap
;TIME:2148
;Filament used: 0.441161m
;Layer height: 0.14
;Generated with Cura_SteamEngine 2.6.69
;This G-Code has been generated specifically for the LulzBot TAZ 5 with standard extruder
M140 S60    ; start bed heating up
G21                      ; set units to Millimetres
G90                      ; absolute positioning
M107                     ; disable fans
M82                      ; set extruder to absolute mode
G28 X0 Y0                ; home X and Y
G28 Z0                   ; home Z
G1 Z15.0 F{travel_speed} ; move extruder up
M117 Heating...                     ; progress indicator message on LCD
M109 R205  ; wait for extruder to reach printing temp
M190 S60    ; wait for bed to reach printing temp
G92 E0                   ; set extruder position to 0
G1 F200 E0               ; prime the nozzle with filament
G92 E0                   ; re-set extruder position to 0
G1 F{travel_speed}       ; set travel speed
M203 X192 Y208 Z3        ; set limits on travel speed
M117 TAZ 5 Printing...   ; progress indicator message on LCD

M221 S100
;LAYER_COUNT:127
;LAYER:0
M107
G0 F2625 X132.217 Y115.005 Z0.424
;TYPE:SKIRT
G1 F900 X132.611 Y114.625 E0.01823
G1 X133.056 Y114.306 E0.03647
G1 X133.619 Y114.024 E0.05745
G1 X137.008 Y112.671 E0.179
G1 X141.452 Y110.744 E0.34035
G1 X141.969 Y110.564 E0.35858
G1 X142.507 Y110.461 E0.37683
G1 X142.948 Y110.435 E0.39155
G1 X147.151 Y110.44 E0.53155
G1 X147.697 Y110.481 E0.54979
G1 X148.231 Y110.6 E0.56801
G1 X148.65 Y110.754 E0.58288
G1 X154.103 Y113.14 E0.78115
G1 X154.104 Y113.14 E0.78118
G1 X156.34 Y114.008 E0.86108
G1 X156.835 Y114.243 E0.87933
G1 X157.289 Y114.547 E0.89753
G1 X157.695 Y114.914 E0.91576
G1 X158.043 Y115.337 E0.93401
G1 X158.326 Y115.806 E0.95226
G1 X158.538 Y116.31 E0.97047
G1 X158.674 Y116.841 E0.98873
G1 X158.733 Y117.503 E1.01087
G1 X158.741 Y157.49 E2.34285
G1 X158.701 Y158.036 E2.36108
G1 X158.582 Y158.57 E2.37931
G1 X158.387 Y159.082 E2.39756
G1 X158.119 Y159.559 E2.41578
G1 X157.785 Y159.992 E2.434
G1 X157.391 Y160.373 E2.45226
G1 X156.946 Y160.691 E2.47048
G1 X156.459 Y160.942 E2.48873
G1 X155.941 Y161.119 E2.50696
G1 X155.403 Y161.218 E2.52518
G1 X154.991 Y161.241 E2.53893
G1 X135.009 Y161.241 E3.20453
G1 X134.463 Y161.201 E3.22277
G1 X133.929 Y161.082 E3.24099
G1 X133.418 Y160.887 E3.25921
G1 X132.94 Y160.619 E3.27747
G1 X132.507 Y160.284 E3.2957
G1 X132.127 Y159.89 E3.31394
G1 X131.808 Y159.445 E3.33218
G1 X131.558 Y158.958 E3.35041
G1 X131.381 Y158.44 E3.36864
G1 X131.282 Y157.902 E3.38687
G1 X131.259 Y157.491 E3.40058
G1 X131.26 Y117.507 E4.73246
G1 X131.3 Y116.961 E4.7507
G1 X131.419 Y116.427 E4.76892
G1 X131.614 Y115.915 E4.78717
G1 X131.882 Y115.438 E4.8054
G1 X132.217 Y115.005 E4.82363
G0 F2625 X132.71 Y115.211
G1 F900 X133.097 Y114.879 E4.84062
G1 X133.532 Y114.613 E4.8576
G1 X133.805 Y114.489 E4.86759
G1 X137.183 Y113.14 E4.98875
G1 X141.651 Y111.203 E5.15097
G1 X142.133 Y111.038 E5.16794
G1 X142.635 Y110.95 E5.18491
G1 X142.948 Y110.935 E5.19535
G1 X147.151 Y110.94 E5.33536
G1 X147.659 Y110.981 E5.35233
G1 X148.154 Y111.1 E5.36929
G1 X148.45 Y111.212 E5.37983
G1 X153.92 Y113.605 E5.57871
G1 X153.923 Y113.606 E5.57882
G1 X156.159 Y114.474 E5.65872
G1 X156.618 Y114.695 E5.67569
G1 X157.037 Y114.985 E5.69266
G1 X157.405 Y115.337 E5.70962
G1 X157.714 Y115.743 E5.72662
G1 X157.956 Y116.191 E5.74358
G1 X158.125 Y116.672 E5.76056
G1 X158.216 Y117.173 E5.77752
G1 X158.233 Y117.503 E5.78853
G1 X158.241 Y157.49 E7.12051
G1 X158.201 Y157.998 E7.13749
G1 X158.082 Y158.494 E7.15448
G1 X157.888 Y158.965 E7.17144
G1 X157.622 Y159.399 E7.1884
G1 X157.291 Y159.787 E7.20539
G1 X156.904 Y160.118 E7.22235
G1 X156.47 Y160.385 E7.23933
G1 X156 Y160.581 E7.25629
G1 X155.504 Y160.7 E7.27328
G1 X154.991 Y160.741 E7.29042
G1 X135.009 Y160.741 E7.95603
G1 X134.501 Y160.701 E7.973
G1 X134.006 Y160.582 E7.98996
G1 X133.535 Y160.387 E8.00694
G1 X133.1 Y160.121 E8.02393
G1 X132.713 Y159.791 E8.04087
G1 X132.381 Y159.404 E8.05785
G1 X132.115 Y158.969 E8.07484
G1 X131.919 Y158.499 E8.0918
G1 X131.8 Y158.004 E8.10876
G1 X131.759 Y157.491 E8.1259
G1 X131.76 Y117.507 E9.45778
G1 X131.8 Y116.999 E9.47476
G1 X131.919 Y116.504 E9.49171
G1 X132.114 Y116.033 E9.5087
G1 X132.38 Y115.598 E9.52568
G1 X132.71 Y115.211 E9.54262
G0 F2625 X142.433 Y115.75
;TYPE:SUPPORT
G1 F900 X142.973 Y114.43 E9.59013
G1 X146.985 Y114.43 E9.72377
G1 X147.542 Y115.75 E9.77149
G1 X142.433 Y115.75 E9.94168
G0 F2625 X143.276 Y115.55
G1 F900 X143.276 Y114.63 E9.97232
G0 F2625 X142.975 Y114.954
G1 F900 X146.989 Y114.954 E10.10603
G0 F2625 X146.608 Y114.63
G1 F900 X146.608 Y115.55 E10.13667
G0 F2625 X144.942 Y115.55
G1 F900 X144.942 Y114.63 E10.16732
G1 F600 E8.66732
G0 F2625 X144.942 Y116.835
G0 X144.942 Y118.27
G0 X135.82 Y118.32
G0 X135.75 Y118.25
;TYPE:WALL-INNER
G1 F600 E10.16732
G1 F900 X154.25 Y118.25 E10.78356
G1 X154.25 Y156.75 E12.06601
G1 X135.75 Y156.75 E12.68225
G1 X135.75 Y118.25 E13.9647
G0 F2625 X135.82 Y118.32
G0 X138.79 Y130.199
G0 X138.819 Y130.294
G1 F900 X138.29 Y130.506 E13.98368
G1 X137.806 Y130.805 E14.00264
G1 X137.38 Y131.18 E14.02154
G1 X137.022 Y131.623 E14.04051
G1 X136.745 Y132.119 E14.05944
G1 X136.555 Y132.656 E14.07841
G1 X136.459 Y133.216 E14.09734
G1 X136.459 Y133.784 E14.11626
G1 X136.555 Y134.344 E14.13518
G1 X136.745 Y134.881 E14.15416
G1 X137.022 Y135.377 E14.17308
G1 X137.38 Y135.82 E14.19205
G1 X137.806 Y136.195 E14.21096
G1 X138.29 Y136.494 E14.22991
G1 X138.819 Y136.706 E14.24889
G1 X139.374 Y136.826 E14.26781
G1 X139.942 Y136.85 E14.28674
G1 X140.507 Y136.777 E14.30572
G1 X141.05 Y136.612 E14.32463
G1 X141.558 Y136.355 E14.34359
G1 X142.016 Y136.016 E14.36257
G1 X142.409 Y135.606 E14.38149
G1 X142.727 Y135.135 E14.40042
G1 X142.961 Y134.617 E14.41935
G1 X143.105 Y134.067 E14.43829
G1 X143.153 Y133.5 E14.45724
G1 X143.105 Y132.933 E14.4762
G1 X142.961 Y132.383 E14.49514
G1 X142.727 Y131.865 E14.51407
G1 X142.409 Y131.394 E14.533
G1 X142.016 Y130.984 E14.55192
G1 X141.558 Y130.645 E14.5709
G1 X141.05 Y130.388 E14.58986
G1 X140.507 Y130.223 E14.60877
G1 X139.942 Y130.15 E14.62775
G1 X139.374 Y130.174 E14.64668
G1 X138.819 Y130.294 E14.6656
G0 F2625 X138.79 Y130.199
G0 X137.783 Y130.773
G0 X137.352 Y131.153
G0 X136.989 Y131.601
G0 X136.709 Y132.103
G0 X136.517 Y132.646
G0 X136.42 Y133.213
G0 X136.42 Y133.787
G0 X136.517 Y134.354
G0 X139.654 Y145.751
G0 X139.658 Y145.85
G1 F900 X139.093 Y145.923 E14.68457
G1 X138.55 Y146.088 E14.70348
G1 X138.042 Y146.345 E14.72244
G1 X137.584 Y146.684 E14.74142
G1 X137.191 Y147.094 E14.76034
G1 X136.873 Y147.565 E14.77927
G1 X136.639 Y148.083 E14.7982
G1 X136.495 Y148.633 E14.81714
G1 X136.447 Y149.2 E14.8361
G1 X136.495 Y149.767 E14.85505
G1 X136.639 Y150.317 E14.87399
G1 X136.873 Y150.835 E14.89292
G1 X137.191 Y151.306 E14.91185
G1 X137.584 Y151.716 E14.93077
G1 X138.042 Y152.055 E14.94975
G1 X138.55 Y152.312 E14.96872
G1 X139.093 Y152.477 E14.98762
G1 X139.658 Y152.55 E15.0066
G1 X140.226 Y152.526 E15.02553
G1 X140.781 Y152.406 E15.04445
G1 X141.31 Y152.194 E15.06343
G1 X141.794 Y151.895 E15.08238
G1 X142.22 Y151.52 E15.10129
G1 X142.578 Y151.077 E15.12026
G1 X142.855 Y150.581 E15.13918
G1 X143.045 Y150.044 E15.15816
G1 X143.141 Y149.484 E15.17708
G1 X143.141 Y148.916 E15.196
G1 X143.045 Y148.356 E15.21493
G1 X142.855 Y147.819 E15.2339
G1 X142.578 Y147.323 E15.25283
G1 X142.22 Y146.88 E15.2718
G1 X141.794 Y146.505 E15.29071
G1 X141.31 Y146.206 E15.30966
G1 X140.781 Y145.994 E15.32864
G1 X140.226 Y145.874 E15.34755
G1 X139.658 Y145.85 E15.36649
G0 F2625 X139.679 Y146.351
;TYPE:WALL-OUTER
G1 F900 X139.199 Y146.413 E15.38261
G1 X138.737 Y146.554 E15.3987
G1 X138.305 Y146.772 E15.41482
G1 X137.916 Y147.06 E15.43095
G1 X137.582 Y147.409 E15.44704
G1 X137.311 Y147.81 E15.46316
G1 X137.112 Y148.25 E15.47924
G1 X136.99 Y148.718 E15.49535
G1 X136.949 Y149.2 E15.51147
G1 X136.99 Y149.682 E15.52758
G1 X137.112 Y150.15 E15.54369
G1 X137.311 Y150.59 E15.55978
G1 X137.582 Y150.991 E15.5759
G1 X137.916 Y151.34 E15.59199
G1 X138.305 Y151.628 E15.60811
G1 X138.737 Y151.846 E15.62423
G1 X139.199 Y151.987 E15.64032
G1 X139.679 Y152.049 E15.65644
G1 X140.162 Y152.028 E15.67255
G1 X140.634 Y151.926 E15.68863
G1 X141.084 Y151.746 E15.70478
G1 X141.495 Y151.492 E15.72087
G1 X141.858 Y151.173 E15.73697
G1 X142.162 Y150.796 E15.7531
G1 X142.398 Y150.374 E15.76921
G1 X142.559 Y149.918 E15.78531
G1 X142.641 Y149.441 E15.80144
G1 X142.641 Y148.959 E15.81749
G1 X142.559 Y148.482 E15.83361
G1 X142.398 Y148.026 E15.84972
G1 X142.162 Y147.604 E15.86583
G1 X141.858 Y147.227 E15.88196
G1 X141.495 Y146.908 E15.89806
G1 X141.084 Y146.654 E15.91415
G1 X140.634 Y146.474 E15.9303
G1 X140.162 Y146.372 E15.94638
G1 X139.679 Y146.351 E15.96249
G0 F2625 X139.431 Y146.383
G0 X139.356 Y145.788
G0 X139.896 Y136.948
G0 X139.921 Y136.349
G1 F900 X140.401 Y136.287 E15.97861
G1 X140.863 Y136.146 E15.9947
G1 X141.295 Y135.928 E16.01082
G1 X141.684 Y135.64 E16.02694
G1 X142.018 Y135.291 E16.04303
G1 X142.289 Y134.89 E16.05915
G1 X142.488 Y134.45 E16.07524
G1 X142.61 Y133.982 E16.09135
G1 X142.651 Y133.5 E16.10746
G1 X142.61 Y133.018 E16.12358
G1 X142.488 Y132.55 E16.13969
G1 X142.289 Y132.11 E16.15577
G1 X142.018 Y131.709 E16.17189
G1 X141.684 Y131.36 E16.18798
G1 X141.295 Y131.072 E16.20411
G1 X140.863 Y130.854 E16.22023
G1 X140.401 Y130.713 E16.23632
G1 X139.921 Y130.651 E16.25244
G1 X139.438 Y130.672 E16.26854
G1 X138.966 Y130.774 E16.28463
G1 X138.516 Y130.954 E16.30077
G1 X138.105 Y131.208 E16.31687
G1 X137.742 Y131.527 E16.33296
G1 X137.438 Y131.904 E16.34909
G1 X137.202 Y132.326 E16.3652
G1 X137.041 Y132.782 E16.38131
G1 X136.959 Y133.259 E16.39743
G1 X136.959 Y133.741 E16.41349
G1 X137.041 Y134.218 E16.42961
G1 X137.202 Y134.674 E16.44572
G1 X137.438 Y135.096 E16.46182
G1 X137.742 Y135.473 E16.47796
G1 X138.105 Y135.792 E16.49405
G1 X138.516 Y136.046 E16.51015
G1 X138.966 Y136.226 E16.52629
G1 X139.438 Y136.328 E16.54238
G1 X139.921 Y136.349 E16.55848
G0 F2625 X140.169 Y136.317
G0 X140.244 Y136.912
G0 X139.369 Y136.865
G0 X138.808 Y136.744
G0 X138.272 Y136.529
G0 X137.783 Y136.227
G0 X137.352 Y135.847
G0 X136.989 Y135.399
G0 X136.709 Y134.897
G0 X136.517 Y134.354
G0 X136.42 Y133.787
G0 X135.82 Y118.32
G0 X135.25 Y117.75
G1 F900 X154.75 Y117.75 E17.20803
G1 X154.75 Y157.25 E18.52379
G1 X135.25 Y157.25 E19.17334
G1 X135.25 Y117.75 E20.4891
G0 F2625 X135.5 Y117.75
G0 X136.152 Y118.475
;TYPE:SKIN
G1 F900 X154.024 Y136.347 E21.33102
G1 X154.112 Y136.435
G0 F2625 X154.024 Y135.64
G1 F900 X136.859 Y118.475 E22.13962
G1 X136.771 Y118.387
G0 F2625 X137.566 Y118.475
G1 F900 X154.024 Y134.932 E22.9149
G1 X154.112 Y135.02
G0 F2625 X154.024 Y134.225
G1 F900 X138.274 Y118.475 E23.65685
G1 X138.186 Y118.387
G0 F2625 X138.981 Y118.475
G1 F900 X154.024 Y133.518 E24.3655
G1 X154.112 Y133.606
G0 F2625 X154.024 Y132.811
G1 F900 X139.688 Y118.475 E25.04084
G1 X139.6 Y118.387
G0 F2625 X140.395 Y118.475
G1 F900 X154.024 Y132.104 E25.68287
G1 X154.112 Y132.192
G0 F2625 X154.024 Y131.397
G1 F900 X141.102 Y118.475 E26.2916
G1 X141.014 Y118.387
G0 F2625 X141.809 Y118.475
G1 F900 X154.024 Y130.69 E26.86703
G1 X154.112 Y130.778
G0 F2625 X154.024 Y129.983
G1 F900 X142.516 Y118.475 E27.40915
G1 X142.428 Y118.387
G0 F2625 X143.223 Y118.475
G1 F900 X154.024 Y129.276 E27.91796
G1 X154.112 Y129.364
G0 F2625 X154.024 Y128.568
G1 F900 X143.93 Y118.475 E28.39344
G1 X143.842 Y118.387
G0 F2625 X144.637 Y118.475
G1 F900 X154.024 Y127.861 E28.83562
G1 X154.112 Y127.949
G0 F2625 X154.024 Y127.154
G1 F900 X145.345 Y118.475 E29.24447
G1 X145.257 Y118.387
G0 F2625 X146.052 Y118.475
G1 F900 X154.024 Y126.447 E29.62002
G1 X154.112 Y126.535
G0 F2625 X154.024 Y125.74
G1 F900 X146.759 Y118.475 E29.96226
G1 X146.671 Y118.387
G0 F2625 X147.466 Y118.475
G1 F900 X154.024 Y125.033 E30.27119
G1 X154.112 Y125.121
G0 F2625 X154.024 Y124.326
G1 F900 X148.173 Y118.475 E30.54682
G1 X148.085 Y118.387
G0 F2625 X148.88 Y118.475
G1 F900 X154.024 Y123.619 E30.78914
G1 X154.112 Y123.707
G0 F2625 X154.024 Y122.912
G1 F900 X149.587 Y118.475 E30.99816
G1 X149.499 Y118.387
G0 F2625 X150.294 Y118.475
G1 F900 X154.024 Y122.205 E31.17387
G1 X154.112 Y122.293
G0 F2625 X154.024 Y121.497
G1 F900 X151.001 Y118.475 E31.31626
G1 X150.913 Y118.387
G0 F2625 X151.709 Y118.475
G1 F900 X154.024 Y120.79 E31.42531
G1 X154.112 Y120.878
G0 F2625 X154.024 Y120.083
G1 F900 X152.416 Y118.475 E31.50106
G1 X152.328 Y118.387
G0 F2625 X153.123 Y118.475
G1 F900 X154.024 Y119.376 E31.5435
G1 X154.112 Y119.464
G0 F2625 X154.024 Y118.669
G1 F900 X153.83 Y118.475 E31.55264
G0 F2625 X142.023 Y130.71
G1 F900 X135.974 Y124.66 E31.83762
G1 X135.886 Y124.572
G0 F2625 X135.974 Y123.953
G1 F900 X154.025 Y142.004 E32.68797
G1 X154.113 Y142.092
G0 F2625 X154.025 Y141.297
G1 F900 X135.974 Y123.246 E33.53832
G1 X135.886 Y123.158
G0 F2625 X135.974 Y122.539
G1 F900 X154.025 Y140.59 E34.38866
G1 X154.113 Y140.678
G0 F2625 X154.025 Y139.883
G1 F900 X135.974 Y121.832 E35.23901
G1 X135.886 Y121.744
G0 F2625 X135.974 Y121.125
G1 F900 X154.025 Y139.176 E36.08935
G1 X154.113 Y139.264
G0 F2625 X154.025 Y138.469
G1 F900 X135.974 Y120.418 E36.9397
G1 X135.886 Y120.33
G0 F2625 X135.974 Y119.711
G1 F900 X154.025 Y137.762 E37.79004
G1 X154.113 Y137.85
G0 F2625 X154.024 Y137.054
G1 F900 X135.974 Y119.003 E38.64037
G1 X135.886 Y118.915
G0 F2625 X135.974 Y125.367
G1 F900 X140.632 Y130.026 E38.85982
G1 X140.72 Y130.114
G0 F2625 X139.828 Y129.928
G1 F900 X135.974 Y126.075 E39.04135
G1 X135.886 Y125.987
G0 F2625 X135.974 Y126.782
G1 F900 X139.177 Y129.985 E39.19224
G1 X139.265 Y130.073
G0 F2625 X138.616 Y130.131
G1 F900 X135.974 Y127.489 E39.3167
G1 X135.886 Y127.401
G0 F2625 X135.974 Y128.196
G1 F900 X138.121 Y130.343 E39.41784
G1 X138.209 Y130.431
G0 F2625 X137.685 Y130.613
G1 F900 X135.974 Y128.903 E39.49841
G1 X135.886 Y128.815
G0 F2625 X135.974 Y129.61
G1 F900 X137.307 Y130.943 E39.56121
G1 X137.395 Y131.031
G0 F2625 X136.976 Y131.319
G1 F900 X135.974 Y130.317 E39.60841
G1 X135.886 Y130.229
G0 F2625 X135.974 Y131.024
G1 F900 X136.695 Y131.745 E39.64238
G1 X136.783 Y131.833
G0 F2625 X136.221 Y131.978
G1 F900 X136.14 Y132.604 E39.6618
G1 X136.103 Y133.275 E39.67568
G1 X136.135 Y134.014 E39.68938
G1 X136.351 Y134.937 E39.71471
G1 X136.816 Y135.402
G0 F2625 X135.974 Y135.267
G1 F900 X154.025 Y153.318 E40.56505
G1 X154.113 Y153.406
G0 F2625 X154.025 Y152.611
G1 F900 X137.984 Y136.57 E41.32071
G1 X137.896 Y136.482
G0 F2625 X139.124 Y137.003
G1 F900 X154.025 Y151.904 E42.02267
G1 X154.113 Y151.992
G0 F2625 X154.025 Y151.197
G1 F900 X139.903 Y137.074 E42.68795
G1 X139.815 Y136.986
G0 F2625 X140.535 Y136.999
G1 F900 X154.025 Y150.49 E43.32346
G1 X154.113 Y150.578
G0 F2625 X154.025 Y149.782
G1 F900 X141.08 Y136.837 E43.93327
G1 X140.992 Y136.749
G0 F2625 X141.558 Y136.608
G1 F900 X154.025 Y149.075 E44.52057
G1 X154.113 Y149.163
G0 F2625 X154.025 Y148.368
G1 F900 X141.979 Y136.323 E45.08801
G1 X141.891 Y136.235
G0 F2625 X142.352 Y135.988
G1 F900 X154.025 Y147.661 E45.6379
G1 X154.113 Y147.749
G0 F2625 X154.025 Y146.954
G1 F900 X142.678 Y135.607 E46.17243
G1 X142.59 Y135.519
G0 F2625 X142.954 Y135.176
G1 F900 X154.025 Y146.247 E46.69396
G1 X154.113 Y146.335
G0 F2625 X154.025 Y145.54
G1 F900 X143.174 Y134.688 E47.20516
G1 X143.086 Y134.6
G0 F2625 X143.32 Y134.128
G1 F900 X154.025 Y144.833 E47.70945
G1 X154.113 Y144.921
G0 F2625 X154.025 Y144.126
G1 F900 X143.375 Y133.476 E48.21115
G1 X143.287 Y133.388
G0 F2625 X143.265 Y132.658
G1 F900 X154.025 Y143.418 E48.71803
G1 X154.113 Y143.506
G0 F2625 X154.025 Y142.711
G1 F900 X142.619 Y131.306 E49.25532
G1 X142.531 Y131.218
G0 F2625 X141.064 Y130.351
G0 X140.515 Y130.184
G0 X139.943 Y130.111
G0 X139.369 Y130.135
G0 X138.808 Y130.256
G0 X138.272 Y130.471
G0 X137.783 Y130.773
G0 X137.352 Y131.153
G0 X136.989 Y131.601
G0 X136.709 Y132.103
G0 X136.517 Y132.646
G0 X135.974 Y135.974
G1 F900 X154.025 Y154.025 E50.10566
G1 X154.113 Y154.113
G0 F2625 X154.025 Y154.732
G1 F900 X135.974 Y136.681 E50.95601
G1 X135.886 Y136.593
G0 F2625 X135.974 Y137.388
G1 F900 X154.025 Y155.439 E51.80636
