;Generated by Cura LulzBot Edition GCodeWriter Version: 2.6.69
;FLAVOR:RepRap
;TIME:10909
;Filament used: 5.54218m
;Layer height: 0.25
;Generated with Cura_SteamEngine 2.6.69
;This G-Code has been generated specifically for the LulzBot TAZ 5 with standard extruder
M140 S60    ; start bed heating up
G21                      ; set units to Millimetres
G90                      ; absolute positioning
M107                     ; disable fans
M82                      ; set extruder to absolute mode
G28 X0 Y0                ; home X and Y
G28 Z0                   ; home Z
G1 Z15.0 F{travel_speed} ; move extruder up
M117 Heating...                     ; progress indicator message on LCD
M109 R215  ; wait for extruder to reach printing temp
M190 S60    ; wait for bed to reach printing temp
G92 E0                   ; set extruder position to 0
G1 F200 E0               ; prime the nozzle with filament
G92 E0                   ; re-set extruder position to 0
G1 F{travel_speed}       ; set travel speed
M203 X192 Y208 Z3        ; set limits on travel speed
M117 TAZ 5 Printing...   ; progress indicator message on LCD

M221 S100
;LAYER_COUNT:47
;LAYER:0
M107
G0 F2625 X68.976 Y26.615 Z0.424
;TYPE:SKIRT
G1 F900 X69.171 Y26.144 E0.01698
G1 X69.437 Y25.709 E0.03397
G1 X69.767 Y25.322 E0.05091
G1 X70.154 Y24.99 E0.06789
G1 X70.589 Y24.724 E0.08488
G1 X71.059 Y24.528 E0.10184
G1 X71.554 Y24.409 E0.1188
G1 X72.067 Y24.368 E0.13594
G1 X218.049 Y24.369 E4.99865
G1 X218.557 Y24.409 E5.01563
G1 X219.052 Y24.528 E5.03258
G1 X219.523 Y24.723 E5.04957
G1 X219.958 Y24.989 E5.06655
G1 X220.345 Y25.319 E5.08349
G1 X220.677 Y25.706 E5.10048
G1 X220.943 Y26.141 E5.11746
G1 X221.139 Y26.611 E5.13442
G1 X221.258 Y27.106 E5.15138
G1 X221.299 Y27.619 E5.16852
G1 X221.299 Y207.6 E11.16376
G1 X221.259 Y208.108 E11.18073
G1 X221.14 Y208.603 E11.19769
G1 X220.945 Y209.074 E11.21467
G1 X220.679 Y209.509 E11.23165
G1 X220.349 Y209.896 E11.2486
G1 X219.962 Y210.228 E11.26558
G1 X219.527 Y210.494 E11.28256
G1 X219.057 Y210.69 E11.29953
G1 X218.562 Y210.809 E11.31649
G1 X218.049 Y210.85 E11.33363
G1 X72.067 Y210.85 E16.19634
G1 X71.559 Y210.81 E16.21332
G1 X71.064 Y210.691 E16.23027
G1 X70.593 Y210.496 E16.24725
G1 X70.158 Y210.23 E16.26424
G1 X69.771 Y209.9 E16.28118
G1 X69.439 Y209.513 E16.29817
G1 X69.173 Y209.078 E16.31515
G1 X68.977 Y208.608 E16.33211
G1 X68.858 Y208.113 E16.34907
G1 X68.817 Y207.6 E16.36621
G1 X68.817 Y27.618 E22.36148
G1 X68.857 Y27.11 E22.37845
G1 X68.976 Y26.615 E22.39541
G1 F600 E21.39541
G0 F2625 X71.411 Y30.442
G0 X71.454 Y30.509
G0 X76.642 Y38.662
G0 X76.685 Y38.73
G0 X77.272 Y39.651
;TYPE:SUPPORT
G1 F600 E22.39541
G1 F900 X77.376 Y39.572 E22.39976
G1 X77.558 Y39.472 E22.40668
G1 X77.749 Y39.406 E22.41341
G1 X77.999 Y39.367 E22.42184
G1 X78.147 Y39.369 E22.42677
G1 X78.194 Y39.376 E22.42835
G1 X78.364 Y39.405 E22.4341
G1 X78.45 Y39.434 E22.43712
G1 X78.556 Y39.47 E22.44085
G1 X78.68 Y39.537 E22.44554
G1 X78.744 Y39.573 E22.44799
G1 X78.905 Y39.699 E22.4548
G1 X78.996 Y39.798 E22.45928
G1 X79.033 Y39.838 E22.46109
G1 X79.123 Y39.974 E22.46653
G1 X79.152 Y40.018 E22.46828
G1 X79.237 Y40.211 E22.47531
G1 X79.285 Y40.4 E22.4818
G1 X79.308 Y40.683 E22.49126
G1 X79.308 Y182.559 E27.2172
G1 X76.808 Y182.559 E27.30048
G1 X76.808 Y40.683 E32.02642
G1 X76.831 Y40.402 E32.03581
G1 X76.858 Y40.299 E32.03936
G1 X76.881 Y40.21 E32.04242
G1 X76.964 Y40.018 E32.04939
G1 X77.043 Y39.897 E32.0542
G1 X77.078 Y39.842 E32.05637
G1 X77.104 Y39.815 E32.05762
G1 X77.213 Y39.698 E32.06295
G1 X77.272 Y39.65 E32.06548
G1 X77.272 Y39.651 E32.06551
G0 F2625 X77.224 Y39.984
G1 F900 X78.892 Y39.984 E32.12107
G0 F2625 X78.302 Y39.597
G1 F900 X78.302 Y182.359 E36.87653
G0 F2625 X79.107 Y181.594
G1 F900 X77.007 Y181.594 E36.94648
G0 F2625 X77.007 Y179.928
G1 F900 X79.107 Y179.928 E37.01643
G0 F2625 X79.107 Y178.262
G1 F900 X77.007 Y178.262 E37.08638
G0 F2625 X77.007 Y176.596
G1 F900 X79.107 Y176.596 E37.15633
G0 F2625 X79.107 Y174.93
G1 F900 X77.007 Y174.93 E37.22629
G0 F2625 X77.007 Y173.264
G1 F900 X79.107 Y173.264 E37.29624
G0 F2625 X79.107 Y171.598
G1 F900 X77.007 Y171.598 E37.36619
G0 F2625 X77.007 Y169.932
G1 F900 X79.107 Y169.932 E37.43614
G0 F2625 X79.107 Y168.266
G1 F900 X77.007 Y168.266 E37.50609
G0 F2625 X77.007 Y166.6
G1 F900 X79.107 Y166.6 E37.57605
G0 F2625 X79.107 Y164.934
G1 F900 X77.007 Y164.934 E37.646
G0 F2625 X77.007 Y163.268
G1 F900 X79.107 Y163.268 E37.71595
G0 F2625 X79.107 Y161.602
G1 F900 X77.007 Y161.602 E37.7859
G0 F2625 X77.007 Y159.936
G1 F900 X79.107 Y159.936 E37.85585
G0 F2625 X79.107 Y158.27
G1 F900 X77.007 Y158.27 E37.9258
G0 F2625 X77.007 Y156.604
G1 F900 X79.107 Y156.604 E37.99576
G0 F2625 X79.107 Y154.938
G1 F900 X77.007 Y154.938 E38.06571
G0 F2625 X77.007 Y153.272
G1 F900 X79.107 Y153.272 E38.13566
G0 F2625 X79.107 Y151.606
G1 F900 X77.007 Y151.606 E38.20561
G0 F2625 X77.007 Y149.94
G1 F900 X79.107 Y149.94 E38.27556
G0 F2625 X79.107 Y148.274
G1 F900 X77.007 Y148.274 E38.34551
G0 F2625 X77.007 Y146.608
G1 F900 X79.107 Y146.608 E38.41547
G0 F2625 X79.107 Y144.942
G1 F900 X77.007 Y144.942 E38.48542
G0 F2625 X77.007 Y143.276
G1 F900 X79.107 Y143.276 E38.55537
G0 F2625 X79.107 Y141.61
G1 F900 X77.007 Y141.61 E38.62532
G0 F2625 X77.007 Y139.944
G1 F900 X79.107 Y139.944 E38.69527
G0 F2625 X79.107 Y138.278
G1 F900 X77.007 Y138.278 E38.76522
G0 F2625 X77.007 Y136.612
G1 F900 X79.107 Y136.612 E38.83518
G0 F2625 X79.107 Y134.946
G1 F900 X77.007 Y134.946 E38.90513
G0 F2625 X77.007 Y133.28
G1 F900 X79.107 Y133.28 E38.97508
G0 F2625 X79.107 Y131.614
G1 F900 X77.007 Y131.614 E39.04503
G0 F2625 X77.007 Y129.948
G1 F900 X79.107 Y129.948 E39.11498
G0 F2625 X79.107 Y128.282
G1 F900 X77.007 Y128.282 E39.18494
G0 F2625 X77.007 Y126.616
G1 F900 X79.107 Y126.616 E39.25489
G0 F2625 X79.107 Y124.95
G1 F900 X77.007 Y124.95 E39.32484
G0 F2625 X77.007 Y123.284
G1 F900 X79.107 Y123.284 E39.39479
G0 F2625 X79.107 Y121.618
G1 F900 X77.007 Y121.618 E39.46474
G0 F2625 X77.007 Y119.952
G1 F900 X79.107 Y119.952 E39.53469
G0 F2625 X79.108 Y118.286
G1 F900 X77.008 Y118.286 E39.60465
G0 F2625 X77.008 Y116.62
G1 F900 X79.108 Y116.62 E39.6746
G0 F2625 X79.108 Y114.954
G1 F900 X77.008 Y114.954 E39.74455
G0 F2625 X77.008 Y113.288
G1 F900 X79.108 Y113.288 E39.8145
G0 F2625 X79.108 Y111.622
G1 F900 X77.008 Y111.622 E39.88445
G0 F2625 X77.008 Y109.956
G1 F900 X79.108 Y109.956 E39.9544
G0 F2625 X79.108 Y108.29
G1 F900 X77.008 Y108.29 E40.02436
G0 F2625 X77.008 Y106.624
G1 F900 X79.108 Y106.624 E40.09431
G0 F2625 X79.108 Y104.958
G1 F900 X77.008 Y104.958 E40.16426
G0 F2625 X77.008 Y103.292
G1 F900 X79.108 Y103.292 E40.23421
G0 F2625 X79.108 Y101.626
G1 F900 X77.008 Y101.626 E40.30416
G0 F2625 X77.008 Y99.96
G1 F900 X79.108 Y99.96 E40.37412
G0 F2625 X79.108 Y98.294
G1 F900 X77.008 Y98.294 E40.44407
G0 F2625 X77.008 Y96.628
G1 F900 X79.108 Y96.628 E40.51402
G0 F2625 X79.108 Y94.962
G1 F900 X77.008 Y94.962 E40.58397
G0 F2625 X77.008 Y93.296
G1 F900 X79.108 Y93.296 E40.65392
G0 F2625 X79.108 Y91.63
G1 F900 X77.008 Y91.63 E40.72387
G0 F2625 X77.008 Y89.964
G1 F900 X79.108 Y89.964 E40.79383
G0 F2625 X79.108 Y88.298
G1 F900 X77.008 Y88.298 E40.86378
G0 F2625 X77.008 Y86.632
G1 F900 X79.108 Y86.632 E40.93373
G0 F2625 X79.108 Y84.966
G1 F900 X77.008 Y84.966 E41.00368
G0 F2625 X77.008 Y83.3
G1 F900 X79.108 Y83.3 E41.07363
G0 F2625 X79.108 Y81.634
G1 F900 X77.008 Y81.634 E41.14358
G0 F2625 X77.008 Y79.968
G1 F900 X79.108 Y79.968 E41.21354
G0 F2625 X79.108 Y78.302
G1 F900 X77.008 Y78.302 E41.28349
G0 F2625 X77.008 Y76.636
G1 F900 X79.108 Y76.636 E41.35344
G0 F2625 X79.108 Y74.97
G1 F900 X77.008 Y74.97 E41.42339
G0 F2625 X77.008 Y73.304
G1 F900 X79.108 Y73.304 E41.49334
G0 F2625 X79.108 Y71.638
G1 F900 X77.008 Y71.638 E41.5633
G0 F2625 X77.008 Y69.972
G1 F900 X79.108 Y69.972 E41.63325
G0 F2625 X79.108 Y68.306
G1 F900 X77.008 Y68.306 E41.7032
G0 F2625 X77.008 Y66.64
G1 F900 X79.108 Y66.64 E41.77315
G0 F2625 X79.108 Y64.974
G1 F900 X77.008 Y64.974 E41.8431
G0 F2625 X77.008 Y63.308
G1 F900 X79.108 Y63.308 E41.91305
G0 F2625 X79.108 Y61.642
G1 F900 X77.008 Y61.642 E41.98301
G0 F2625 X77.008 Y59.976
G1 F900 X79.108 Y59.976 E42.05296
G0 F2625 X79.108 Y58.31
G1 F900 X77.008 Y58.31 E42.12291
G0 F2625 X77.008 Y56.644
G1 F900 X79.108 Y56.644 E42.19286
G0 F2625 X79.108 Y54.978
G1 F900 X77.008 Y54.978 E42.26281
G0 F2625 X77.008 Y53.312
G1 F900 X79.108 Y53.312 E42.33276
G0 F2625 X79.108 Y51.646
G1 F900 X77.008 Y51.646 E42.40272
G0 F2625 X77.008 Y49.98
G1 F900 X79.108 Y49.98 E42.47267
G0 F2625 X79.108 Y48.314
G1 F900 X77.008 Y48.314 E42.54262
G0 F2625 X77.008 Y46.648
G1 F900 X79.108 Y46.648 E42.61257
G0 F2625 X79.108 Y44.982
G1 F900 X77.008 Y44.982 E42.68252
G0 F2625 X77.008 Y43.316
G1 F900 X79.108 Y43.316 E42.75248
G0 F2625 X79.108 Y41.65
G1 F900 X77.008 Y41.65 E42.82243
G1 F600 E41.82243
G0 F2625 X80.391 Y41.459
G0 X80.471 Y41.455
G0 X84.642 Y41.22
G0 X84.711 Y38.262
G0 X142.683 Y38.267
G0 X144.307 Y37.867
G1 F600 E42.82243
G1 F900 X144.32 Y34.36 E42.93925
G1 X144.348 Y34.36 E42.94018
G1 X145.396 Y34.361 E42.97509
G1 X145.806 Y34.361 E42.98875
G1 X145.807 Y34.552 E42.99511
G1 X145.811 Y38.139 E43.11459
G1 X144.192 Y38.139 E43.16852
G1 X144.307 Y37.867 E43.17836
G0 F2625 X144.942 Y37.939
G1 F900 X144.942 Y34.561 E43.29088
G0 F2625 X144.518 Y34.986
G1 F900 X145.608 Y34.986 E43.32719
G0 F2625 X145.61 Y36.652
G1 F900 X144.512 Y36.652 E43.36376
G1 F600 E42.36376
G0 F2625 X147.434 Y38.268
G0 X205.405 Y38.262
G0 X205.472 Y40.357
G0 X209.644 Y40.611
G0 X209.724 Y40.616
G0 X210.808 Y40.683
G1 F600 E43.36376
G1 F900 X210.831 Y40.402 E43.37316
G1 X210.858 Y40.299 E43.3767
G1 X210.881 Y40.21 E43.37977
G1 X210.964 Y40.018 E43.38673
G1 X211.043 Y39.897 E43.39155
G1 X211.078 Y39.842 E43.39372
G1 X211.104 Y39.815 E43.39497
G1 X211.213 Y39.698 E43.40029
G1 X211.272 Y39.65 E43.40283
G1 X211.272 Y39.651 E43.40286
G1 X211.376 Y39.572 E43.40721
G1 X211.558 Y39.472 E43.41413
G1 X211.749 Y39.406 E43.42086
G1 X211.999 Y39.367 E43.42929
G1 X212.147 Y39.369 E43.43422
G1 X212.194 Y39.376 E43.4358
G1 X212.364 Y39.405 E43.44155
G1 X212.45 Y39.434 E43.44457
G1 X212.556 Y39.47 E43.4483
G1 X212.68 Y39.537 E43.45299
G1 X212.744 Y39.573 E43.45544
G1 X212.905 Y39.699 E43.46225
G1 X212.996 Y39.798 E43.46673
G1 X213.033 Y39.838 E43.46854
G1 X213.123 Y39.974 E43.47397
G1 X213.152 Y40.018 E43.47573
G1 X213.237 Y40.211 E43.48276
G1 X213.285 Y40.4 E43.48925
G1 X213.308 Y40.683 E43.49871
G1 X213.308 Y182.559 E48.22465
G1 X210.808 Y182.559 E48.30793
G1 X210.808 Y40.683 E53.03387
G0 F2625 X211.224 Y39.984
G1 F900 X212.892 Y39.984 E53.08943
G0 F2625 X211.582 Y39.686
G1 F900 X211.582 Y182.359 E57.84192
G0 F2625 X211.008 Y181.594
G1 F900 X213.108 Y181.594 E57.91187
G0 F2625 X213.108 Y179.928
G1 F900 X211.008 Y179.928 E57.98182
G0 F2625 X211.008 Y178.262
G1 F900 X213.108 Y178.262 E58.05177
G0 F2625 X213.108 Y176.596
G1 F900 X211.008 Y176.596 E58.12172
G0 F2625 X211.008 Y174.93
G1 F900 X213.108 Y174.93 E58.19168
G0 F2625 X213.108 Y173.264
G1 F900 X211.008 Y173.264 E58.26163
G0 F2625 X211.008 Y171.598
G1 F900 X213.108 Y171.598 E58.33158
G0 F2625 X213.108 Y169.932
G1 F900 X211.008 Y169.932 E58.40153
G0 F2625 X211.008 Y168.266
G1 F900 X213.108 Y168.266 E58.47148
G0 F2625 X213.108 Y166.6
G1 F900 X211.008 Y166.6 E58.54143
G0 F2625 X211.008 Y164.934
G1 F900 X213.108 Y164.934 E58.61139
G0 F2625 X213.108 Y163.268
G1 F900 X211.008 Y163.268 E58.68134
G0 F2625 X211.008 Y161.602
G1 F900 X213.108 Y161.602 E58.75129
G0 F2625 X213.108 Y159.936
G1 F900 X211.008 Y159.936 E58.82124
G0 F2625 X211.008 Y158.27
G1 F900 X213.108 Y158.27 E58.89119
G0 F2625 X213.108 Y156.604
G1 F900 X211.008 Y156.604 E58.96114
G0 F2625 X211.008 Y154.938
G1 F900 X213.108 Y154.938 E59.0311
G0 F2625 X213.108 Y153.272
G1 F900 X211.008 Y153.272 E59.10105
G0 F2625 X211.008 Y151.606
G1 F900 X213.108 Y151.606 E59.171
G0 F2625 X213.108 Y149.94
G1 F900 X211.008 Y149.94 E59.24095
G0 F2625 X211.008 Y148.274
G1 F900 X213.108 Y148.274 E59.3109
G0 F2625 X213.108 Y146.608
G1 F900 X211.008 Y146.608 E59.38086
G0 F2625 X211.008 Y144.942
G1 F900 X213.108 Y144.942 E59.45081
G0 F2625 X213.108 Y143.276
G1 F900 X211.008 Y143.276 E59.52076
G0 F2625 X211.008 Y141.61
G1 F900 X213.108 Y141.61 E59.59071
G0 F2625 X213.108 Y139.944
G1 F900 X211.008 Y139.944 E59.66066
G0 F2625 X211.008 Y138.278
G1 F900 X213.108 Y138.278 E59.73061
G0 F2625 X213.108 Y136.612
G1 F900 X211.008 Y136.612 E59.80057
G0 F2625 X211.008 Y134.946
G1 F900 X213.108 Y134.946 E59.87052
G0 F2625 X213.108 Y133.28
G1 F900 X211.008 Y133.28 E59.94047
G0 F2625 X211.008 Y131.614
G1 F900 X213.108 Y131.614 E60.01042
G0 F2625 X213.108 Y129.948
G1 F900 X211.008 Y129.948 E60.08037
G0 F2625 X211.008 Y128.282
G1 F900 X213.108 Y128.282 E60.15032
G0 F2625 X213.108 Y126.616
G1 F900 X211.008 Y126.616 E60.22028
G0 F2625 X211.008 Y124.95
G1 F900 X213.108 Y124.95 E60.29023
G0 F2625 X213.108 Y123.284
G1 F900 X211.008 Y123.284 E60.36018
G0 F2625 X211.008 Y121.618
G1 F900 X213.108 Y121.618 E60.43013
G0 F2625 X213.108 Y119.952
G1 F900 X211.008 Y119.952 E60.50008
G0 F2625 X211.008 Y118.286
G1 F900 X213.108 Y118.286 E60.57004
G0 F2625 X213.108 Y116.62
G1 F900 X211.008 Y116.62 E60.63999
G0 F2625 X211.008 Y114.954
G1 F900 X213.108 Y114.954 E60.70994
G0 F2625 X213.108 Y113.288
G1 F900 X211.008 Y113.288 E60.77989
G0 F2625 X211.008 Y111.622
G1 F900 X213.108 Y111.622 E60.84984
G0 F2625 X213.108 Y109.956
G1 F900 X211.008 Y109.956 E60.91979
G0 F2625 X211.008 Y108.29
G1 F900 X213.108 Y108.29 E60.98975
G0 F2625 X213.108 Y106.624
G1 F900 X211.008 Y106.624 E61.0597
G0 F2625 X211.008 Y104.958
G1 F900 X213.108 Y104.958 E61.12965
G0 F2625 X213.108 Y103.292
G1 F900 X211.008 Y103.292 E61.1996
G0 F2625 X211.008 Y101.626
G1 F900 X213.108 Y101.626 E61.26955
G0 F2625 X213.108 Y99.96
G1 F900 X211.008 Y99.96 E61.3395
G0 F2625 X211.008 Y98.294
G1 F900 X213.108 Y98.294 E61.40946
G0 F2625 X213.108 Y96.628
G1 F900 X211.008 Y96.628 E61.47941
G0 F2625 X211.008 Y94.962
G1 F900 X213.108 Y94.962 E61.54936
G0 F2625 X213.108 Y93.296
G1 F900 X211.008 Y93.296 E61.61931
G0 F2625 X211.008 Y91.63
G1 F900 X213.108 Y91.63 E61.68926
G0 F2625 X213.108 Y89.964
G1 F900 X211.008 Y89.964 E61.75921
G0 F2625 X211.008 Y88.298
G1 F900 X213.108 Y88.298 E61.82917
G0 F2625 X213.108 Y86.632
G1 F900 X211.008 Y86.632 E61.89912
G0 F2625 X211.008 Y84.966
G1 F900 X213.108 Y84.966 E61.96907
G0 F2625 X213.108 Y83.3
G1 F900 X211.008 Y83.3 E62.03902
G0 F2625 X211.008 Y81.634
G1 F900 X213.108 Y81.634 E62.10897
G0 F2625 X213.108 Y79.968
G1 F900 X211.008 Y79.968 E62.17893
G0 F2625 X211.008 Y78.302
G1 F900 X213.108 Y78.302 E62.24888
G0 F2625 X213.108 Y76.636
G1 F900 X211.008 Y76.636 E62.31883
G0 F2625 X211.008 Y74.97
G1 F900 X213.108 Y74.97 E62.38878
G0 F2625 X213.108 Y73.304
G1 F900 X211.008 Y73.304 E62.45873
G0 F2625 X211.008 Y71.638
G1 F900 X213.108 Y71.638 E62.52868
G0 F2625 X213.108 Y69.972
G1 F900 X211.008 Y69.972 E62.59864
G0 F2625 X211.008 Y68.306
G1 F900 X213.108 Y68.306 E62.66859
G0 F2625 X213.108 Y66.64
G1 F900 X211.008 Y66.64 E62.73854
G0 F2625 X211.008 Y64.974
G1 F900 X213.108 Y64.974 E62.80849
G0 F2625 X213.108 Y63.308
G1 F900 X211.008 Y63.308 E62.87844
G0 F2625 X211.008 Y61.642
G1 F900 X213.108 Y61.642 E62.94839
G0 F2625 X213.108 Y59.976
G1 F900 X211.008 Y59.976 E63.01835
G0 F2625 X211.008 Y58.31
G1 F900 X213.108 Y58.31 E63.0883
G0 F2625 X213.108 Y56.644
G1 F900 X211.008 Y56.644 E63.15825
G0 F2625 X211.008 Y54.978
G1 F900 X213.108 Y54.978 E63.2282
G0 F2625 X213.108 Y53.312
G1 F900 X211.008 Y53.312 E63.29815
G0 F2625 X211.008 Y51.646
G1 F900 X213.108 Y51.646 E63.36811
G0 F2625 X213.108 Y49.98
G1 F900 X211.008 Y49.98 E63.43806
G0 F2625 X211.008 Y48.314
G1 F900 X213.108 Y48.314 E63.50801
G0 F2625 X213.108 Y46.648
G1 F900 X211.008 Y46.648 E63.57796
G0 F2625 X211.008 Y44.982
G1 F900 X213.108 Y44.982 E63.64791
G0 F2625 X213.108 Y43.316
G1 F900 X211.008 Y43.316 E63.71786
G0 F2625 X211.008 Y41.65
G1 F900 X213.108 Y41.65 E63.78782
G1 F600 E62.78782
G0 F2625 X209.698 Y49.522
G0 X209.666 Y49.596
G0 X205.448 Y59.339
G0 X205.416 Y59.412
G0 X145.81 Y197.079
G1 F600 E63.78782
G1 F900 X145.808 Y200.858 E63.9137
