;Generated by Cura LulzBot Edition GCodeWriter Version: 2.6.69
;FLAVOR:RepRap
;TIME:11167
;Filament used: 5.78009m
;Layer height: 0.25
;Generated with Cura_SteamEngine 2.6.69
;This G-Code has been generated specifically for the LulzBot TAZ 5 with standard extruder
M140 S60    ; start bed heating up
G21                      ; set units to Millimetres
G90                      ; absolute positioning
M107                     ; disable fans
M82                      ; set extruder to absolute mode
G28 X0 Y0                ; home X and Y
G28 Z0                   ; home Z
G1 Z15.0 F{travel_speed} ; move extruder up
M117 Heating...                     ; progress indicator message on LCD
M109 R215  ; wait for extruder to reach printing temp
M190 S60    ; wait for bed to reach printing temp
G92 E0                   ; set extruder position to 0
G1 F200 E0               ; prime the nozzle with filament
G92 E0                   ; re-set extruder position to 0
G1 F{travel_speed}       ; set travel speed
M203 X192 Y208 Z3        ; set limits on travel speed
M117 TAZ 5 Printing...   ; progress indicator message on LCD

M221 S100
;LAYER_COUNT:47
;LAYER:0
M107
G0 F2625 X69.379 Y45.6 Z0.424
;TYPE:SKIRT
G1 F900 X69.709 Y45.213 E0.01694
G1 X70.096 Y44.881 E0.03393
G1 X70.531 Y44.615 E0.05091
G1 X71.001 Y44.419 E0.06787
G1 X71.496 Y44.3 E0.08483
G1 X72.009 Y44.259 E0.10197
G1 X217.991 Y44.26 E4.96469
G1 X218.499 Y44.3 E4.98166
G1 X218.994 Y44.419 E4.99862
G1 X219.465 Y44.614 E5.0156
G1 X219.9 Y44.88 E5.03258
G1 X220.287 Y45.21 E5.04953
G1 X220.619 Y45.597 E5.06651
G1 X220.885 Y46.032 E5.0835
G1 X221.081 Y46.502 E5.10046
G1 X221.2 Y46.997 E5.11742
G1 X221.241 Y47.51 E5.13456
G1 X221.241 Y227.491 E11.12979
G1 X221.201 Y227.999 E11.14677
G1 X221.082 Y228.494 E11.16372
G1 X220.887 Y228.965 E11.1807
G1 X220.621 Y229.4 E11.19769
G1 X220.291 Y229.787 E11.21463
G1 X219.904 Y230.119 E11.23162
G1 X219.469 Y230.385 E11.2486
G1 X218.999 Y230.581 E11.26556
G1 X218.504 Y230.7 E11.28252
G1 X217.991 Y230.741 E11.29966
G1 X72.009 Y230.741 E16.16238
G1 X71.501 Y230.701 E16.17935
G1 X71.006 Y230.582 E16.19631
G1 X70.535 Y230.387 E16.21329
G1 X70.1 Y230.121 E16.23027
G1 X69.713 Y229.791 E16.24722
G1 X69.381 Y229.404 E16.2642
G1 X69.115 Y228.969 E16.28118
G1 X68.919 Y228.499 E16.29815
G1 X68.8 Y228.004 E16.31511
G1 X68.759 Y227.491 E16.33225
G1 X68.759 Y47.509 E22.32751
G1 X68.799 Y47.001 E22.34449
G1 X68.918 Y46.506 E22.36145
G1 X69.113 Y46.035 E22.37843
G1 X69.379 Y45.6 E22.39541
G1 F600 E21.39541
G0 F2625 X71.353 Y48.98
G0 X71.394 Y49.049
G0 X76.851 Y58.387
G0 X76.891 Y58.456
G0 X77.44 Y59.394
;TYPE:SUPPORT
G1 F600 E22.39541
G1 F900 X77.502 Y59.361 E22.39775
G1 X77.521 Y59.354 E22.39843
G1 X77.689 Y59.295 E22.40436
G1 X77.728 Y59.29 E22.40567
G1 X77.914 Y59.26 E22.41194
G1 X78.097 Y59.26 E22.41804
G1 X78.302 Y59.294 E22.42496
G1 X78.496 Y59.361 E22.4318
G1 X78.688 Y59.465 E22.43907
G1 X78.842 Y59.583 E22.44553
G1 X78.958 Y59.71 E22.45126
G1 X78.982 Y59.738 E22.45249
G1 X79.011 Y59.781 E22.45422
G1 X79.095 Y59.911 E22.45937
G1 X79.177 Y60.1 E22.46624
G1 X79.21 Y60.228 E22.47064
G1 X79.227 Y60.294 E22.47291
G1 X79.25 Y60.574 E22.48227
G1 X79.25 Y214.428 E27.6072
G1 X79.227 Y214.704 E27.61643
G1 X79.197 Y214.821 E27.62045
G1 X79.178 Y214.897 E27.62306
G1 X79.093 Y215.092 E27.63014
G1 X78.979 Y215.265 E27.63705
G1 X78.939 Y215.311 E27.63908
G1 X78.846 Y215.413 E27.64367
G1 X78.742 Y215.494 E27.64807
G1 X78.689 Y215.536 E27.65032
G1 X78.501 Y215.638 E27.65744
G1 X78.407 Y215.67 E27.66075
G1 X78.305 Y215.706 E27.66435
G1 X78.194 Y215.724 E27.6681
G1 X78.097 Y215.74 E27.67137
G1 X77.91 Y215.74 E27.6776
G1 X77.689 Y215.704 E27.68506
G1 X77.501 Y215.639 E27.69169
G1 X77.327 Y215.545 E27.69828
G1 X77.154 Y215.41 E27.70558
G1 X77.07 Y215.32 E27.70969
G1 X77.02 Y215.266 E27.71214
G1 X76.906 Y215.091 E27.71909
G1 X76.821 Y214.898 E27.72612
G1 X76.773 Y214.709 E27.73261
G1 X76.75 Y214.426 E27.74207
G1 X76.75 Y60.573 E32.86697
G1 X76.773 Y60.292 E32.87636
G1 X76.823 Y60.097 E32.88307
G1 X76.903 Y59.914 E32.88972
G1 X77.027 Y59.727 E32.8972
G1 X77.154 Y59.588 E32.90347
G1 X77.318 Y59.461 E32.91038
G1 X77.44 Y59.394 E32.91501
G0 F2625 X77.101 Y59.976
G1 F900 X78.9 Y59.976 E32.97494
G0 F2625 X78.302 Y59.505
G1 F900 X78.302 Y215.495 E38.17102
G0 F2625 X78.95 Y214.914
G1 F900 X77.046 Y214.914 E38.23444
G0 F2625 X76.949 Y213.248
G1 F900 X79.049 Y213.248 E38.3044
G0 F2625 X79.049 Y211.582
G1 F900 X76.949 Y211.582 E38.37435
G0 F2625 X76.949 Y209.916
G1 F900 X79.049 Y209.916 E38.4443
G0 F2625 X79.049 Y208.25
G1 F900 X76.949 Y208.25 E38.51425
G0 F2625 X76.949 Y206.584
G1 F900 X79.049 Y206.584 E38.5842
G0 F2625 X79.049 Y204.918
G1 F900 X76.949 Y204.918 E38.65415
G0 F2625 X76.949 Y203.252
G1 F900 X79.049 Y203.252 E38.72411
G0 F2625 X79.049 Y201.586
G1 F900 X76.949 Y201.586 E38.79406
G0 F2625 X76.949 Y199.92
G1 F900 X79.049 Y199.92 E38.86401
G0 F2625 X79.049 Y198.254
G1 F900 X76.949 Y198.254 E38.93396
G0 F2625 X76.949 Y196.588
G1 F900 X79.049 Y196.588 E39.00391
G0 F2625 X79.049 Y194.922
G1 F900 X76.949 Y194.922 E39.07387
G0 F2625 X76.949 Y193.256
G1 F900 X79.049 Y193.256 E39.14382
G0 F2625 X79.049 Y191.59
G1 F900 X76.949 Y191.59 E39.21377
G0 F2625 X76.949 Y189.924
G1 F900 X79.049 Y189.924 E39.28372
G0 F2625 X79.049 Y188.258
G1 F900 X76.949 Y188.258 E39.35367
G0 F2625 X76.949 Y186.592
G1 F900 X79.049 Y186.592 E39.42362
G0 F2625 X79.049 Y184.926
G1 F900 X76.949 Y184.926 E39.49358
G0 F2625 X76.949 Y183.26
G1 F900 X79.049 Y183.26 E39.56353
G0 F2625 X79.049 Y181.594
G1 F900 X76.949 Y181.594 E39.63348
G0 F2625 X76.949 Y179.928
G1 F900 X79.049 Y179.928 E39.70343
G0 F2625 X79.049 Y178.262
G1 F900 X76.949 Y178.262 E39.77338
G0 F2625 X76.949 Y176.596
G1 F900 X79.049 Y176.596 E39.84333
G0 F2625 X79.049 Y174.93
G1 F900 X76.949 Y174.93 E39.91329
G0 F2625 X76.949 Y173.264
G1 F900 X79.049 Y173.264 E39.98324
G0 F2625 X79.049 Y171.598
G1 F900 X76.949 Y171.598 E40.05319
G0 F2625 X76.949 Y169.932
G1 F900 X79.049 Y169.932 E40.12314
G0 F2625 X79.049 Y168.266
G1 F900 X76.949 Y168.266 E40.19309
G0 F2625 X76.949 Y166.6
G1 F900 X79.049 Y166.6 E40.26305
G0 F2625 X79.049 Y164.934
G1 F900 X76.949 Y164.934 E40.333
G0 F2625 X76.949 Y163.268
G1 F900 X79.049 Y163.268 E40.40295
G0 F2625 X79.049 Y161.602
G1 F900 X76.949 Y161.602 E40.4729
G0 F2625 X76.949 Y159.936
G1 F900 X79.049 Y159.936 E40.54285
G0 F2625 X79.049 Y158.27
G1 F900 X76.949 Y158.27 E40.6128
G0 F2625 X76.949 Y156.604
G1 F900 X79.049 Y156.604 E40.68276
G0 F2625 X79.049 Y154.938
G1 F900 X76.949 Y154.938 E40.75271
G0 F2625 X76.949 Y153.272
G1 F900 X79.049 Y153.272 E40.82266
G0 F2625 X79.049 Y151.606
G1 F900 X76.949 Y151.606 E40.89261
G0 F2625 X76.949 Y149.94
G1 F900 X79.049 Y149.94 E40.96256
G0 F2625 X79.049 Y148.274
G1 F900 X76.949 Y148.274 E41.03251
G0 F2625 X76.949 Y146.608
G1 F900 X79.049 Y146.608 E41.10247
G0 F2625 X79.049 Y144.942
G1 F900 X76.949 Y144.942 E41.17242
G0 F2625 X76.949 Y143.276
G1 F900 X79.049 Y143.276 E41.24237
G0 F2625 X79.049 Y141.61
G1 F900 X76.949 Y141.61 E41.31232
G0 F2625 X76.949 Y139.944
G1 F900 X79.049 Y139.944 E41.38227
G0 F2625 X79.049 Y138.278
G1 F900 X76.949 Y138.278 E41.45223
G0 F2625 X76.949 Y136.612
G1 F900 X79.049 Y136.612 E41.52218
G0 F2625 X79.049 Y134.946
G1 F900 X76.949 Y134.946 E41.59213
G0 F2625 X76.949 Y133.28
G1 F900 X79.049 Y133.28 E41.66208
G0 F2625 X79.049 Y131.614
G1 F900 X76.949 Y131.614 E41.73203
G0 F2625 X76.949 Y129.948
G1 F900 X79.049 Y129.948 E41.80198
G0 F2625 X79.049 Y128.282
G1 F900 X76.949 Y128.282 E41.87194
G0 F2625 X76.949 Y126.616
G1 F900 X79.049 Y126.616 E41.94189
G0 F2625 X79.049 Y124.95
G1 F900 X76.949 Y124.95 E42.01184
G0 F2625 X76.949 Y123.284
G1 F900 X79.049 Y123.284 E42.08179
G0 F2625 X79.049 Y121.618
G1 F900 X76.949 Y121.618 E42.15174
G0 F2625 X76.949 Y119.952
G1 F900 X79.049 Y119.952 E42.22169
G0 F2625 X79.05 Y118.286
G1 F900 X76.95 Y118.286 E42.29165
G0 F2625 X76.95 Y116.62
G1 F900 X79.05 Y116.62 E42.3616
G0 F2625 X79.05 Y114.954
G1 F900 X76.95 Y114.954 E42.43155
G0 F2625 X76.95 Y113.288
G1 F900 X79.05 Y113.288 E42.5015
G0 F2625 X79.05 Y111.622
G1 F900 X76.95 Y111.622 E42.57145
G0 F2625 X76.95 Y109.956
G1 F900 X79.05 Y109.956 E42.64141
G0 F2625 X79.05 Y108.29
G1 F900 X76.95 Y108.29 E42.71136
G0 F2625 X76.95 Y106.624
G1 F900 X79.05 Y106.624 E42.78131
G0 F2625 X79.05 Y104.958
G1 F900 X76.95 Y104.958 E42.85126
G0 F2625 X76.95 Y103.292
G1 F900 X79.05 Y103.292 E42.92121
G0 F2625 X79.05 Y101.626
G1 F900 X76.95 Y101.626 E42.99116
G0 F2625 X76.95 Y99.96
G1 F900 X79.05 Y99.96 E43.06112
G0 F2625 X79.05 Y98.294
G1 F900 X76.95 Y98.294 E43.13107
G0 F2625 X76.95 Y96.628
G1 F900 X79.05 Y96.628 E43.20102
G0 F2625 X79.05 Y94.962
G1 F900 X76.95 Y94.962 E43.27097
G0 F2625 X76.95 Y93.296
G1 F900 X79.05 Y93.296 E43.34092
G0 F2625 X79.05 Y91.63
G1 F900 X76.95 Y91.63 E43.41087
G0 F2625 X76.95 Y89.964
G1 F900 X79.05 Y89.964 E43.48083
G0 F2625 X79.05 Y88.298
G1 F900 X76.95 Y88.298 E43.55078
G0 F2625 X76.95 Y86.632
G1 F900 X79.05 Y86.632 E43.62073
G0 F2625 X79.05 Y84.966
G1 F900 X76.95 Y84.966 E43.69068
G0 F2625 X76.95 Y83.3
G1 F900 X79.05 Y83.3 E43.76063
G0 F2625 X79.05 Y81.634
G1 F900 X76.95 Y81.634 E43.83058
G0 F2625 X76.95 Y79.968
G1 F900 X79.05 Y79.968 E43.90054
G0 F2625 X79.05 Y78.302
G1 F900 X76.95 Y78.302 E43.97049
G0 F2625 X76.95 Y76.636
G1 F900 X79.05 Y76.636 E44.04044
G0 F2625 X79.05 Y74.97
G1 F900 X76.95 Y74.97 E44.11039
G0 F2625 X76.95 Y73.304
G1 F900 X79.05 Y73.304 E44.18034
G0 F2625 X79.05 Y71.638
G1 F900 X76.95 Y71.638 E44.2503
G0 F2625 X76.95 Y69.972
G1 F900 X79.05 Y69.972 E44.32025
G0 F2625 X79.05 Y68.306
G1 F900 X76.95 Y68.306 E44.3902
G0 F2625 X76.95 Y66.64
G1 F900 X79.05 Y66.64 E44.46015
G0 F2625 X79.05 Y64.974
G1 F900 X76.95 Y64.974 E44.5301
G0 F2625 X76.95 Y63.308
G1 F900 X79.05 Y63.308 E44.60005
G0 F2625 X79.05 Y61.642
G1 F900 X76.95 Y61.642 E44.67001
G1 F600 E43.67001
G0 F2625 X80.334 Y61.459
G0 X80.414 Y61.455
G0 X84.585 Y61.231
G0 X84.653 Y58.153
G0 X142.625 Y58.158
G0 X144.249 Y58.03
G1 F600 E44.67001
G1 F900 X144.251 Y54.251 E44.79589
G1 X145.748 Y54.252 E44.84575
G1 X145.753 Y57.754 E44.9624
G1 X145.867 Y58.03 E44.97235
G1 X144.249 Y58.03 E45.02625
G0 F2625 X144.942 Y57.83
G1 F900 X144.942 Y54.452 E45.13877
G0 F2625 X144.451 Y54.978
G1 F900 X145.55 Y54.978 E45.17538
G0 F2625 X145.552 Y56.644
G1 F900 X144.45 Y56.644 E45.21209
G1 F600 E44.21209
G0 F2625 X147.376 Y58.158
G0 X205.347 Y58.153
G0 X205.414 Y60.256
G0 X209.586 Y60.503
G0 X209.666 Y60.508
G0 X210.75 Y60.573
G1 F600 E45.21209
G1 F900 X210.773 Y60.293 E45.22144
G1 X210.824 Y60.092 E45.22835
G1 X210.9 Y59.919 E45.23465
G1 X211.027 Y59.727 E45.24231
G1 X211.16 Y59.583 E45.24884
G1 X211.311 Y59.465 E45.25523
G1 X211.511 Y59.357 E45.2628
G1 X211.694 Y59.294 E45.26925
G1 X211.781 Y59.28 E45.27218
G1 X211.843 Y59.269 E45.27428
G1 X211.899 Y59.26 E45.27617
G1 X212.1 Y59.26 E45.28286
G1 X212.108 Y59.261 E45.28313
G1 X212.299 Y59.294 E45.28959
G1 X212.498 Y59.362 E45.29659
G1 X212.548 Y59.388 E45.29847
G1 X212.548 Y59.387 E45.2985
G1 X212.679 Y59.459 E45.30348
G1 X212.798 Y59.549 E45.30845
G1 X212.798 Y59.55 E45.30849
G1 X212.842 Y59.585 E45.31036
G1 X212.939 Y59.69 E45.31512
G1 X212.979 Y59.734 E45.3171
G1 X213.023 Y59.801 E45.31977
G1 X213.05 Y59.84 E45.32135
G1 X213.092 Y59.904 E45.3239
G1 X213.178 Y60.103 E45.33112
G1 X213.227 Y60.292 E45.33763
G1 X213.25 Y60.573 E45.34702
G1 X213.25 Y214.428 E50.47198
G1 X213.227 Y214.699 E50.48104
G1 X213.196 Y214.823 E50.4853
G1 X213.197 Y214.823 E50.48533
G1 X213.177 Y214.899 E50.48795
G1 X213.094 Y215.09 E50.49489
G1 X212.981 Y215.263 E50.50177
G1 X212.915 Y215.336 E50.50505
G1 X212.845 Y215.413 E50.50852
G1 X212.726 Y215.505 E50.51353
G1 X212.684 Y215.537 E50.51529
G1 X212.609 Y215.579 E50.51815
G1 X212.499 Y215.638 E50.52231
G1 X212.429 Y215.663 E50.52478
G1 X212.312 Y215.704 E50.52891
G1 X212.092 Y215.74 E50.53634
G1 X211.907 Y215.74 E50.5425
G1 X211.691 Y215.704 E50.5498
G1 X211.511 Y215.641 E50.55615
G1 X211.308 Y215.532 E50.56382
G1 X211.251 Y215.489 E50.5662
G1 X211.155 Y215.414 E50.57026
G1 X211.022 Y215.269 E50.57681
G1 X210.97 Y215.192 E50.57991
G1 X210.91 Y215.099 E50.5836
G1 X210.881 Y215.034 E50.58597
G1 X210.88 Y215.034 E50.586
G1 X210.823 Y214.901 E50.59082
G1 X210.773 Y214.708 E50.59746
G1 X210.75 Y214.429 E50.60679
G1 X210.75 Y60.573 E55.73178
G0 F2625 X211.101 Y59.976
G1 F900 X212.9 Y59.976 E55.79171
G0 F2625 X211.582 Y59.546
G1 F900 X211.582 Y215.452 E60.98499
G0 F2625 X211.046 Y214.914
G1 F900 X212.952 Y214.914 E61.04848
G0 F2625 X213.05 Y213.248
G1 F900 X210.95 Y213.248 E61.11844
G0 F2625 X210.95 Y211.582
G1 F900 X213.05 Y211.582 E61.18839
G0 F2625 X213.05 Y209.916
G1 F900 X210.95 Y209.916 E61.25834
G0 F2625 X210.95 Y208.25
G1 F900 X213.05 Y208.25 E61.32829
G0 F2625 X213.05 Y206.584
G1 F900 X210.95 Y206.584 E61.39824
G0 F2625 X210.95 Y204.918
G1 F900 X213.05 Y204.918 E61.46819
G0 F2625 X213.05 Y203.252
G1 F900 X210.95 Y203.252 E61.53815
G0 F2625 X210.95 Y201.586
G1 F900 X213.05 Y201.586 E61.6081
G0 F2625 X213.05 Y199.92
G1 F900 X210.95 Y199.92 E61.67805
G0 F2625 X210.95 Y198.254
G1 F900 X213.05 Y198.254 E61.748
G0 F2625 X213.05 Y196.588
G1 F900 X210.95 Y196.588 E61.81795
G0 F2625 X210.95 Y194.922
G1 F900 X213.05 Y194.922 E61.88791
G0 F2625 X213.05 Y193.256
G1 F900 X210.95 Y193.256 E61.95786
G0 F2625 X210.95 Y191.59
G1 F900 X213.05 Y191.59 E62.02781
G0 F2625 X213.05 Y189.924
G1 F900 X210.95 Y189.924 E62.09776
G0 F2625 X210.95 Y188.258
G1 F900 X213.05 Y188.258 E62.16771
G0 F2625 X213.05 Y186.592
G1 F900 X210.95 Y186.592 E62.23766
G0 F2625 X210.95 Y184.926
G1 F900 X213.05 Y184.926 E62.30762
G0 F2625 X213.05 Y183.26
G1 F900 X210.95 Y183.26 E62.37757
G0 F2625 X210.95 Y181.594
G1 F900 X213.05 Y181.594 E62.44752
G0 F2625 X213.05 Y179.928
G1 F900 X210.95 Y179.928 E62.51747
G0 F2625 X210.95 Y178.262
G1 F900 X213.05 Y178.262 E62.58742
G0 F2625 X213.05 Y176.596
G1 F900 X210.95 Y176.596 E62.65737
G0 F2625 X210.95 Y174.93
G1 F900 X213.05 Y174.93 E62.72733
G0 F2625 X213.05 Y173.264
G1 F900 X210.95 Y173.264 E62.79728
G0 F2625 X210.95 Y171.598
G1 F900 X213.05 Y171.598 E62.86723
G0 F2625 X213.05 Y169.932
G1 F900 X210.95 Y169.932 E62.93718
G0 F2625 X210.95 Y168.266
G1 F900 X213.05 Y168.266 E63.00713
G0 F2625 X213.05 Y166.6
G1 F900 X210.95 Y166.6 E63.07709
G0 F2625 X210.95 Y164.934
G1 F900 X213.05 Y164.934 E63.14704
G0 F2625 X213.05 Y163.268
G1 F900 X210.95 Y163.268 E63.21699
G0 F2625 X210.95 Y161.602
G1 F900 X213.05 Y161.602 E63.28694
G0 F2625 X213.05 Y159.936
G1 F900 X210.95 Y159.936 E63.35689
G0 F2625 X210.95 Y158.27
G1 F900 X213.05 Y158.27 E63.42684
G0 F2625 X213.05 Y156.604
G1 F900 X210.95 Y156.604 E63.4968
G0 F2625 X210.95 Y154.938
G1 F900 X213.05 Y154.938 E63.56675
G0 F2625 X213.05 Y153.272
G1 F900 X210.95 Y153.272 E63.6367
G0 F2625 X210.95 Y151.606
G1 F900 X213.05 Y151.606 E63.70665
G0 F2625 X213.05 Y149.94
G1 F900 X210.95 Y149.94 E63.7766
G0 F2625 X210.95 Y148.274
G1 F900 X213.05 Y148.274 E63.84655
G0 F2625 X213.05 Y146.608
G1 F900 X210.95 Y146.608 E63.91651
G0 F2625 X210.95 Y144.942
G1 F900 X213.05 Y144.942 E63.98646
G0 F2625 X213.05 Y143.276
G1 F900 X210.95 Y143.276 E64.05641
G0 F2625 X210.95 Y141.61
G1 F900 X213.05 Y141.61 E64.12636
G0 F2625 X213.05 Y139.944
G1 F900 X210.95 Y139.944 E64.19631
G0 F2625 X210.95 Y138.278
G1 F900 X213.05 Y138.278 E64.26627
G0 F2625 X213.05 Y136.612
G1 F900 X210.95 Y136.612 E64.33622
G0 F2625 X210.95 Y134.946
G1 F900 X213.05 Y134.946 E64.40617
G0 F2625 X213.05 Y133.28
G1 F900 X210.95 Y133.28 E64.47612
G0 F2625 X210.95 Y131.614
G1 F900 X213.05 Y131.614 E64.54607
G0 F2625 X213.05 Y129.948
G1 F900 X210.95 Y129.948 E64.61602
G0 F2625 X210.95 Y128.282
G1 F900 X213.05 Y128.282 E64.68598
G0 F2625 X213.05 Y126.616
G1 F900 X210.95 Y126.616 E64.75593
G0 F2625 X210.95 Y124.95
G1 F900 X213.05 Y124.95 E64.82588
G0 F2625 X213.05 Y123.284
G1 F900 X210.95 Y123.284 E64.89583
G0 F2625 X210.95 Y121.618
G1 F900 X213.05 Y121.618 E64.96578
G0 F2625 X213.05 Y119.952
G1 F900 X210.95 Y119.952 E65.03573
G0 F2625 X210.95 Y118.286
G1 F900 X213.05 Y118.286 E65.10569
G0 F2625 X213.05 Y116.62
G1 F900 X210.95 Y116.62 E65.17564
G0 F2625 X210.95 Y114.954
