;Generated by Cura LulzBot Edition GCodeWriter Version: 2.6.69
;FLAVOR:RepRap
;TIME:5883
;Filament used: 2.15421m
;Layer height: 0.25
;Generated with Cura_SteamEngine 2.6.69
;This G-Code has been generated specifically for the LulzBot TAZ 5 with standard extruder
M140 S60    ; start bed heating up
G21                      ; set units to Millimetres
G90                      ; absolute positioning
M107                     ; disable fans
M82                      ; set extruder to absolute mode
G28 X0 Y0                ; home X and Y
G28 Z0                   ; home Z
G1 Z15.0 F{travel_speed} ; move extruder up
M117 Heating...                     ; progress indicator message on LCD
M109 R215  ; wait for extruder to reach printing temp
M190 S60    ; wait for bed to reach printing temp
G92 E0                   ; set extruder position to 0
G1 F200 E0               ; prime the nozzle with filament
G92 E0                   ; re-set extruder position to 0
G1 F{travel_speed}       ; set travel speed
M203 X192 Y208 Z3        ; set limits on travel speed
M117 TAZ 5 Printing...   ; progress indicator message on LCD

M221 S100
;LAYER_COUNT:31
;LAYER:0
M107
G0 F2625 X95.028 Y55.035 Z0.424
;TYPE:SKIRT
G1 F900 X95.294 Y54.6 E0.01698
G1 X95.624 Y54.213 E0.03393
G1 X96.011 Y53.881 E0.05091
G1 X96.446 Y53.615 E0.0679
G1 X96.916 Y53.419 E0.08486
G1 X97.411 Y53.3 E0.10182
G1 X97.924 Y53.259 E0.11896
G1 X105.911 Y53.26 E0.38501
G1 X106.419 Y53.3 E0.40198
G1 X107.148 Y53.504 E0.4272
G1 X108.997 Y54.265 E0.4938
G1 X114.14 Y56.166 E0.67645
G1 X119.363 Y57.766 E0.85841
G1 X124.725 Y59.084 E1.04233
G1 X127.341 Y59.607 E1.1312
G1 X132.777 Y60.461 E1.31449
G1 X138.221 Y61.005 E1.49674
G1 X143.71 Y61.239 E1.67974
G1 X151.044 Y61.263 E1.92404
G1 X151.388 Y61.282 E1.93552
G1 X153.35 Y61.498 E2.00127
G1 X158.835 Y61.889 E2.18444
G1 X164.314 Y61.971 E2.36697
G1 X169.774 Y61.743 E2.549
G1 X175.035 Y61.263 E2.72498
G1 X175.333 Y61.25 E2.73491
G1 X186.994 Y61.259 E3.12334
G1 X187.501 Y61.299 E3.14028
G1 X187.997 Y61.419 E3.15728
G1 X188.467 Y61.614 E3.17423
G1 X188.902 Y61.88 E3.19122
G1 X189.289 Y62.211 E3.20818
G1 X189.62 Y62.598 E3.22514
G1 X189.886 Y63.033 E3.24213
G1 X190.082 Y63.503 E3.25909
G1 X190.201 Y63.999 E3.27608
G1 X190.241 Y64.509 E3.29312
G1 X190.24 Y76.495 E3.69238
G1 X190.2 Y77.003 E3.70935
G1 X190.148 Y77.262 E3.71815
G1 X188.911 Y82.36 E3.8929
G1 X188.369 Y85.051 E3.98434
G1 X187.919 Y87.699 E4.07381
G1 X187.223 Y93.153 E4.25695
G1 X186.836 Y98.63 E4.43985
G1 X186.75 Y102.687 E4.57502
G1 X186.79 Y175.026 E6.98466
G1 X187.1 Y180.502 E7.16736
G1 X187.717 Y185.933 E7.34943
G1 X188.645 Y191.346 E7.53237
G1 X189.212 Y193.98 E7.62212
G1 X190.143 Y197.714 E7.75031
G1 X190.228 Y198.216 E7.76727
G1 X190.24 Y198.5 E7.77674
G1 X190.241 Y210.491 E8.17616
G1 X190.201 Y210.999 E8.19314
G1 X190.082 Y211.494 E8.21009
G1 X189.888 Y211.965 E8.22706
G1 X189.622 Y212.4 E8.24405
G1 X189.291 Y212.787 E8.26101
G1 X188.904 Y213.118 E8.27797
G1 X188.47 Y213.385 E8.29495
G1 X187.999 Y213.581 E8.31194
G1 X187.302 Y213.726 E8.33565
G1 X183.31 Y214.11 E8.46924
G1 X177.88 Y214.889 E8.65197
G1 X172.488 Y215.977 E8.8352
G1 X169.767 Y216.647 E8.92854
G1 X169.264 Y216.729 E8.94552
G1 X168.969 Y216.741 E8.95535
G1 X150.41 Y216.619 E9.57358
G1 X144.933 Y216.851 E9.75618
G1 X139.493 Y217.391 E9.93828
G1 X134.076 Y218.241 E10.12093
G1 X128.736 Y219.39 E10.30288
G1 X126.113 Y220.073 E10.39316
G1 X120.846 Y221.685 E10.57664
G1 X115.727 Y223.573 E10.75839
G1 X110.672 Y225.771 E10.942
G1 X107.338 Y227.408 E11.06572
G1 X106.864 Y227.596 E11.08271
G1 X106.367 Y227.708 E11.09968
G1 X105.905 Y227.741 E11.11511
G1 X97.924 Y227.741 E11.38096
G1 X97.416 Y227.701 E11.39793
G1 X96.921 Y227.582 E11.41489
G1 X96.45 Y227.387 E11.43187
G1 X96.015 Y227.121 E11.44885
G1 X95.628 Y226.791 E11.46579
G1 X95.296 Y226.404 E11.48278
G1 X95.03 Y225.969 E11.49976
G1 X94.834 Y225.499 E11.51673
G1 X94.715 Y225.004 E11.53368
G1 X94.674 Y224.491 E11.55083
G1 X94.674 Y56.509 E17.14637
G1 X94.714 Y56.001 E17.16334
G1 X94.833 Y55.506 E17.1803
G1 X95.028 Y55.035 E17.19728
G1 F600 E16.19728
G0 F2625 X97.25 Y57.264
G0 X98.679 Y57.264
G0 X98.735 Y57.32
G0 X98.665 Y57.25
;TYPE:WALL-INNER
G1 F600 E17.19728
G1 F900 X105.165 Y57.25 E17.4138
G1 X105.165 Y223.75 E22.95997
G1 X98.665 Y223.75 E23.17649
G1 X98.665 Y215.64 E23.44664
G1 X98.665 Y215.524 E23.4505
G1 X98.665 Y215.191 E23.46159
G1 X98.665 Y215.071 E23.46559
G1 X98.744 Y215.191
G1 X99.051 Y215.524 E23.47208
G1 X99.142 Y215.595 E23.47553
G1 X99.408 Y215.803 E23.48678
G1 X99.81 Y216.022 E23.50203
G1 X100.24 Y216.168 E23.51716
G1 X100.688 Y216.243 E23.53229
G1 X101.142 Y216.243 E23.54741
G1 X101.589 Y216.169 E23.5625
G1 X102.022 Y216.022 E23.57773
G1 X102.421 Y215.804 E23.59288
G1 X102.78 Y215.525 E23.60802
G1 X103.088 Y215.19 E23.62318
G1 X103.336 Y214.809 E23.63833
G1 X103.519 Y214.392 E23.65349
G1 X103.63 Y213.953 E23.66858
G1 X103.665 Y213.531 E23.68268
G1 X103.665 Y67.469 E28.54806
G1 X103.63 Y67.047 E28.56217
G1 X103.519 Y66.608 E28.57725
G1 X103.336 Y66.191 E28.59242
G1 X103.088 Y65.81 E28.60756
G1 X102.78 Y65.475 E28.62272
G1 X102.421 Y65.196 E28.63787
G1 X102.022 Y64.978 E28.65301
G1 X101.589 Y64.831 E28.66824
G1 X101.142 Y64.757 E28.68334
G1 X100.688 Y64.757 E28.69846
G1 X100.24 Y64.832 E28.71359
G1 X99.81 Y64.978 E28.72872
G1 X99.408 Y65.197 E28.74396
G1 X99.142 Y65.405 E28.75521
G1 X99.051 Y65.476 E28.75906
G1 X98.744 Y65.809 E28.77414
G1 X98.665 Y65.929 E28.77893
G1 X98.665 Y65.809
G1 X98.665 Y65.476
G1 X98.665 Y65.36 E28.7824
G1 X98.665 Y57.25 E29.05255
G0 F2625 X98.165 Y56.75
;TYPE:WALL-OUTER
G1 F900 X105.665 Y56.75 E29.30238
G1 X105.665 Y224.25 E34.88186
G1 X98.165 Y224.25 E35.13169
G1 X98.165 Y213.511 E35.48941
G1 X98.165 Y67.489 E40.35345
G1 X98.165 Y56.75 E40.71117
G0 F2625 X98.415 Y56.75
G0 X98.735 Y57.32
G0 X100.265 Y64.727
G0 X100.363 Y65.318
G1 F900 X100.011 Y65.438 E40.72356
G1 X99.683 Y65.616 E40.73599
G1 X99.391 Y65.845 E40.74835
G1 X99.139 Y66.118 E40.76073
G1 X98.935 Y66.429 E40.77312
G1 X98.787 Y66.77 E40.7855
G1 X98.696 Y67.129 E40.79784
G1 X98.665 Y67.489 E40.80987
G1 X98.665 Y213.511 E45.67392
G1 X98.696 Y213.871 E45.68596
G1 X98.787 Y214.23 E45.69829
G1 X98.935 Y214.571 E45.71067
G1 X99.139 Y214.882 E45.72306
G1 X99.391 Y215.155 E45.73544
G1 X99.683 Y215.384 E45.7478
G1 X100.011 Y215.562 E45.76023
G1 X100.363 Y215.682 E45.77262
G1 X100.729 Y215.743 E45.78498
G1 X101.101 Y215.743 E45.79737
G1 X101.467 Y215.682 E45.80973
G1 X101.82 Y215.562 E45.82215
G1 X102.146 Y215.384 E45.83452
G1 X102.44 Y215.156 E45.84692
G1 X102.692 Y214.882 E45.85932
G1 X102.895 Y214.571 E45.87169
G1 X103.044 Y214.23 E45.88408
G1 X103.135 Y213.87 E45.89645
G1 X103.165 Y213.51 E45.90848
G1 X103.165 Y67.49 E50.77246
G1 X103.135 Y67.13 E50.7845
G1 X103.044 Y66.77 E50.79687
G1 X102.895 Y66.429 E50.80926
G1 X102.692 Y66.118 E50.82163
G1 X102.44 Y65.844 E50.83403
G1 X102.146 Y65.616 E50.84643
G1 X101.82 Y65.438 E50.8588
G1 X101.467 Y65.318 E50.87122
G1 X101.101 Y65.257 E50.88358
G1 X100.729 Y65.257 E50.89597
G1 X100.363 Y65.318 E50.90833
G0 F2625 X100.126 Y65.398
G0 X100.023 Y64.667
;TYPE:SKIN
G1 F900 X98.888 Y63.533 E50.96177
G1 X98.8 Y63.445
G0 F2625 X98.888 Y62.826
G1 F900 X100.605 Y64.542 E51.04263
G1 X100.693 Y64.63
G0 F2625 X101.329 Y64.56
G1 F900 X98.888 Y62.119 E51.15762
G1 X98.8 Y62.031
G0 F2625 X98.888 Y61.412
G1 F900 X102.409 Y64.932 E51.32347
G1 X102.497 Y65.02
G0 F2625 X103.484 Y66.007
G1 F900 X104.939 Y67.462 E51.39201
G1 X105.027 Y67.55
G0 F2625 X104.939 Y66.755
G1 F900 X98.888 Y60.705 E51.67704
G1 X98.8 Y60.617
G0 F2625 X98.888 Y59.998
G1 F900 X104.939 Y66.048 E51.96206
G1 X105.027 Y66.136
G0 F2625 X104.939 Y65.341
G1 F900 X98.888 Y59.29 E52.24711
G1 X98.8 Y59.202
G0 F2625 X98.888 Y58.583
G1 F900 X104.939 Y64.634 E52.53216
G1 X105.027 Y64.722
G0 F2625 X104.939 Y63.927
G1 F900 X98.888 Y57.876 E52.81721
G1 X98.8 Y57.788
G0 F2625 X99.194 Y57.475
G1 F900 X104.939 Y63.22 E53.08785
G1 X105.027 Y63.308
G0 F2625 X104.939 Y62.513
G1 F900 X99.901 Y57.475 E53.32518
G1 X99.813 Y57.387
G0 F2625 X100.608 Y57.475
G1 F900 X104.939 Y61.806 E53.5292
G1 X105.027 Y61.894
G0 F2625 X104.939 Y61.098
G1 F900 X101.315 Y57.475 E53.6999
G1 X101.227 Y57.387
G0 F2625 X102.022 Y57.475
G1 F900 X104.939 Y60.391 E53.83729
G1 X105.027 Y60.479
G0 F2625 X104.939 Y59.684
G1 F900 X102.729 Y57.475 E53.94138
G1 X102.641 Y57.387
G0 F2625 X103.436 Y57.475
G1 F900 X104.939 Y58.977 E54.01216
G1 X105.027 Y59.065
G0 F2625 X104.939 Y58.27
G1 F900 X104.144 Y57.475 E54.04961
G1 X104.056 Y57.387
G0 F2625 X104.851 Y57.475
G1 F900 X104.939 Y57.563 E54.05375
G0 F2625 X98.888 Y64.24
G0 X99.206 Y64.558
G1 F900 X98.991 Y65.05 E54.0736
G0 F2625 X98.888 Y64.947
G0 X100.685 Y64.718
G0 X101.598 Y64.793
G0 X102.038 Y64.942
G0 X102.807 Y65.446
G0 X103.371 Y66.172
G0 X103.857 Y67.088
G1 F900 X104.939 Y68.17 E54.12457
G1 X105.027 Y68.258
G0 F2625 X104.939 Y68.877
G1 F900 X103.889 Y67.827 E54.17404
G1 X103.801 Y67.739
G0 F2625 X103.889 Y68.534
G1 F900 X104.939 Y69.584 E54.2235
G1 X105.027 Y69.672
G0 F2625 X104.939 Y70.291
G1 F900 X103.889 Y69.241 E54.27296
G1 X103.801 Y69.153
G0 F2625 X103.889 Y69.948
G1 F900 X104.939 Y70.998 E54.32243
G1 X105.027 Y71.086
G0 F2625 X104.939 Y71.705
G1 F900 X103.889 Y70.655 E54.37189
G1 X103.801 Y70.567
G0 F2625 X103.889 Y71.362
G1 F900 X104.939 Y72.412 E54.42135
G1 X105.027 Y72.5
G0 F2625 X104.939 Y73.119
G1 F900 X103.889 Y72.069 E54.47082
G1 X103.801 Y71.981
G0 F2625 X103.889 Y72.776
G1 F900 X104.939 Y73.826 E54.52028
G1 X105.027 Y73.914
G0 F2625 X104.939 Y74.534
G1 F900 X103.889 Y73.483 E54.56977
G1 X103.801 Y73.395
G0 F2625 X103.889 Y74.191
G1 F900 X104.939 Y75.241 E54.61923
G1 X105.027 Y75.329
G0 F2625 X104.939 Y75.948
G1 F900 X103.889 Y74.898 E54.6687
G1 X103.801 Y74.81
G0 F2625 X103.889 Y75.605
G1 F900 X104.939 Y76.655 E54.71816
G1 X105.027 Y76.743
G0 F2625 X104.939 Y77.362
G1 F900 X103.889 Y76.312 E54.76762
G1 X103.801 Y76.224
G0 F2625 X103.889 Y77.019
G1 F900 X104.939 Y78.069 E54.81709
G1 X105.027 Y78.157
G0 F2625 X104.939 Y78.776
G1 F900 X103.889 Y77.726 E54.86655
G1 X103.801 Y77.638
G0 F2625 X103.889 Y78.433
G1 F900 X104.939 Y79.483 E54.91601
G1 X105.027 Y79.571
G0 F2625 X104.939 Y80.19
G1 F900 X103.889 Y79.14 E54.96548
G1 X103.801 Y79.052
G0 F2625 X103.889 Y79.847
G1 F900 X104.939 Y80.897 E55.01494
G1 X105.027 Y80.985
G0 F2625 X104.939 Y81.605
G1 F900 X103.889 Y80.555 E55.0644
G1 X103.801 Y80.467
G0 F2625 X103.889 Y81.262
G1 F900 X104.939 Y82.312 E55.11387
G1 X105.027 Y82.4
G0 F2625 X104.939 Y83.019
G1 F900 X103.889 Y81.969 E55.16333
G1 X103.801 Y81.881
G0 F2625 X103.889 Y82.676
G1 F900 X104.939 Y83.726 E55.21279
G1 X105.027 Y83.814
G0 F2625 X104.939 Y84.433
G1 F900 X103.889 Y83.383 E55.26226
G1 X103.801 Y83.295
G0 F2625 X103.889 Y84.09
G1 F900 X104.939 Y85.14 E55.31172
G1 X105.027 Y85.228
G0 F2625 X104.939 Y85.847
G1 F900 X103.889 Y84.797 E55.36118
G1 X103.801 Y84.709
G0 F2625 X103.889 Y85.504
G1 F900 X104.939 Y86.554 E55.41065
G1 X105.027 Y86.642
G0 F2625 X104.939 Y87.261
G1 F900 X103.889 Y86.211 E55.46011
G1 X103.801 Y86.123
G0 F2625 X103.889 Y86.918
G1 F900 X104.939 Y87.969 E55.5096
G1 X105.027 Y88.057
G0 F2625 X104.939 Y88.676
G1 F900 X103.889 Y87.626 E55.55906
G1 X103.801 Y87.538
G0 F2625 X103.889 Y88.333
G1 F900 X104.939 Y89.383 E55.60852
G1 X105.027 Y89.471
G0 F2625 X104.939 Y90.09
G1 F900 X103.889 Y89.04 E55.65799
G1 X103.801 Y88.952
G0 F2625 X103.889 Y89.747
G1 F900 X104.939 Y90.797 E55.70745
G1 X105.027 Y90.885
G0 F2625 X104.939 Y91.504
G1 F900 X103.889 Y90.454 E55.75691
G1 X103.801 Y90.366
G0 F2625 X103.889 Y91.161
G1 F900 X104.939 Y92.211 E55.80638
G1 X105.027 Y92.299
G0 F2625 X104.939 Y92.918
G1 F900 X103.889 Y91.868 E55.85584
G1 X103.801 Y91.78
G0 F2625 X103.889 Y92.575
G1 F900 X104.939 Y93.625 E55.9053
G1 X105.027 Y93.713
G0 F2625 X104.939 Y94.332
G1 F900 X103.889 Y93.282 E55.95477
G1 X103.801 Y93.194
G0 F2625 X103.889 Y93.99
G1 F900 X104.939 Y95.04 E56.00423
G1 X105.027 Y95.128
G0 F2625 X104.939 Y95.747
G1 F900 X103.889 Y94.697 E56.05369
G1 X103.801 Y94.609
G0 F2625 X103.889 Y95.404
G1 F900 X104.939 Y96.454 E56.10316
G1 X105.027 Y96.542
G0 F2625 X104.939 Y97.161
G1 F900 X103.889 Y96.111 E56.15262
G1 X103.801 Y96.023
G0 F2625 X103.889 Y96.818
G1 F900 X104.939 Y97.868 E56.20208
G1 X105.027 Y97.956
G0 F2625 X104.939 Y98.575
G1 F900 X103.889 Y97.525 E56.25155
G1 X103.801 Y97.437
G0 F2625 X103.889 Y98.232
G1 F900 X104.939 Y99.282 E56.30101
G1 X105.027 Y99.37
G0 F2625 X104.939 Y99.989
G1 F900 X103.889 Y98.939 E56.35047
G1 X103.801 Y98.851
G0 F2625 X103.889 Y99.646
G1 F900 X104.939 Y100.696 E56.39994
G1 X105.027 Y100.784
G0 F2625 X104.939 Y101.404
G1 F900 X103.889 Y100.354 E56.4494
G1 X103.801 Y100.266
G0 F2625 X103.889 Y101.061
G1 F900 X104.939 Y102.111 E56.49886
G1 X105.027 Y102.199
G0 F2625 X104.939 Y102.818
G1 F900 X103.889 Y101.768 E56.54833
G1 X103.801 Y101.68
G0 F2625 X103.889 Y102.475
G1 F900 X104.939 Y103.525 E56.59779
G1 X105.027 Y103.613
G0 F2625 X104.939 Y104.232
G1 F900 X103.889 Y103.182 E56.64725
G1 X103.801 Y103.094
G0 F2625 X103.889 Y103.889
G1 F900 X104.939 Y104.939 E56.69672
G1 X105.027 Y105.027
G0 F2625 X104.939 Y105.646
G1 F900 X103.889 Y104.596 E56.74618
G1 X103.801 Y104.508
G0 F2625 X103.889 Y105.303
G1 F900 X104.939 Y106.353 E56.79564
G1 X105.027 Y106.441
G0 F2625 X104.939 Y107.06
G1 F900 X103.889 Y106.01 E56.84511
G1 X103.801 Y105.922
G0 F2625 X103.889 Y106.717
G1 F900 X104.939 Y107.768 E56.89459
G1 X105.027 Y107.856
G0 F2625 X104.939 Y108.475
G1 F900 X103.889 Y107.425 E56.94406
G1 X103.801 Y107.337
G0 F2625 X103.889 Y108.132
G1 F900 X104.939 Y109.182 E56.99352
G1 X105.027 Y109.27
G0 F2625 X104.939 Y109.889
G1 F900 X103.889 Y108.839 E57.04298
G1 X103.801 Y108.751
G0 F2625 X103.889 Y109.546
G1 F900 X104.939 Y110.596 E57.09245
G1 X105.027 Y110.684
G0 F2625 X104.939 Y111.303
G1 F900 X103.889 Y110.253 E57.14191
G1 X103.801 Y110.165
G0 F2625 X103.889 Y110.96
G1 F900 X104.939 Y112.01 E57.19137
G1 X105.027 Y112.098
G0 F2625 X104.939 Y112.717
G1 F900 X103.889 Y111.667 E57.24084
G1 X103.801 Y111.579
G0 F2625 X103.889 Y112.374
G1 F900 X104.939 Y113.424 E57.2903
G1 X105.027 Y113.512
G0 F2625 X104.939 Y114.131
G1 F900 X103.889 Y113.081 E57.33976
G1 X103.801 Y112.993
G0 F2625 X103.889 Y113.789
G1 F900 X104.939 Y114.839 E57.38923
G1 X105.027 Y114.927
G0 F2625 X104.939 Y115.546
G1 F900 X103.889 Y114.496 E57.43869
G1 X103.801 Y114.408
G0 F2625 X103.889 Y115.203
G1 F900 X104.939 Y116.253 E57.48815
G1 X105.027 Y116.341
G0 F2625 X104.939 Y116.96
G1 F900 X103.889 Y115.91 E57.53762
G1 X103.801 Y115.822
G0 F2625 X103.889 Y116.617
G1 F900 X104.939 Y117.667 E57.58708
G1 X105.027 Y117.755
G0 F2625 X104.939 Y118.374
G1 F900 X103.889 Y117.324 E57.63654
G1 X103.801 Y117.236
G0 F2625 X103.889 Y118.031
G1 F900 X104.939 Y119.081 E57.68601
G1 X105.027 Y119.169
G0 F2625 X104.939 Y119.788
G1 F900 X103.889 Y118.738 E57.73547
G1 X103.801 Y118.65
G0 F2625 X103.889 Y119.445
G1 F900 X104.939 Y120.495 E57.78493
G1 X105.027 Y120.583
G0 F2625 X104.939 Y121.203
G1 F900 X103.889 Y120.152 E57.83442
G1 X103.801 Y120.064
G0 F2625 X103.889 Y120.86
G1 F900 X104.939 Y121.91 E57.88388
G1 X105.027 Y121.998
G0 F2625 X104.939 Y122.617
G1 F900 X103.889 Y121.567 E57.93335
G1 X103.801 Y121.479
G0 F2625 X103.889 Y122.274
G1 F900 X104.939 Y123.324 E57.98281
G1 X105.027 Y123.412
G0 F2625 X104.939 Y124.031
G1 F900 X103.889 Y122.981 E58.03227
G1 X103.801 Y122.893
G0 F2625 X103.889 Y123.688
G1 F900 X104.939 Y124.738 E58.08174
G1 X105.027 Y124.826
G0 F2625 X104.939 Y125.445
G1 F900 X103.889 Y124.395 E58.1312
G1 X103.801 Y124.307
G0 F2625 X103.889 Y125.102
G1 F900 X104.939 Y126.152 E58.18066
G1 X105.027 Y126.24
G0 F2625 X104.939 Y126.859
G1 F900 X103.889 Y125.809 E58.23013
G1 X103.801 Y125.721
G0 F2625 X103.889 Y126.516
G1 F900 X104.939 Y127.567 E58.27961
G1 X105.027 Y127.655
G0 F2625 X104.939 Y128.274
G1 F900 X103.889 Y127.224 E58.32908
G1 X103.801 Y127.136
G0 F2625 X103.889 Y127.931
G1 F900 X104.939 Y128.981 E58.37854
G1 X105.027 Y129.069
G0 F2625 X104.939 Y129.688
G1 F900 X103.889 Y128.638 E58.42801
G1 X103.801 Y128.55
G0 F2625 X103.889 Y129.345
