;Generated by Cura LulzBot Edition GCodeWriter Version: 2.6.69
;FLAVOR:RepRap
;TIME:6426
;Filament used: 2.39027m
;Layer height: 0.25
;Generated with Cura_SteamEngine 2.6.69
;This G-Code has been generated specifically for the LulzBot TAZ 5 with standard extruder
M140 S60    ; start bed heating up
G21                      ; set units to Millimetres
G90                      ; absolute positioning
M107                     ; disable fans
M82                      ; set extruder to absolute mode
G28 X0 Y0                ; home X and Y
G28 Z0                   ; home Z
G1 Z15.0 F{travel_speed} ; move extruder up
M117 Heating...                     ; progress indicator message on LCD
M109 R215  ; wait for extruder to reach printing temp
M190 S60    ; wait for bed to reach printing temp
G92 E0                   ; set extruder position to 0
G1 F200 E0               ; prime the nozzle with filament
G92 E0                   ; re-set extruder position to 0
G1 F{travel_speed}       ; set travel speed
M203 X192 Y208 Z3        ; set limits on travel speed
M117 TAZ 5 Printing...   ; progress indicator message on LCD

M221 S100
;LAYER_COUNT:31
;LAYER:0
M107
G0 F2625 X45.703 Y53.881 Z0.424
;TYPE:SKIRT
G1 F900 X46.138 Y53.615 E0.01698
G1 X46.608 Y53.419 E0.03395
G1 X47.103 Y53.3 E0.05091
G1 X47.617 Y53.259 E0.06808
G1 X55.607 Y53.261 E0.33423
G1 X56.115 Y53.301 E0.35121
G1 X56.804 Y53.49 E0.375
G1 X61.242 Y55.25 E0.53404
G1 X66.434 Y57.003 E0.71657
G1 X71.743 Y58.467 E0.90002
G1 X74.377 Y59.076 E0.99007
G1 X77.033 Y59.607 E1.0803
G1 X82.469 Y60.461 E1.26359
G1 X87.913 Y61.005 E1.44584
G1 X93.4 Y61.239 E1.62878
G1 X105.192 Y61.26 E2.02157
G1 X105.7 Y61.301 E2.03855
G1 X106.298 Y61.456 E2.05913
G1 X110.899 Y63.132 E2.22224
G1 X116.131 Y64.731 E2.40448
G1 X121.502 Y66.046 E2.58867
G1 X124.108 Y66.567 E2.6772
G1 X129.547 Y67.419 E2.86058
G1 X134.984 Y67.957 E3.04258
G1 X140.445 Y68.187 E3.22464
G1 X145.929 Y68.108 E3.40734
G1 X151.378 Y67.721 E3.5893
G1 X156.821 Y67.022 E3.7721
G1 X162.223 Y66.016 E3.95514
G1 X164.81 Y65.421 E4.04356
G1 X168.746 Y64.37 E4.17926
G1 X169.441 Y64.263 E4.20269
G1 X172.132 Y64.144 E4.29241
G1 X177.603 Y63.671 E4.47533
G1 X183.001 Y62.895 E4.65699
G1 X190.399 Y61.329 E4.90888
G1 X191.069 Y61.259 E4.93132
G1 X202.351 Y61.25 E5.30713
G1 X202.433 Y61.251 E5.30986
G1 X205.617 Y61.329 E5.41595
G1 X223.171 Y61.259 E6.00069
G1 X223.679 Y61.297 E6.01766
G1 X224.175 Y61.414 E6.03463
G1 X224.647 Y61.607 E6.05162
G1 X225.082 Y61.871 E6.06857
G1 X225.471 Y62.2 E6.08554
G1 X225.804 Y62.586 E6.10252
G1 X226.072 Y63.019 E6.11948
G1 X226.27 Y63.489 E6.13647
G1 X226.391 Y63.984 E6.15344
G1 X226.434 Y64.509 E6.17099
G1 X226.433 Y76.495 E6.57025
G1 X226.393 Y77.003 E6.58722
G1 X226.341 Y77.262 E6.59602
G1 X225.104 Y82.36 E6.77077
G1 X224.562 Y85.051 E6.8622
G1 X224.112 Y87.699 E6.95167
G1 X223.416 Y93.153 E7.13482
G1 X223.029 Y98.63 E7.31772
G1 X222.943 Y102.687 E7.45289
G1 X222.983 Y175.026 E9.86253
G1 X223.293 Y180.502 E10.04523
G1 X223.91 Y185.933 E10.2273
G1 X224.838 Y191.346 E10.41024
G1 X225.405 Y193.98 E10.49999
G1 X226.336 Y197.714 E10.62818
G1 X226.421 Y198.216 E10.64514
G1 X226.433 Y198.5 E10.65461
G1 X226.433 Y210.491 E11.05403
G1 X226.393 Y210.999 E11.071
G1 X226.274 Y211.494 E11.08796
G1 X226.079 Y211.965 E11.10494
G1 X225.813 Y212.4 E11.12193
G1 X225.483 Y212.787 E11.13887
G1 X225.096 Y213.119 E11.15585
G1 X224.661 Y213.385 E11.17284
G1 X224.191 Y213.581 E11.1898
G1 X223.696 Y213.7 E11.20676
G1 X223.186 Y213.741 E11.2238
G1 X211.903 Y213.75 E11.59964
G1 X211.821 Y213.749 E11.60237
G1 X208.646 Y213.671 E11.70817
G1 X204.288 Y213.706 E11.85334
G1 X200.483 Y213.858 E11.98019
G1 X195.006 Y214.333 E12.16331
G1 X189.597 Y215.113 E12.34535
G1 X182.273 Y216.667 E12.59475
G1 X181.596 Y216.738 E12.61742
G1 X169.55 Y216.729 E13.01868
G1 X169.042 Y216.689 E13.03565
G1 X168.397 Y216.517 E13.05789
G1 X166.479 Y215.788 E13.12624
G1 X161.266 Y214.031 E13.30948
G1 X155.964 Y212.573 E13.49265
G1 X153.302 Y211.962 E13.58363
G1 X147.948 Y210.968 E13.76502
G1 X142.51 Y210.275 E13.94762
G1 X137.056 Y209.89 E14.12975
G1 X131.576 Y209.813 E14.31231
G1 X126.115 Y210.047 E14.49439
G1 X120.675 Y210.589 E14.67649
G1 X115.254 Y211.441 E14.85928
G1 X109.926 Y212.589 E15.04083
G1 X106.027 Y213.629 E15.17525
G1 X105.355 Y213.735 E15.19791
G1 X98.42 Y214.09 E15.42922
G1 X92.997 Y214.706 E15.61103
G1 X87.606 Y215.63 E15.79322
G1 X82.279 Y216.856 E15.9753
G1 X79.653 Y217.578 E16.06602
G1 X74.426 Y219.259 E16.24892
G1 X69.318 Y221.226 E16.43125
G1 X64.314 Y223.488 E16.61417
G1 X61.888 Y224.709 E16.70464
G1 X57.186 Y227.329 E16.88394
G1 X56.723 Y227.541 E16.9009
G1 X56.232 Y227.679 E16.91789
G1 X55.604 Y227.74 E16.93891
G1 X47.616 Y227.741 E17.20499
G1 X47.108 Y227.701 E17.22197
G1 X46.613 Y227.582 E17.23892
G1 X46.142 Y227.388 E17.25589
G1 X45.708 Y227.122 E17.27285
G1 X45.32 Y226.791 E17.28984
G1 X44.989 Y226.404 E17.3068
G1 X44.722 Y225.97 E17.32377
G1 X44.526 Y225.499 E17.34077
G1 X44.407 Y225.004 E17.35772
G1 X44.366 Y224.491 E17.37487
G1 X44.366 Y56.509 E22.97041
G1 X44.406 Y56.001 E22.98738
G1 X44.525 Y55.506 E23.00434
G1 X44.72 Y55.035 E23.02132
G1 X44.986 Y54.6 E23.03831
G1 X45.316 Y54.213 E23.05525
G1 X45.703 Y53.881 E23.07223
G1 F600 E22.07223
G0 F2625 X48.371 Y55.835
G0 X48.371 Y57.264
G0 X48.427 Y57.32
G0 X48.357 Y57.25
;TYPE:WALL-INNER
G1 F600 E23.07223
G1 F900 X54.857 Y57.25 E23.28875
G1 X54.857 Y223.75 E28.83492
G1 X48.357 Y223.75 E29.05144
G1 X48.357 Y215.64 E29.32159
G1 X48.357 Y215.524 E29.32545
G1 X48.357 Y215.191 E29.33655
G1 X48.357 Y215.071 E29.34054
G1 X48.436 Y215.191
G1 X48.743 Y215.524 E29.34703
G1 X48.834 Y215.595 E29.35048
G1 X49.1 Y215.803 E29.36173
G1 X49.502 Y216.022 E29.37698
G1 X49.932 Y216.168 E29.39211
G1 X50.38 Y216.243 E29.40724
G1 X50.834 Y216.243 E29.42236
G1 X51.281 Y216.169 E29.43745
G1 X51.714 Y216.022 E29.45268
G1 X52.113 Y215.804 E29.46783
G1 X52.472 Y215.525 E29.48297
G1 X52.78 Y215.19 E29.49813
G1 X53.028 Y214.809 E29.51328
G1 X53.211 Y214.392 E29.52845
G1 X53.322 Y213.953 E29.54353
G1 X53.357 Y213.531 E29.55763
G1 X53.357 Y67.469 E34.42301
G1 X53.322 Y67.047 E34.43712
G1 X53.211 Y66.608 E34.4522
G1 X53.028 Y66.191 E34.46737
G1 X52.78 Y65.81 E34.48251
G1 X52.472 Y65.475 E34.49767
G1 X52.112 Y65.196 E34.51284
G1 X51.714 Y64.98 E34.52793
G1 X51.283 Y64.832 E34.54311
G1 X50.835 Y64.757 E34.55824
G1 X50.38 Y64.757 E34.57339
G1 X49.931 Y64.832 E34.58856
G1 X49.501 Y64.98 E34.60371
G1 X49.101 Y65.196 E34.61885
G1 X48.834 Y65.405 E34.63014
G1 X48.743 Y65.476 E34.63399
G1 X48.436 Y65.809 E34.64907
G1 X48.357 Y65.929 E34.65386
G1 X48.357 Y65.809
G1 X48.357 Y65.476
G1 X48.357 Y65.36 E34.65733
G1 X48.357 Y57.25 E34.92748
G0 F2625 X47.857 Y56.75
;TYPE:WALL-OUTER
G1 F900 X55.357 Y56.75 E35.17731
G1 X55.357 Y224.25 E40.75679
G1 X47.857 Y224.25 E41.00662
G1 X47.857 Y213.511 E41.36434
G1 X47.857 Y67.489 E46.22838
G1 X47.857 Y56.75 E46.5861
G0 F2625 X48.107 Y56.75
G0 X48.427 Y57.32
G0 X49.861 Y64.751
G0 X50.054 Y65.318
G1 F900 X49.703 Y65.439 E46.59847
G1 X49.376 Y65.616 E46.61086
G1 X49.083 Y65.845 E46.62324
G1 X48.831 Y66.118 E46.63562
G1 X48.627 Y66.429 E46.64801
G1 X48.479 Y66.77 E46.66039
G1 X48.388 Y67.129 E46.67273
G1 X48.357 Y67.489 E46.68476
G1 X48.357 Y213.511 E51.54881
G1 X48.388 Y213.871 E51.56085
G1 X48.479 Y214.23 E51.57318
G1 X48.627 Y214.571 E51.58557
G1 X48.831 Y214.882 E51.59796
G1 X49.083 Y215.155 E51.61033
G1 X49.375 Y215.384 E51.62269
G1 X49.703 Y215.562 E51.63512
G1 X50.055 Y215.682 E51.64751
G1 X50.421 Y215.743 E51.65987
G1 X50.793 Y215.743 E51.67226
G1 X51.159 Y215.682 E51.68462
G1 X51.512 Y215.562 E51.69704
G1 X51.838 Y215.384 E51.70941
G1 X52.132 Y215.156 E51.72181
G1 X52.384 Y214.882 E51.73421
G1 X52.587 Y214.571 E51.74658
G1 X52.736 Y214.23 E51.75897
G1 X52.827 Y213.87 E51.77134
G1 X52.857 Y213.51 E51.78338
G1 X52.857 Y67.49 E56.64735
G1 X52.827 Y67.13 E56.65939
G1 X52.736 Y66.77 E56.67176
G1 X52.587 Y66.429 E56.68415
G1 X52.384 Y66.118 E56.69652
G1 X52.132 Y65.844 E56.70892
G1 X51.838 Y65.616 E56.72132
G1 X51.512 Y65.439 E56.73367
G1 X51.16 Y65.318 E56.74607
G1 X50.794 Y65.257 E56.75843
G1 X50.421 Y65.257 E56.77086
G1 X50.054 Y65.318 E56.78325
G0 F2625 X49.818 Y65.399
G0 X49.791 Y64.64
;TYPE:SKIN
G1 F900 X48.581 Y63.431 E56.84023
G1 X48.493 Y63.343
G0 F2625 X48.581 Y64.138
G1 F900 X49.283 Y64.839 E56.87327
G0 F2625 X48.845 Y65.108
G1 F900 X48.581 Y64.845 E56.88569
G0 F2625 X50.389 Y64.531
G1 F900 X48.581 Y62.723 E56.97086
G1 X48.493 Y62.635
G0 F2625 X48.581 Y62.016
G1 F900 X51.145 Y64.58 E57.09164
G1 X51.233 Y64.668
G0 F2625 X52.425 Y65.153
G1 F900 X48.581 Y61.309 E57.27272
G1 X48.493 Y61.221
G0 F2625 X48.581 Y60.602
G1 F900 X54.631 Y66.652 E57.55773
G1 X54.719 Y66.74
G0 F2625 X54.631 Y65.945
G1 F900 X48.581 Y59.895 E57.84273
G1 X48.493 Y59.807
G0 F2625 X48.581 Y59.188
G1 F900 X54.631 Y65.238 E58.12773
G1 X54.719 Y65.326
G0 F2625 X54.631 Y64.531
G1 F900 X48.581 Y58.481 E58.41274
G1 X48.493 Y58.393
G0 F2625 X48.581 Y57.774
G1 F900 X54.631 Y63.824 E58.69774
G1 X54.719 Y63.912
G0 F2625 X54.631 Y63.117
G1 F900 X48.989 Y57.474 E58.96355
G1 X48.901 Y57.386
G0 F2625 X49.696 Y57.474
G1 F900 X54.631 Y62.409 E59.19603
G1 X54.719 Y62.497
G0 F2625 X54.631 Y61.702
G1 F900 X50.403 Y57.474 E59.3952
G1 X50.315 Y57.386
G0 F2625 X51.11 Y57.474
G1 F900 X54.631 Y60.995 E59.56106
G1 X54.719 Y61.083
G0 F2625 X54.631 Y60.288
G1 F900 X51.817 Y57.474 E59.69363
G1 X51.729 Y57.386
G0 F2625 X52.524 Y57.474
G1 F900 X54.631 Y59.581 E59.79288
G1 X54.719 Y59.669
G0 F2625 X54.631 Y58.874
G1 F900 X53.231 Y57.474 E59.85883
G1 X53.143 Y57.386
G0 F2625 X53.938 Y57.474
G1 F900 X54.631 Y58.167 E59.89148
G0 F2625 X52.985 Y65.713
G1 F900 X54.631 Y67.359 E59.96902
G1 X54.719 Y67.447
G0 F2625 X54.631 Y68.066
G1 F900 X53.534 Y66.969 E60.0207
G1 X53.446 Y66.881
G0 F2625 X53.581 Y67.723
G1 F900 X54.631 Y68.773 E60.07016
G1 X54.719 Y68.861
G0 F2625 X54.631 Y69.481
G1 F900 X53.581 Y68.43 E60.11965
G1 X53.493 Y68.342
G0 F2625 X53.581 Y69.138
G1 F900 X54.631 Y70.188 E60.16911
G1 X54.719 Y70.276
G0 F2625 X54.631 Y70.895
G1 F900 X53.581 Y69.845 E60.21857
G1 X53.493 Y69.757
G0 F2625 X53.581 Y70.552
G1 F900 X54.631 Y71.602 E60.26804
G1 X54.719 Y71.69
G0 F2625 X54.631 Y72.309
G1 F900 X53.581 Y71.259 E60.3175
G1 X53.493 Y71.171
G0 F2625 X53.581 Y71.966
G1 F900 X54.631 Y73.016 E60.36696
G1 X54.719 Y73.104
G0 F2625 X54.631 Y73.723
G1 F900 X53.581 Y72.673 E60.41643
G1 X53.493 Y72.585
G0 F2625 X53.581 Y73.38
G1 F900 X54.631 Y74.43 E60.46589
G1 X54.719 Y74.518
G0 F2625 X54.631 Y75.137
G1 F900 X53.581 Y74.087 E60.51535
G1 X53.493 Y73.999
G0 F2625 X53.581 Y74.794
G1 F900 X54.631 Y75.844 E60.56482
G1 X54.719 Y75.932
G0 F2625 X54.631 Y76.552
G1 F900 X53.581 Y75.502 E60.61428
G1 X53.493 Y75.414
G0 F2625 X53.581 Y76.209
G1 F900 X54.631 Y77.259 E60.66374
G1 X54.719 Y77.347
G0 F2625 X54.631 Y77.966
G1 F900 X53.581 Y76.916 E60.71321
G1 X53.493 Y76.828
G0 F2625 X53.581 Y77.623
G1 F900 X54.631 Y78.673 E60.76267
G1 X54.719 Y78.761
G0 F2625 X54.631 Y79.38
G1 F900 X53.581 Y78.33 E60.81213
G1 X53.493 Y78.242
G0 F2625 X53.581 Y79.037
G1 F900 X54.631 Y80.087 E60.8616
G1 X54.719 Y80.175
G0 F2625 X54.631 Y80.794
G1 F900 X53.581 Y79.744 E60.91106
G1 X53.493 Y79.656
G0 F2625 X53.581 Y80.451
G1 F900 X54.631 Y81.501 E60.96052
G1 X54.719 Y81.589
G0 F2625 X54.631 Y82.208
G1 F900 X53.581 Y81.158 E61.00999
G1 X53.493 Y81.07
G0 F2625 X53.581 Y81.865
G1 F900 X54.631 Y82.916 E61.05947
G1 X54.719 Y83.004
G0 F2625 X54.631 Y83.623
G1 F900 X53.581 Y82.573 E61.10894
G1 X53.493 Y82.485
G0 F2625 X53.581 Y83.28
G1 F900 X54.631 Y84.33 E61.1584
G1 X54.719 Y84.418
G0 F2625 X54.631 Y85.037
G1 F900 X53.581 Y83.987 E61.20787
G1 X53.493 Y83.899
G0 F2625 X53.581 Y84.694
G1 F900 X54.631 Y85.744 E61.25733
G1 X54.719 Y85.832
G0 F2625 X54.631 Y86.451
G1 F900 X53.581 Y85.401 E61.30679
G1 X53.493 Y85.313
G0 F2625 X53.581 Y86.108
G1 F900 X54.631 Y87.158 E61.35626
G1 X54.719 Y87.246
G0 F2625 X54.631 Y87.865
G1 F900 X53.581 Y86.815 E61.40572
G1 X53.493 Y86.727
G0 F2625 X53.581 Y87.522
G1 F900 X54.631 Y88.572 E61.45518
G1 X54.719 Y88.66
G0 F2625 X54.631 Y89.28
G1 F900 X53.581 Y88.229 E61.50467
G1 X53.493 Y88.141
G0 F2625 X53.581 Y88.937
G1 F900 X54.631 Y89.987 E61.55413
G1 X54.719 Y90.075
G0 F2625 X54.631 Y90.694
G1 F900 X53.581 Y89.644 E61.6036
G1 X53.493 Y89.556
G0 F2625 X53.581 Y90.351
G1 F900 X54.631 Y91.401 E61.65306
G1 X54.719 Y91.489
G0 F2625 X54.631 Y92.108
G1 F900 X53.581 Y91.058 E61.70252
G1 X53.493 Y90.97
G0 F2625 X53.581 Y91.765
G1 F900 X54.631 Y92.815 E61.75199
G1 X54.719 Y92.903
G0 F2625 X54.631 Y93.522
G1 F900 X53.581 Y92.472 E61.80145
G1 X53.493 Y92.384
G0 F2625 X53.581 Y93.179
G1 F900 X54.631 Y94.229 E61.85091
G1 X54.719 Y94.317
G0 F2625 X54.631 Y94.936
G1 F900 X53.581 Y93.886 E61.90038
G1 X53.493 Y93.798
G0 F2625 X53.581 Y94.593
G1 F900 X54.631 Y95.643 E61.94984
G1 X54.719 Y95.731
G0 F2625 X54.631 Y96.351
G1 F900 X53.581 Y95.301 E61.9993
G1 X53.493 Y95.213
G0 F2625 X53.581 Y96.008
G1 F900 X54.631 Y97.058 E62.04877
G1 X54.719 Y97.146
G0 F2625 X54.631 Y97.765
G1 F900 X53.581 Y96.715 E62.09823
G1 X53.493 Y96.627
G0 F2625 X53.581 Y97.422
G1 F900 X54.631 Y98.472 E62.14769
G1 X54.719 Y98.56
G0 F2625 X54.631 Y99.179
G1 F900 X53.581 Y98.129 E62.19716
G1 X53.493 Y98.041
G0 F2625 X53.581 Y98.836
G1 F900 X54.631 Y99.886 E62.24662
G1 X54.719 Y99.974
G0 F2625 X54.631 Y100.593
G1 F900 X53.581 Y99.543 E62.29608
G1 X53.493 Y99.455
G0 F2625 X53.581 Y100.25
G1 F900 X54.631 Y101.3 E62.34555
G1 X54.719 Y101.388
G0 F2625 X54.631 Y102.007
G1 F900 X53.581 Y100.957 E62.39501
G1 X53.493 Y100.869
G0 F2625 X53.581 Y101.664
G1 F900 X54.631 Y102.715 E62.4445
G1 X54.719 Y102.803
G0 F2625 X54.631 Y103.422
G1 F900 X53.581 Y102.372 E62.49396
G1 X53.493 Y102.284
G0 F2625 X53.581 Y103.079
G1 F900 X54.631 Y104.129 E62.54342
G1 X54.719 Y104.217
G0 F2625 X54.631 Y104.836
G1 F900 X53.581 Y103.786 E62.59289
G1 X53.493 Y103.698
G0 F2625 X53.581 Y104.493
G1 F900 X54.631 Y105.543 E62.64235
G1 X54.719 Y105.631
G0 F2625 X54.631 Y106.25
G1 F900 X53.581 Y105.2 E62.69181
G1 X53.493 Y105.112
G0 F2625 X53.581 Y105.907
G1 F900 X54.631 Y106.957 E62.74128
G1 X54.719 Y107.045
G0 F2625 X54.631 Y107.664
G1 F900 X53.581 Y106.614 E62.79074
G1 X53.493 Y106.526
G0 F2625 X53.581 Y107.321
G1 F900 X54.631 Y108.371 E62.8402
G1 X54.719 Y108.459
G0 F2625 X54.631 Y109.078
G1 F900 X53.581 Y108.028 E62.88967
G1 X53.493 Y107.94
G0 F2625 X53.581 Y108.736
G1 F900 X54.631 Y109.786 E62.93913
G1 X54.719 Y109.874
G0 F2625 X54.631 Y110.493
G1 F900 X53.581 Y109.443 E62.98859
G1 X53.493 Y109.355
G0 F2625 X53.581 Y110.15
G1 F900 X54.631 Y111.2 E63.03806
G1 X54.719 Y111.288
G0 F2625 X54.631 Y111.907
G1 F900 X53.581 Y110.857 E63.08752
G1 X53.493 Y110.769
G0 F2625 X53.581 Y111.564
G1 F900 X54.631 Y112.614 E63.13698
G1 X54.719 Y112.702
G0 F2625 X54.631 Y113.321
G1 F900 X53.581 Y112.271 E63.18645
G1 X53.493 Y112.183
G0 F2625 X53.581 Y112.978
G1 F900 X54.631 Y114.028 E63.23591
G1 X54.719 Y114.116
G0 F2625 X54.631 Y114.735
G1 F900 X53.581 Y113.685 E63.28537
G1 X53.493 Y113.597
G0 F2625 X53.581 Y114.392
G1 F900 X54.631 Y115.442 E63.33484
G1 X54.719 Y115.53
G0 F2625 X54.631 Y116.15
G1 F900 X53.581 Y115.1 E63.3843
G1 X53.493 Y115.012
G0 F2625 X53.581 Y115.807
G1 F900 X54.631 Y116.857 E63.43376
G1 X54.719 Y116.945
G0 F2625 X54.631 Y117.564
G1 F900 X53.581 Y116.514 E63.48323
G1 X53.493 Y116.426
G0 F2625 X53.581 Y117.221
G1 F900 X54.631 Y118.271 E63.53269
G1 X54.719 Y118.359
G0 F2625 X54.631 Y118.978
G1 F900 X53.581 Y117.928 E63.58215
G1 X53.493 Y117.84
G0 F2625 X53.581 Y118.635
G1 F900 X54.631 Y119.685 E63.63162
G1 X54.719 Y119.773
G0 F2625 X54.631 Y120.392
G1 F900 X53.581 Y119.342 E63.68108
G1 X53.493 Y119.254
G0 F2625 X53.581 Y120.049
G1 F900 X54.631 Y121.099 E63.73054
G1 X54.719 Y121.187
G0 F2625 X54.631 Y121.806
G1 F900 X53.581 Y120.756 E63.78001
G1 X53.493 Y120.668
G0 F2625 X53.581 Y121.463
G1 F900 X54.631 Y122.514 E63.82949
G1 X54.719 Y122.602
G0 F2625 X54.631 Y123.221
G1 F900 X53.581 Y122.171 E63.87896
G1 X53.493 Y122.083
G0 F2625 X53.581 Y122.878
G1 F900 X54.631 Y123.928 E63.92842
G1 X54.719 Y124.016
G0 F2625 X54.631 Y124.635
