;Generated by Cura LulzBot Edition GCodeWriter Version: 2.6.69
;FLAVOR:RepRap
;TIME:731
;Filament used: 0.335604m
;Layer height: 0.25
;Generated with Cura_SteamEngine 2.6.69
;This G-Code has been generated specifically for the LulzBot TAZ 5 with standard extruder
M140 S60    ; start bed heating up
G21                      ; set units to Millimetres
G90                      ; absolute positioning
M107                     ; disable fans
M82                      ; set extruder to absolute mode
G28 X0 Y0                ; home X and Y
G28 Z0                   ; home Z
G1 Z15.0 F{travel_speed} ; move extruder up
M117 Heating...                     ; progress indicator message on LCD
M109 R205  ; wait for extruder to reach printing temp
M190 S60    ; wait for bed to reach printing temp
G92 E0                   ; set extruder position to 0
G1 F200 E0               ; prime the nozzle with filament
G92 E0                   ; re-set extruder position to 0
G1 F{travel_speed}       ; set travel speed
M203 X192 Y208 Z3        ; set limits on travel speed
M117 TAZ 5 Printing...   ; progress indicator message on LCD

M221 S100
;LAYER_COUNT:11
;LAYER:0
M107
G0 F2625 X59.531 Y130.615 Z0.424
;TYPE:SKIRT
G1 F900 X60.001 Y130.419 E0.01696
G1 X60.496 Y130.3 E0.03392
G1 X61.009 Y130.259 E0.05106
G1 X228.991 Y130.26 E5.6466
G1 X229.499 Y130.3 E5.66358
G1 X229.994 Y130.419 E5.68054
G1 X230.465 Y130.614 E5.69752
G1 X230.9 Y130.88 E5.7145
G1 X231.287 Y131.21 E5.73144
G1 X231.619 Y131.597 E5.74843
G1 X231.885 Y132.032 E5.76541
G1 X232.081 Y132.502 E5.78238
G1 X232.2 Y132.997 E5.79933
G1 X232.241 Y133.51 E5.81648
G1 X232.241 Y141.491 E6.08233
G1 X232.201 Y141.999 E6.0993
G1 X232.082 Y142.494 E6.11626
G1 X231.887 Y142.965 E6.13324
G1 X231.621 Y143.4 E6.15022
G1 X231.291 Y143.787 E6.16717
G1 X230.904 Y144.119 E6.18415
G1 X230.469 Y144.385 E6.20113
G1 X229.999 Y144.581 E6.2181
G1 X229.504 Y144.7 E6.23506
G1 X228.991 Y144.741 E6.2522
G1 X61.009 Y144.741 E11.84774
G1 X60.501 Y144.701 E11.86471
G1 X60.006 Y144.582 E11.88167
G1 X59.535 Y144.387 E11.89865
G1 X59.1 Y144.121 E11.91564
G1 X58.713 Y143.791 E11.93258
G1 X58.381 Y143.404 E11.94956
G1 X58.115 Y142.969 E11.96655
G1 X57.919 Y142.499 E11.98351
G1 X57.8 Y142.004 E12.00047
G1 X57.759 Y141.491 E12.01761
G1 X57.759 Y133.509 E12.28349
G1 X57.799 Y133.001 E12.30047
G1 X57.918 Y132.506 E12.31743
G1 X58.113 Y132.035 E12.33441
G1 X58.379 Y131.6 E12.35139
G1 X58.709 Y131.213 E12.36833
G1 X59.096 Y130.881 E12.38532
G1 X59.531 Y130.615 E12.4023
G1 F600 E11.4023
G0 F2625 X61.764 Y132.835
G0 X61.764 Y134.264
G0 X61.82 Y134.32
G0 X61.75 Y134.25
;TYPE:WALL-INNER
G1 F600 E12.4023
G1 F900 X69.859 Y134.25 E12.67242
G1 X69.976 Y134.25 E12.67631
G1 X70.309 Y134.25 E12.68741
G1 X70.429 Y134.25 E12.6914
G1 X70.309 Y134.329
G1 X69.976 Y134.635 E12.69787
G1 X69.904 Y134.727 E12.70136
G1 X69.696 Y134.994 E12.71263
G1 X69.478 Y135.394 E12.72781
G1 X69.332 Y135.825 E12.74297
G1 X69.257 Y136.273 E12.7581
G1 X69.257 Y136.727 E12.77322
G1 X69.332 Y137.175 E12.78835
G1 X69.478 Y137.606 E12.80351
G1 X69.696 Y138.006 E12.81868
G1 X69.976 Y138.365 E12.83385
G1 X70.309 Y138.671 E12.84891
G1 X70.689 Y138.921 E12.86407
G1 X71.108 Y139.104 E12.8793
G1 X71.547 Y139.215 E12.89438
G1 X71.969 Y139.25 E12.90848
G1 X218.031 Y139.25 E17.77386
G1 X218.453 Y139.215 E17.78797
G1 X218.892 Y139.104 E17.80305
G1 X219.311 Y138.921 E17.81828
G1 X219.691 Y138.671 E17.83343
G1 X220.024 Y138.365 E17.8485
G1 X220.304 Y138.006 E17.86366
G1 X220.522 Y137.606 E17.87884
G1 X220.668 Y137.175 E17.89399
G1 X220.743 Y136.727 E17.90913
G1 X220.743 Y136.273 E17.92425
G1 X220.668 Y135.825 E17.93938
G1 X220.522 Y135.394 E17.95454
G1 X220.304 Y134.994 E17.96971
G1 X220.096 Y134.727 E17.98099
G1 X220.024 Y134.635 E17.98488
G1 X219.691 Y134.329 E17.99994
G1 X219.571 Y134.25 E18.00473
G1 X219.691 Y134.25
G1 X220.024 Y134.25
G1 X220.141 Y134.25 E18.00822
G1 X228.25 Y134.25 E18.27834
G1 X228.25 Y140.75 E18.49485
G1 X61.75 Y140.75 E24.04103
G1 X61.75 Y134.25 E24.25755
G0 F2625 X61.25 Y133.75
;TYPE:WALL-OUTER
G1 F900 X71.99 Y133.75 E24.6153
G1 X218.01 Y133.75 E29.47928
G1 X228.75 Y133.75 E29.83703
G1 X228.75 Y141.25 E30.08686
G1 X61.25 Y141.25 E35.66634
G1 X61.25 Y133.75 E35.91617
G0 F2625 X61.5 Y133.75
G0 X61.82 Y134.32
G0 X69.228 Y135.849
G0 X69.818 Y135.948
G1 F900 X69.757 Y136.314 E35.92853
G1 X69.757 Y136.686 E35.94092
G1 X69.818 Y137.052 E35.95328
G1 X69.938 Y137.404 E35.96567
G1 X70.116 Y137.731 E35.97807
G1 X70.345 Y138.025 E35.99049
G1 X70.618 Y138.276 E36.00284
G1 X70.928 Y138.48 E36.0152
G1 X71.27 Y138.629 E36.02763
G1 X71.63 Y138.72 E36.04
G1 X71.99 Y138.75 E36.05203
G1 X218.01 Y138.75 E40.91601
G1 X218.37 Y138.72 E40.92804
G1 X218.73 Y138.629 E40.94041
G1 X219.072 Y138.48 E40.95284
G1 X219.382 Y138.276 E40.9652
G1 X219.655 Y138.025 E40.97755
G1 X219.884 Y137.731 E40.98997
G1 X220.062 Y137.404 E41.00237
G1 X220.182 Y137.052 E41.01475
G1 X220.243 Y136.686 E41.02711
G1 X220.243 Y136.314 E41.03951
G1 X220.182 Y135.948 E41.05187
G1 X220.062 Y135.596 E41.06425
G1 X219.884 Y135.269 E41.07666
G1 X219.655 Y134.975 E41.08907
G1 X219.382 Y134.724 E41.10142
G1 X219.072 Y134.52 E41.11378
G1 X218.73 Y134.371 E41.12621
G1 X218.37 Y134.28 E41.13858
G1 X218.01 Y134.25 E41.15061
G1 X71.99 Y134.25 E46.01459
G1 X71.63 Y134.28 E46.02662
G1 X71.27 Y134.371 E46.03899
G1 X70.928 Y134.52 E46.05142
G1 X70.618 Y134.724 E46.06378
G1 X70.345 Y134.975 E46.07613
G1 X70.116 Y135.269 E46.08855
G1 X69.938 Y135.596 E46.10095
G1 X69.818 Y135.948 E46.11334
G0 F2625 X69.777 Y136.194
G0 X69.039 Y136.214
;TYPE:SKIN
G1 F900 X67.299 Y134.474 E46.19531
G1 X67.211 Y134.386
G0 F2625 X68.006 Y134.474
G1 F900 X69.161 Y135.629 E46.24971
G1 X69.249 Y135.717
G0 F2625 X69.039 Y134.8
G1 F900 X69.531 Y134.585 E46.27032
G0 F2625 X69.642 Y134.696
G0 X69.294 Y135.816
G0 X69.066 Y136.948
G1 F900 X66.592 Y134.474 E46.38686
G1 X66.504 Y134.386
G0 F2625 X65.885 Y134.474
G1 F900 X69.468 Y138.057 E46.55565
G1 X69.556 Y138.145
G0 F2625 X70.429 Y139.018
G1 F900 X71.935 Y140.524 E46.6266
G1 X72.023 Y140.612
G0 F2625 X72.642 Y140.524
G1 F900 X71.558 Y139.44 E46.67766
G1 X71.47 Y139.352
G0 F2625 X72.299 Y139.474
G1 F900 X73.349 Y140.524 E46.72712
G1 X73.437 Y140.612
G0 F2625 X74.056 Y140.524
G1 F900 X73.006 Y139.474 E46.77659
G1 X72.918 Y139.386
G0 F2625 X73.713 Y139.474
G1 F900 X74.763 Y140.524 E46.82605
G1 X74.851 Y140.612
G0 F2625 X75.47 Y140.524
G1 F900 X74.42 Y139.474 E46.87551
G1 X74.332 Y139.386
G0 F2625 X75.127 Y139.474
G1 F900 X76.178 Y140.524 E46.925
G1 X76.266 Y140.612
G0 F2625 X76.885 Y140.524
G1 F900 X75.835 Y139.474 E46.97446
G1 X75.747 Y139.386
G0 F2625 X76.542 Y139.474
G1 F900 X77.592 Y140.524 E47.02393
G1 X77.68 Y140.612
G0 F2625 X78.299 Y140.524
G1 F900 X77.249 Y139.474 E47.07339
G1 X77.161 Y139.386
G0 F2625 X77.956 Y139.474
G1 F900 X79.006 Y140.524 E47.12285
G1 X79.094 Y140.612
G0 F2625 X79.713 Y140.524
G1 F900 X78.663 Y139.474 E47.17232
G1 X78.575 Y139.386
G0 F2625 X79.37 Y139.474
G1 F900 X80.42 Y140.524 E47.22178
G1 X80.508 Y140.612
G0 F2625 X81.127 Y140.524
G1 F900 X80.077 Y139.474 E47.27125
G1 X79.989 Y139.386
G0 F2625 X80.784 Y139.474
G1 F900 X81.834 Y140.524 E47.32071
G1 X81.922 Y140.612
G0 F2625 X82.541 Y140.524
G1 F900 X81.491 Y139.474 E47.37017
G1 X81.403 Y139.386
G0 F2625 X82.199 Y139.474
G1 F900 X83.249 Y140.524 E47.41964
G1 X83.337 Y140.612
G0 F2625 X83.956 Y140.524
G1 F900 X82.906 Y139.474 E47.4691
G1 X82.818 Y139.386
G0 F2625 X83.613 Y139.474
G1 F900 X84.663 Y140.524 E47.51856
G1 X84.751 Y140.612
G0 F2625 X85.37 Y140.524
G1 F900 X84.32 Y139.474 E47.56803
G1 X84.232 Y139.386
G0 F2625 X85.027 Y139.474
G1 F900 X86.077 Y140.524 E47.61749
G1 X86.165 Y140.612
G0 F2625 X86.784 Y140.524
G1 F900 X85.734 Y139.474 E47.66695
G1 X85.646 Y139.386
G0 F2625 X86.441 Y139.474
G1 F900 X87.491 Y140.524 E47.71642
G1 X87.579 Y140.612
G0 F2625 X88.198 Y140.524
G1 F900 X87.148 Y139.474 E47.76588
G1 X87.06 Y139.386
G0 F2625 X87.855 Y139.474
G1 F900 X88.905 Y140.524 E47.81534
G1 X88.993 Y140.612
G0 F2625 X89.613 Y140.524
G1 F900 X88.563 Y139.474 E47.86481
G1 X88.475 Y139.386
G0 F2625 X89.27 Y139.474
G1 F900 X90.32 Y140.524 E47.91427
G1 X90.408 Y140.612
G0 F2625 X91.027 Y140.524
G1 F900 X89.977 Y139.474 E47.96373
G1 X89.889 Y139.386
G0 F2625 X90.684 Y139.474
G1 F900 X91.734 Y140.524 E48.0132
G1 X91.822 Y140.612
G0 F2625 X92.441 Y140.524
G1 F900 X91.391 Y139.474 E48.06266
G1 X91.303 Y139.386
G0 F2625 X92.098 Y139.474
G1 F900 X93.148 Y140.524 E48.11212
G1 X93.236 Y140.612
G0 F2625 X93.855 Y140.524
G1 F900 X92.805 Y139.474 E48.16159
G1 X92.717 Y139.386
G0 F2625 X93.512 Y139.474
G1 F900 X94.562 Y140.524 E48.21105
G1 X94.65 Y140.612
G0 F2625 X95.269 Y140.524
G1 F900 X94.219 Y139.474 E48.26051
G1 X94.131 Y139.386
G0 F2625 X94.926 Y139.474
G1 F900 X95.977 Y140.524 E48.31
G1 X96.065 Y140.612
G0 F2625 X96.684 Y140.524
G1 F900 X95.634 Y139.474 E48.35946
G1 X95.546 Y139.386
G0 F2625 X96.341 Y139.474
G1 F900 X97.391 Y140.524 E48.40893
G1 X97.479 Y140.612
G0 F2625 X98.098 Y140.524
G1 F900 X97.048 Y139.474 E48.45839
G1 X96.96 Y139.386
G0 F2625 X97.755 Y139.474
G1 F900 X98.805 Y140.524 E48.50785
G1 X98.893 Y140.612
G0 F2625 X99.512 Y140.524
G1 F900 X98.462 Y139.474 E48.55732
G1 X98.374 Y139.386
G0 F2625 X99.169 Y139.474
G1 F900 X100.219 Y140.524 E48.60678
G1 X100.307 Y140.612
G0 F2625 X100.926 Y140.524
G1 F900 X99.876 Y139.474 E48.65624
G1 X99.788 Y139.386
G0 F2625 X100.583 Y139.474
G1 F900 X101.633 Y140.524 E48.70571
G1 X101.721 Y140.612
G0 F2625 X102.34 Y140.524
G1 F900 X101.29 Y139.474 E48.75517
G1 X101.202 Y139.386
G0 F2625 X101.998 Y139.474
G1 F900 X103.048 Y140.524 E48.80463
G1 X103.136 Y140.612
G0 F2625 X103.755 Y140.524
G1 F900 X102.705 Y139.474 E48.8541
G1 X102.617 Y139.386
G0 F2625 X103.412 Y139.474
G1 F900 X104.462 Y140.524 E48.90356
G1 X104.55 Y140.612
G0 F2625 X105.169 Y140.524
G1 F900 X104.119 Y139.474 E48.95302
G1 X104.031 Y139.386
G0 F2625 X104.826 Y139.474
G1 F900 X105.876 Y140.524 E49.00249
G1 X105.964 Y140.612
G0 F2625 X106.583 Y140.524
G1 F900 X105.533 Y139.474 E49.05195
G1 X105.445 Y139.386
G0 F2625 X106.24 Y139.474
G1 F900 X107.29 Y140.524 E49.10141
G1 X107.378 Y140.612
G0 F2625 X107.997 Y140.524
G1 F900 X106.947 Y139.474 E49.15088
G1 X106.859 Y139.386
G0 F2625 X107.654 Y139.474
G1 F900 X108.704 Y140.524 E49.20034
G1 X108.792 Y140.612
G0 F2625 X109.412 Y140.524
G1 F900 X108.361 Y139.474 E49.24983
G1 X108.273 Y139.386
G0 F2625 X109.069 Y139.474
G1 F900 X110.119 Y140.524 E49.29929
G1 X110.207 Y140.612
G0 F2625 X110.826 Y140.524
G1 F900 X109.776 Y139.474 E49.34875
G1 X109.688 Y139.386
G0 F2625 X110.483 Y139.474
G1 F900 X111.533 Y140.524 E49.39822
G1 X111.621 Y140.612
G0 F2625 X112.24 Y140.524
G1 F900 X111.19 Y139.474 E49.44768
G1 X111.102 Y139.386
G0 F2625 X111.897 Y139.474
G1 F900 X112.947 Y140.524 E49.49714
G1 X113.035 Y140.612
G0 F2625 X113.654 Y140.524
G1 F900 X112.604 Y139.474 E49.54661
G1 X112.516 Y139.386
G0 F2625 X113.311 Y139.474
G1 F900 X114.361 Y140.524 E49.59607
G1 X114.449 Y140.612
G0 F2625 X115.068 Y140.524
G1 F900 X114.018 Y139.474 E49.64553
G1 X113.93 Y139.386
G0 F2625 X114.725 Y139.474
G1 F900 X115.776 Y140.524 E49.69502
G1 X115.864 Y140.612
G0 F2625 X116.483 Y140.524
G1 F900 X115.433 Y139.474 E49.74448
G1 X115.345 Y139.386
G0 F2625 X116.14 Y139.474
G1 F900 X117.19 Y140.524 E49.79395
G1 X117.278 Y140.612
G0 F2625 X117.897 Y140.524
G1 F900 X116.847 Y139.474 E49.84341
G1 X116.759 Y139.386
G0 F2625 X117.554 Y139.474
G1 F900 X118.604 Y140.524 E49.89287
G1 X118.692 Y140.612
G0 F2625 X119.311 Y140.524
G1 F900 X118.261 Y139.474 E49.94234
G1 X118.173 Y139.386
G0 F2625 X118.968 Y139.474
G1 F900 X120.018 Y140.524 E49.9918
G1 X120.106 Y140.612
G0 F2625 X120.725 Y140.524
G1 F900 X119.675 Y139.474 E50.04126
G1 X119.587 Y139.386
G0 F2625 X120.382 Y139.474
G1 F900 X121.432 Y140.524 E50.09073
G1 X121.52 Y140.612
G0 F2625 X122.139 Y140.524
G1 F900 X121.089 Y139.474 E50.14019
G1 X121.001 Y139.386
G0 F2625 X121.797 Y139.474
G1 F900 X122.847 Y140.524 E50.18965
G1 X122.935 Y140.612
G0 F2625 X123.554 Y140.524
G1 F900 X122.504 Y139.474 E50.23912
G1 X122.416 Y139.386
G0 F2625 X123.211 Y139.474
G1 F900 X124.261 Y140.524 E50.28858
G1 X124.349 Y140.612
G0 F2625 X124.968 Y140.524
G1 F900 X123.918 Y139.474 E50.33804
G1 X123.83 Y139.386
G0 F2625 X124.625 Y139.474
G1 F900 X125.675 Y140.524 E50.38751
G1 X125.763 Y140.612
G0 F2625 X126.382 Y140.524
G1 F900 X125.332 Y139.474 E50.43697
G1 X125.244 Y139.386
G0 F2625 X126.039 Y139.474
G1 F900 X127.089 Y140.524 E50.48643
G1 X127.177 Y140.612
G0 F2625 X127.796 Y140.524
G1 F900 X126.746 Y139.474 E50.5359
G1 X126.658 Y139.386
G0 F2625 X127.453 Y139.474
G1 F900 X128.503 Y140.524 E50.58536
G1 X128.591 Y140.612
G0 F2625 X129.211 Y140.524
G1 F900 X128.16 Y139.474 E50.63485
G1 X128.072 Y139.386
G0 F2625 X128.868 Y139.474
G1 F900 X129.918 Y140.524 E50.68431
G1 X130.006 Y140.612
G0 F2625 X130.625 Y140.524
G1 F900 X129.575 Y139.474 E50.73377
G1 X129.487 Y139.386
G0 F2625 X130.282 Y139.474
G1 F900 X131.332 Y140.524 E50.78324
G1 X131.42 Y140.612
G0 F2625 X132.039 Y140.524
G1 F900 X130.989 Y139.474 E50.8327
G1 X130.901 Y139.386
G0 F2625 X131.696 Y139.474
G1 F900 X132.746 Y140.524 E50.88216
G1 X132.834 Y140.612
G0 F2625 X133.453 Y140.524
G1 F900 X132.403 Y139.474 E50.93163
G1 X132.315 Y139.386
G0 F2625 X133.11 Y139.474
G1 F900 X134.16 Y140.524 E50.98109
G1 X134.248 Y140.612
G0 F2625 X134.867 Y140.524
G1 F900 X133.817 Y139.474 E51.03055
G1 X133.729 Y139.386
G0 F2625 X134.524 Y139.474
G1 F900 X135.574 Y140.524 E51.08002
G1 X135.662 Y140.612
G0 F2625 X136.282 Y140.524
G1 F900 X135.232 Y139.474 E51.12948
G1 X135.144 Y139.386
G0 F2625 X135.939 Y139.474
G1 F900 X136.989 Y140.524 E51.17894
G1 X137.077 Y140.612
G0 F2625 X137.696 Y140.524
G1 F900 X136.646 Y139.474 E51.22841
G1 X136.558 Y139.386
G0 F2625 X137.353 Y139.474
G1 F900 X138.403 Y140.524 E51.27787
G1 X138.491 Y140.612
G0 F2625 X139.11 Y140.524
G1 F900 X138.06 Y139.474 E51.32733
G1 X137.972 Y139.386
G0 F2625 X138.767 Y139.474
G1 F900 X139.817 Y140.524 E51.3768
G1 X139.905 Y140.612
G0 F2625 X140.524 Y140.524
G1 F900 X139.474 Y139.474 E51.42626
G1 X139.386 Y139.386
G0 F2625 X140.181 Y139.474
G1 F900 X141.231 Y140.524 E51.47573
G1 X141.319 Y140.612
G0 F2625 X141.938 Y140.524
G1 F900 X140.888 Y139.474 E51.52519
G1 X140.8 Y139.386
G0 F2625 X141.596 Y139.474
G1 F900 X142.646 Y140.524 E51.57465
G1 X142.734 Y140.612
G0 F2625 X143.353 Y140.524
G1 F900 X142.303 Y139.474 E51.62412
G1 X142.215 Y139.386
G0 F2625 X143.01 Y139.474
G1 F900 X144.06 Y140.524 E51.67358
G1 X144.148 Y140.612
G0 F2625 X144.767 Y140.524
G1 F900 X143.717 Y139.474 E51.72304
G1 X143.629 Y139.386
G0 F2625 X144.424 Y139.474
G1 F900 X145.474 Y140.524 E51.77251
G1 X145.562 Y140.612
G0 F2625 X146.181 Y140.524
G1 F900 X145.131 Y139.474 E51.82197
G1 X145.043 Y139.386
G0 F2625 X145.838 Y139.474
G1 F900 X146.888 Y140.524 E51.87143
G1 X146.976 Y140.612
G0 F2625 X147.595 Y140.524
G1 F900 X146.545 Y139.474 E51.9209
G1 X146.457 Y139.386
G0 F2625 X147.252 Y139.474
G1 F900 X148.302 Y140.524 E51.97036
G1 X148.39 Y140.612
G0 F2625 X149.01 Y140.524
G1 F900 X147.959 Y139.474 E52.01985
G1 X147.871 Y139.386
G0 F2625 X148.667 Y139.474
G1 F900 X149.717 Y140.524 E52.06931
G1 X149.805 Y140.612
G0 F2625 X150.424 Y140.524
G1 F900 X149.374 Y139.474 E52.11877
G1 X149.286 Y139.386
G0 F2625 X150.081 Y139.474
G1 F900 X151.131 Y140.524 E52.16824
G1 X151.219 Y140.612
G0 F2625 X151.838 Y140.524
G1 F900 X150.788 Y139.474 E52.2177
G1 X150.7 Y139.386
G0 F2625 X151.495 Y139.474
G1 F900 X152.545 Y140.524 E52.26716
G1 X152.633 Y140.612
G0 F2625 X153.252 Y140.524
G1 F900 X152.202 Y139.474 E52.31663
G1 X152.114 Y139.386
G0 F2625 X152.909 Y139.474
G1 F900 X153.959 Y140.524 E52.36609
G1 X154.047 Y140.612
G0 F2625 X154.666 Y140.524
G1 F900 X153.616 Y139.474 E52.41555
G1 X153.528 Y139.386
G0 F2625 X154.323 Y139.474
G1 F900 X155.373 Y140.524 E52.46502
G1 X155.461 Y140.612
G0 F2625 X156.081 Y140.524
G1 F900 X155.031 Y139.474 E52.51448
G1 X154.943 Y139.386
G0 F2625 X155.738 Y139.474
G1 F900 X156.788 Y140.524 E52.56394
G1 X156.876 Y140.612
G0 F2625 X157.495 Y140.524
G1 F900 X156.445 Y139.474 E52.61341
