;FLAVOR:Marlin
;TIME:5166
;Filament used: 3.20342m
;Layer height: 0.1
;Generated with Cura_SteamEngine 3.2.1
M190 S60
M104 S200
M109 S200
M82 ;absolute extrusion mode
G21 ;metric values
G90 ;absolute positioning
M82 ;set extruder to absolute mode
M107 ;start with the fan off
G28 X0 Y0 ;move X/Y to min endstops
G28 Z0 ;move Z to min endstops
G1 Z15.0 F9000 ;move the platform down 15mm
G92 E0 ;zero the extruded length
G1 F200 E3 ;extrude 3mm of feed stock
G92 E0 ;zero the extruded length again
G1 F9000
;Put printing message on LCD screen
M117 Printing...
;LAYER_COUNT:89
;LAYER:0
M107
G0 F3600 X84.74 Y9.328 Z0.3
;TYPE:SKIRT
G1 F1800 X84.859 Y8.548 E0.03936
G1 X85.057 Y7.783 E0.07879
G1 X85.331 Y7.043 E0.11816
G1 X85.679 Y6.334 E0.15756
G1 X86.097 Y5.663 E0.197
G1 X86.58 Y5.039 E0.23637
G1 X86.985 Y4.602 E0.26609
G1 X87.102 Y4.485 E0.27435
G1 X87.688 Y3.955 E0.31377
G1 X88.324 Y3.488 E0.35313
G1 X89.004 Y3.087 E0.39252
G1 X89.722 Y2.757 E0.43194
G1 X90.469 Y2.502 E0.47132
G1 X91.238 Y2.323 E0.51071
G1 X92.022 Y2.223 E0.55014
G1 X92.617 Y2.2 E0.57985
G1 X107.383 Y2.2 E1.31653
G1 X108.172 Y2.24 E1.35594
G1 X108.952 Y2.359 E1.39531
G1 X109.717 Y2.557 E1.43473
G1 X110.457 Y2.831 E1.4741
G1 X111.166 Y3.179 E1.5135
G1 X111.837 Y3.597 E1.55294
G1 X112.461 Y4.08 E1.59231
G1 X112.898 Y4.485 E1.62204
G1 X113.015 Y4.602 E1.63029
G1 X113.545 Y5.188 E1.66971
G1 X114.012 Y5.824 E1.70908
G1 X114.413 Y6.504 E1.74846
G1 X114.743 Y7.222 E1.78788
G1 X114.998 Y7.969 E1.82726
G1 X115.177 Y8.738 E1.86666
G1 X115.277 Y9.522 E1.90609
G1 X115.3 Y10.117 E1.93579
G1 X115.3 Y189.883 E10.90436
G1 X115.26 Y190.672 E10.94377
G1 X115.141 Y191.452 E10.98313
G1 X114.943 Y192.217 E11.02256
G1 X114.669 Y192.957 E11.06193
G1 X114.321 Y193.666 E11.10133
G1 X113.903 Y194.337 E11.14077
G1 X113.42 Y194.961 E11.18014
G1 X113.015 Y195.398 E11.20986
G1 X112.898 Y195.515 E11.21812
G1 X112.312 Y196.045 E11.25754
G1 X111.676 Y196.512 E11.2969
G1 X110.996 Y196.913 E11.33629
G1 X110.278 Y197.243 E11.37571
G1 X109.531 Y197.498 E11.41509
G1 X108.762 Y197.677 E11.45448
G1 X107.978 Y197.777 E11.49391
G1 X107.383 Y197.8 E11.52362
G1 X92.617 Y197.8 E12.2603
G1 X91.828 Y197.76 E12.29971
G1 X91.048 Y197.641 E12.33908
G1 X90.283 Y197.443 E12.3785
G1 X89.543 Y197.169 E12.41787
G1 X88.834 Y196.821 E12.45727
G1 X88.163 Y196.403 E12.49671
G1 X87.539 Y195.92 E12.53608
G1 X87.102 Y195.515 E12.56581
G1 X86.985 Y195.398 E12.57406
G1 X86.455 Y194.812 E12.61348
G1 X85.988 Y194.176 E12.65285
G1 X85.587 Y193.496 E12.69223
G1 X85.257 Y192.778 E12.73165
G1 X85.002 Y192.031 E12.77103
G1 X84.823 Y191.262 E12.81042
G1 X84.723 Y190.478 E12.84986
G1 X84.7 Y189.883 E12.87956
G1 X84.7 Y10.117 E21.84812
G1 X84.74 Y9.328 E21.88754
G0 F3600 X85.14 Y9.349
G1 F1800 X85.259 Y8.589 E21.92592
G1 X85.457 Y7.846 E21.96428
G1 X85.731 Y7.127 E22.00267
G1 X86.078 Y6.441 E22.04102
G1 X86.494 Y5.794 E22.0794
G1 X86.975 Y5.194 E22.11776
G1 X87.267 Y4.884 E22.13901
G1 X87.384 Y4.767 E22.14726
G1 X87.956 Y4.253 E22.18563
G1 X88.578 Y3.8 E22.22402
G1 X89.243 Y3.414 E22.26238
G1 X89.945 Y3.099 E22.30077
G1 X90.676 Y2.859 E22.33915
G1 X91.427 Y2.696 E22.37749
G1 X92.192 Y2.612 E22.41589
G1 X92.617 Y2.6 E22.4371
G1 X107.383 Y2.6 E23.17378
G1 X108.151 Y2.64 E23.21215
G1 X108.911 Y2.759 E23.25052
G1 X109.654 Y2.957 E23.28889
G1 X110.373 Y3.231 E23.32727
G1 X111.059 Y3.578 E23.36563
G1 X111.706 Y3.994 E23.404
G1 X112.306 Y4.475 E23.44237
G1 X112.616 Y4.767 E23.46362
G1 X112.733 Y4.884 E23.47187
G1 X113.247 Y5.456 E23.51024
G1 X113.7 Y6.078 E23.54863
G1 X114.086 Y6.743 E23.58699
G1 X114.401 Y7.445 E23.62537
G1 X114.641 Y8.176 E23.66376
G1 X114.804 Y8.927 E23.7021
G1 X114.888 Y9.692 E23.74049
G1 X114.9 Y10.117 E23.76171
G1 X114.9 Y189.883 E32.73027
G1 X114.86 Y190.651 E32.76864
G1 X114.741 Y191.411 E32.80701
G1 X114.543 Y192.154 E32.84538
G1 X114.269 Y192.873 E32.88376
G1 X113.922 Y193.559 E32.92212
G1 X113.506 Y194.206 E32.96049
G1 X113.025 Y194.806 E32.99886
G1 X112.733 Y195.116 E33.02011
G1 X112.616 Y195.233 E33.02836
G1 X112.044 Y195.747 E33.06673
G1 X111.422 Y196.2 E33.10512
G1 X110.757 Y196.586 E33.14348
G1 X110.055 Y196.901 E33.18186
G1 X109.324 Y197.141 E33.22025
G1 X108.573 Y197.304 E33.25859
G1 X107.808 Y197.388 E33.29698
G1 X107.383 Y197.4 E33.3182
G1 X92.617 Y197.4 E34.05488
G1 X91.849 Y197.36 E34.09324
G1 X91.089 Y197.241 E34.13162
G1 X90.346 Y197.043 E34.16998
G1 X89.627 Y196.769 E34.20837
G1 X88.941 Y196.422 E34.24672
G1 X88.294 Y196.006 E34.2851
G1 X87.694 Y195.525 E34.32347
G1 X87.384 Y195.233 E34.34471
G1 X87.267 Y195.116 E34.35297
G1 X86.753 Y194.544 E34.39133
G1 X86.3 Y193.922 E34.42972
G1 X85.914 Y193.257 E34.46808
G1 X85.599 Y192.555 E34.50647
G1 X85.359 Y191.824 E34.54486
G1 X85.196 Y191.073 E34.5832
G1 X85.112 Y190.308 E34.62159
G1 X85.1 Y189.883 E34.6428
G1 X85.1 Y10.117 E43.61137
G1 X85.14 Y9.349 E43.64973
G0 F3600 X85.54 Y9.37
G1 F1800 X85.659 Y8.632 E43.68703
G1 X85.857 Y7.91 E43.72438
G1 X86.13 Y7.214 E43.76168
G1 X86.477 Y6.551 E43.79901
G1 X86.892 Y5.928 E43.83636
G1 X87.55 Y5.167 E43.88655
G1 X87.667 Y5.05 E43.8948
G1 X88.224 Y4.55 E43.93215
G1 X88.83 Y4.113 E43.96942
G1 X89.48 Y3.742 E44.00676
G1 X90.166 Y3.443 E44.04409
G1 X90.88 Y3.219 E44.08143
G1 X91.613 Y3.072 E44.11872
G1 X92.617 Y3 E44.16894
G1 X107.383 Y3 E44.90562
G1 X108.13 Y3.04 E44.94294
G1 X108.868 Y3.159 E44.98024
G1 X109.59 Y3.357 E45.01759
G1 X110.286 Y3.63 E45.05489
G1 X110.949 Y3.977 E45.09222
G1 X111.572 Y4.392 E45.12957
G1 X112.333 Y5.05 E45.17976
G1 X112.45 Y5.167 E45.18801
G1 X112.95 Y5.724 E45.22536
G1 X113.387 Y6.33 E45.26263
G1 X113.758 Y6.98 E45.29997
G1 X114.057 Y7.666 E45.3373
G1 X114.281 Y8.38 E45.37464
G1 X114.428 Y9.113 E45.41194
G1 X114.5 Y10.117 E45.46215
G1 X114.5 Y189.883 E54.43072
G1 X114.46 Y190.63 E54.46804
G1 X114.341 Y191.368 E54.50533
G1 X114.143 Y192.09 E54.54268
G1 X113.87 Y192.786 E54.57998
G1 X113.523 Y193.449 E54.61732
G1 X113.108 Y194.072 E54.65466
G1 X112.45 Y194.833 E54.70485
G1 X112.333 Y194.95 E54.71311
G1 X111.776 Y195.45 E54.75045
G1 X111.17 Y195.887 E54.78772
G1 X110.52 Y196.258 E54.82506
G1 X109.834 Y196.557 E54.8624
G1 X109.12 Y196.781 E54.89973
G1 X108.387 Y196.928 E54.93703
G1 X107.383 Y197 E54.98725
G1 X92.617 Y197 E55.72393
G1 X91.87 Y196.96 E55.76125
G1 X91.132 Y196.841 E55.79854
G1 X90.41 Y196.643 E55.83589
G1 X89.714 Y196.37 E55.87319
G1 X89.051 Y196.023 E55.91053
G1 X88.428 Y195.608 E55.94787
G1 X87.667 Y194.95 E55.99806
G1 X87.55 Y194.833 E56.00632
G1 X87.05 Y194.276 E56.04366
G1 X86.613 Y193.67 E56.08093
G1 X86.242 Y193.02 E56.11827
G1 X85.943 Y192.334 E56.15561
G1 X85.719 Y191.62 E56.19294
G1 X85.572 Y190.887 E56.23024
G1 X85.5 Y189.883 E56.28046
G1 X85.5 Y10.117 E65.24902
G1 X85.54 Y9.37 E65.28634
G0 F3600 X85.94 Y9.392
G1 F1800 X86.059 Y8.675 E65.3226
G1 X86.257 Y7.976 E65.35885
G1 X86.53 Y7.303 E65.39508
G1 X86.875 Y6.664 E65.43131
G1 X87.289 Y6.067 E65.46756
G1 X87.833 Y5.45 E65.50859
G1 X87.95 Y5.333 E65.51685
G1 X88.491 Y4.849 E65.55306
G1 X89.082 Y4.426 E65.58932
G1 X89.716 Y4.072 E65.62555
G1 X90.385 Y3.789 E65.66179
G1 X91.081 Y3.581 E65.69803
G1 X91.796 Y3.451 E65.73429
G1 X92.617 Y3.4 E65.77533
G1 X107.383 Y3.4 E66.51201
G1 X108.108 Y3.44 E66.54823
G1 X108.825 Y3.559 E66.58449
G1 X109.524 Y3.757 E66.62074
G1 X110.197 Y4.03 E66.65697
G1 X110.836 Y4.375 E66.6932
G1 X111.433 Y4.789 E66.72945
G1 X112.05 Y5.333 E66.77048
G1 X112.167 Y5.45 E66.77874
G1 X112.651 Y5.991 E66.81495
G1 X113.074 Y6.582 E66.85121
G1 X113.428 Y7.216 E66.88744
G1 X113.711 Y7.885 E66.92368
G1 X113.919 Y8.581 E66.95992
G1 X114.049 Y9.296 E66.99618
G1 X114.1 Y10.117 E67.03722
G1 X114.1 Y189.883 E76.00578
G1 X114.06 Y190.608 E76.042
G1 X113.941 Y191.325 E76.07826
G1 X113.743 Y192.024 E76.11451
G1 X113.47 Y192.697 E76.15074
G1 X113.125 Y193.336 E76.18697
G1 X112.711 Y193.933 E76.22322
G1 X112.167 Y194.55 E76.26426
G1 X112.05 Y194.667 E76.27251
G1 X111.509 Y195.151 E76.30873
G1 X110.918 Y195.574 E76.34499
G1 X110.284 Y195.928 E76.38121
G1 X109.615 Y196.211 E76.41745
G1 X108.919 Y196.419 E76.45369
G1 X108.204 Y196.549 E76.48995
G1 X107.383 Y196.6 E76.53099
G1 X92.617 Y196.6 E77.26767
G1 X91.892 Y196.56 E77.30389
G1 X91.175 Y196.441 E77.34015
G1 X90.476 Y196.243 E77.3764
G1 X89.803 Y195.97 E77.41263
G1 X89.164 Y195.625 E77.44886
G1 X88.567 Y195.211 E77.48511
G1 X87.95 Y194.667 E77.52615
G1 X87.833 Y194.55 E77.5344
G1 X87.349 Y194.009 E77.57062
G1 X86.926 Y193.418 E77.60688
G1 X86.572 Y192.784 E77.6431
G1 X86.289 Y192.115 E77.67934
G1 X86.081 Y191.419 E77.71558
G1 X85.951 Y190.704 E77.75184
G1 X85.9 Y189.883 E77.79288
G1 X85.9 Y10.117 E86.76144
G1 X85.94 Y9.392 E86.79767
G0 F3600 X86.34 Y9.414
G1 F1800 X86.459 Y8.72 E86.8328
G1 X86.657 Y8.045 E86.86789
G1 X86.929 Y7.396 E86.903
G1 X87.274 Y6.782 E86.93813
G1 X87.685 Y6.211 E86.97323
G1 X88.116 Y5.733 E87.00534
G1 X88.233 Y5.616 E87.0136
G1 X88.758 Y5.147 E87.04872
G1 X89.333 Y4.741 E87.08384
G1 X89.951 Y4.403 E87.11898
G1 X90.602 Y4.136 E87.15408
G1 X91.28 Y3.946 E87.18921
G1 X91.975 Y3.833 E87.22434
G1 X92.617 Y3.8 E87.25641
G1 X107.383 Y3.8 E87.99309
G1 X108.086 Y3.84 E88.02822
G1 X108.78 Y3.959 E88.06335
G1 X109.455 Y4.157 E88.09845
G1 X110.104 Y4.429 E88.13355
G1 X110.718 Y4.774 E88.16869
G1 X111.289 Y5.185 E88.20379
G1 X111.767 Y5.616 E88.2359
G1 X111.884 Y5.733 E88.24416
G1 X112.353 Y6.258 E88.27928
G1 X112.759 Y6.833 E88.31439
G1 X113.097 Y7.451 E88.34954
G1 X113.364 Y8.102 E88.38464
G1 X113.554 Y8.78 E88.41977
G1 X113.667 Y9.475 E88.4549
G1 X113.7 Y10.117 E88.48697
G1 X113.7 Y189.883 E97.45553
G1 X113.66 Y190.586 E97.49066
G1 X113.541 Y191.28 E97.52579
G1 X113.343 Y191.955 E97.56089
G1 X113.071 Y192.604 E97.59599
G1 X112.726 Y193.218 E97.63113
G1 X112.315 Y193.789 E97.66623
G1 X111.884 Y194.267 E97.69834
G1 X111.767 Y194.384 E97.7066
G1 X111.242 Y194.853 E97.74172
G1 X110.667 Y195.259 E97.77683
G1 X110.049 Y195.597 E97.81198
G1 X109.398 Y195.864 E97.84708
G1 X108.72 Y196.054 E97.88221
G1 X108.025 Y196.167 E97.91734
G1 X107.383 Y196.2 E97.94941
G1 X92.617 Y196.2 E98.68609
G1 X91.914 Y196.16 E98.72122
G1 X91.22 Y196.041 E98.75635
G1 X90.545 Y195.843 E98.79144
G1 X89.896 Y195.571 E98.82655
G1 X89.282 Y195.226 E98.86169
G1 X88.711 Y194.815 E98.89679
G1 X88.233 Y194.384 E98.9289
G1 X88.116 Y194.267 E98.93715
G1 X87.647 Y193.742 E98.97227
G1 X87.241 Y193.167 E99.00739
G1 X86.903 Y192.549 E99.04253
G1 X86.636 Y191.898 E99.07764
G1 X86.446 Y191.22 E99.11277
G1 X86.333 Y190.525 E99.14789
G1 X86.3 Y189.883 E99.17997
G1 X86.3 Y10.117 E108.14853
G1 X86.34 Y9.414 E108.18366
G0 F3600 X86.74 Y9.437
G1 F1800 X86.859 Y8.767 E108.21761
G1 X87.056 Y8.115 E108.25159
G1 X87.328 Y7.491 E108.28555
G1 X87.672 Y6.903 E108.31954
G1 X88.082 Y6.359 E108.35352
G1 X88.399 Y6.016 E108.37682
G1 X88.516 Y5.899 E108.38508
G1 X89.025 Y5.446 E108.41907
G1 X89.583 Y5.057 E108.45301
G1 X90.183 Y4.735 E108.48698
G1 X90.817 Y4.486 E108.52096
G1 X91.476 Y4.313 E108.55495
G1 X92.15 Y4.219 E108.58891
G1 X92.617 Y4.2 E108.61222
G1 X107.383 Y4.2 E109.3489
G1 X108.063 Y4.24 E109.38289
G1 X108.733 Y4.359 E109.41684
G1 X109.385 Y4.556 E109.45082
G1 X110.009 Y4.828 E109.48478
G1 X110.597 Y5.172 E109.51876
G1 X111.141 Y5.582 E109.55275
G1 X111.484 Y5.899 E109.57605
G1 X111.601 Y6.016 E109.58431
G1 X112.054 Y6.525 E109.6183
G1 X112.443 Y7.083 E109.65224
G1 X112.765 Y7.683 E109.68621
G1 X113.014 Y8.317 E109.72019
G1 X113.187 Y8.976 E109.75418
G1 X113.281 Y9.65 E109.78813
G1 X113.3 Y10.117 E109.81145
G1 X113.3 Y189.883 E118.78001
G1 X113.26 Y190.563 E118.814
G1 X113.141 Y191.233 E118.84795
G1 X112.944 Y191.885 E118.88193
G1 X112.672 Y192.509 E118.91589
G1 X112.328 Y193.097 E118.94988
G1 X111.918 Y193.641 E118.98386
G1 X111.601 Y193.984 E119.00716
G1 X111.484 Y194.101 E119.01542
G1 X110.975 Y194.554 E119.04941
G1 X110.417 Y194.943 E119.08335
G1 X109.817 Y195.265 E119.11732
G1 X109.183 Y195.514 E119.1513
G1 X108.524 Y195.687 E119.18529
G1 X107.85 Y195.781 E119.21925
G1 X107.383 Y195.8 E119.24256
G1 X92.617 Y195.8 E119.97924
G1 X91.937 Y195.76 E120.01323
G1 X91.267 Y195.641 E120.04718
G1 X90.615 Y195.444 E120.08116
G1 X89.991 Y195.172 E120.11512
G1 X89.403 Y194.828 E120.1491
G1 X88.859 Y194.418 E120.18309
G1 X88.516 Y194.101 E120.20639
G1 X88.399 Y193.984 E120.21465
G1 X87.946 Y193.475 E120.24864
G1 X87.557 Y192.917 E120.28258
G1 X87.235 Y192.317 E120.31655
G1 X86.986 Y191.683 E120.35053
G1 X86.813 Y191.024 E120.38452
G1 X86.719 Y190.35 E120.41847
G1 X86.7 Y189.883 E120.44179
G1 X86.7 Y10.117 E129.41035
G1 X86.74 Y9.437 E129.44434
G0 F3600 X87.14 Y9.461
G1 F1800 X87.259 Y8.815 E129.47711
G1 X87.456 Y8.188 E129.5099
G1 X87.728 Y7.59 E129.54267
G1 X88.07 Y7.029 E129.57545
G1 X88.682 Y6.299 E129.62298
G1 X88.799 Y6.182 E129.63123
G1 X89.291 Y5.746 E129.66403
G1 X89.832 Y5.374 E129.69679
G1 X90.414 Y5.07 E129.72955
G1 X91.029 Y4.839 E129.76232
G1 X91.668 Y4.684 E129.79512
G1 X92.617 Y4.6 E129.84266
G1 X107.383 Y4.6 E130.57933
G1 X108.039 Y4.64 E130.61212
G1 X108.685 Y4.759 E130.64489
G1 X109.312 Y4.956 E130.67768
G1 X109.91 Y5.228 E130.71046
G1 X110.471 Y5.57 E130.74324
G1 X111.201 Y6.182 E130.79076
G1 X111.318 Y6.299 E130.79902
G1 X111.754 Y6.791 E130.83182
G1 X112.126 Y7.332 E130.86457
G1 X112.43 Y7.914 E130.89733
G1 X112.661 Y8.529 E130.93011
G1 X112.816 Y9.168 E130.96291
G1 X112.9 Y10.117 E131.01044
G1 X112.9 Y189.883 E139.979
G1 X112.86 Y190.539 E140.01179
G1 X112.741 Y191.185 E140.04456
G1 X112.544 Y191.812 E140.07735
G1 X112.272 Y192.41 E140.11013
G1 X111.93 Y192.971 E140.14291
G1 X111.318 Y193.701 E140.19043
G1 X111.201 Y193.818 E140.19869
G1 X110.709 Y194.254 E140.23148
G1 X110.168 Y194.626 E140.26424
G1 X109.586 Y194.93 E140.297
G1 X108.971 Y195.161 E140.32977
G1 X108.332 Y195.316 E140.36258
G1 X107.383 Y195.4 E140.41011
G1 X92.617 Y195.4 E141.14679
G1 X91.961 Y195.36 E141.17958
G1 X91.315 Y195.241 E141.21235
G1 X90.688 Y195.044 E141.24514
G1 X90.09 Y194.772 E141.27791
G1 X89.529 Y194.43 E141.31069
G1 X88.799 Y193.818 E141.35822
G1 X88.682 Y193.701 E141.36647
G1 X88.246 Y193.209 E141.39927
G1 X87.874 Y192.668 E141.43202
G1 X87.57 Y192.086 E141.46478
G1 X87.339 Y191.471 E141.49756
G1 X87.184 Y190.832 E141.53036
G1 X87.1 Y189.883 E141.57789
G1 X87.1 Y10.117 E150.54646
G1 X87.14 Y9.461 E150.57924
G0 F3600 X87.54 Y9.486
G1 F1800 X87.659 Y8.865 E150.61079
G1 X87.856 Y8.265 E150.6423
G1 X88.127 Y7.693 E150.67387
G1 X88.467 Y7.161 E150.70537
G1 X88.964 Y6.581 E150.74348
G1 X89.081 Y6.464 E150.75174
G1 X89.556 Y6.047 E150.78327
G1 X90.079 Y5.692 E150.81481
G1 X90.643 Y5.406 E150.84635
G1 X91.238 Y5.194 E150.87787
G1 X91.856 Y5.058 E150.90944
G1 X92.617 Y5 E150.94751
G1 X107.383 Y5 E151.68419
G1 X108.014 Y5.04 E151.71574
G1 X108.635 Y5.159 E151.74728
G1 X109.235 Y5.356 E151.77879
G1 X109.807 Y5.627 E151.81037
G1 X110.339 Y5.967 E151.84186
G1 X110.919 Y6.464 E151.87997
G1 X111.036 Y6.581 E151.88823
G1 X111.453 Y7.056 E151.91976
G1 X111.808 Y7.579 E151.9513
G1 X112.094 Y8.143 E151.98285
G1 X112.306 Y8.738 E152.01436
G1 X112.442 Y9.356 E152.04593
G1 X112.5 Y10.117 E152.084
G1 X112.5 Y189.883 E161.05257
G1 X112.46 Y190.514 E161.08411
G1 X112.341 Y191.135 E161.11566
G1 X112.144 Y191.735 E161.14716
G1 X111.873 Y192.307 E161.17874
G1 X111.533 Y192.839 E161.21024
G1 X111.036 Y193.419 E161.24835
G1 X110.919 Y193.536 E161.2566
G1 X110.444 Y193.953 E161.28814
G1 X109.921 Y194.308 E161.31967
G1 X109.357 Y194.594 E161.35122
G1 X108.762 Y194.806 E161.38273
G1 X108.144 Y194.942 E161.4143
G1 X107.383 Y195 E161.45238
G1 X92.617 Y195 E162.18906
G1 X91.986 Y194.96 E162.2206
G1 X91.365 Y194.841 E162.25215
G1 X90.765 Y194.644 E162.28365
G1 X90.193 Y194.373 E162.31523
G1 X89.661 Y194.033 E162.34673
G1 X89.081 Y193.536 E162.38484
G1 X88.964 Y193.419 E162.39309
G1 X88.547 Y192.944 E162.42463
G1 X88.192 Y192.421 E162.45616
G1 X87.906 Y191.857 E162.48771
G1 X87.694 Y191.262 E162.51922
G1 X87.558 Y190.644 E162.55079
G1 X87.5 Y189.883 E162.58887
G1 X87.5 Y10.117 E171.55743
G1 X87.54 Y9.486 E171.58898
G0 F3600 X87.94 Y9.512
G1 F1800 X88.059 Y8.918 E171.6192
G1 X88.255 Y8.344 E171.64946
G1 X88.526 Y7.801 E171.67974
G1 X88.865 Y7.298 E171.71
G1 X89.247 Y6.864 E171.73884
G1 X89.364 Y6.747 E171.7471
