;Generated by Cura LulzBot Edition GCodeWriter Version: 2.6.69
;FLAVOR:RepRap
;TIME:3865
;Filament used: 1.54467m
;Layer height: 0.25
;Generated with Cura_SteamEngine 2.6.69
;This G-Code has been generated specifically for the LulzBot TAZ 5 with standard extruder
M140 S60    ; start bed heating up
G21                      ; set units to Millimetres
G90                      ; absolute positioning
M107                     ; disable fans
M82                      ; set extruder to absolute mode
G28 X0 Y0                ; home X and Y
G28 Z0                   ; home Z
G1 Z15.0 F{travel_speed} ; move extruder up
M117 Heating...                     ; progress indicator message on LCD
M109 R205  ; wait for extruder to reach printing temp
M190 S60    ; wait for bed to reach printing temp
G92 E0                   ; set extruder position to 0
G1 F200 E0               ; prime the nozzle with filament
G92 E0                   ; re-set extruder position to 0
G1 F{travel_speed}       ; set travel speed
M203 X192 Y208 Z3        ; set limits on travel speed
M117 TAZ 5 Printing...   ; progress indicator message on LCD

M221 S100
;LAYER_COUNT:79
;LAYER:0
M107
G0 F3937.5 X207.387 Y160.693 Z0.424
;TYPE:SKIRT
G1 F900 X207.722 Y160.26 E0.01824
G1 X208.116 Y159.88 E0.03647
G1 X208.561 Y159.561 E0.05471
G1 X209.048 Y159.311 E0.07294
G1 X209.566 Y159.134 E0.09118
G1 X210.104 Y159.035 E0.1094
G1 X210.515 Y159.012 E0.12311
G1 X272.497 Y159.013 E2.18775
G1 X273.043 Y159.053 E2.20599
G1 X273.577 Y159.172 E2.22421
G1 X274.088 Y159.367 E2.24243
G1 X274.566 Y159.635 E2.26069
G1 X274.999 Y159.97 E2.27892
G1 X275.379 Y160.364 E2.29716
G1 X275.698 Y160.809 E2.3154
G1 X275.948 Y161.296 E2.33363
G1 X276.125 Y161.814 E2.35186
G1 X276.224 Y162.352 E2.37009
G1 X276.247 Y162.764 E2.38383
G1 X276.246 Y169.753 E2.61664
G1 X276.206 Y170.298 E2.63484
G1 X276.056 Y170.932 E2.65654
G1 X274.574 Y175.402 E2.81341
G1 X273.123 Y180.681 E2.99578
G1 X272.52 Y183.307 E3.08553
G1 X271.527 Y188.656 E3.26675
G1 X270.838 Y194.059 E3.44818
G1 X270.455 Y199.49 E3.62954
G1 X270.378 Y204.966 E3.81196
G1 X270.523 Y209.526 E3.96394
G1 X270.507 Y210.015 E3.98023
G1 X270.371 Y211.387 E4.02616
G1 X270.236 Y212.077 E4.04958
G1 X269.727 Y213.805 E4.10959
G1 X269.456 Y214.478 E4.13375
G1 X268.556 Y216.205 E4.19862
G1 X268.195 Y216.768 E4.2209
G1 X267.433 Y217.752 E4.26236
G1 X267.111 Y218.116 E4.27854
G1 X266.158 Y219.063 E4.3233
G1 X265.701 Y219.45 E4.34325
G1 X264.374 Y220.402 E4.39765
G1 X263.735 Y220.771 E4.42223
G1 X261.63 Y221.724 E4.4992
G1 X261.116 Y221.913 E4.51744
G1 X260.807 Y221.987 E4.52802
G1 X259.353 Y222.273 E4.57738
G1 X259.036 Y222.322 E4.58807
G1 X257.918 Y222.444 E4.62553
G1 X257.308 Y222.461 E4.64586
G1 X255.515 Y222.364 E4.70567
G1 X255.018 Y222.303 E4.72235
G1 X253.386 Y221.993 E4.77768
G1 X252.857 Y221.852 E4.79592
G1 X252.528 Y221.72 E4.80773
G1 X250.429 Y220.761 E4.8846
G1 X249.762 Y220.369 E4.91037
G1 X248.302 Y219.293 E4.97078
G1 X247.797 Y218.845 E4.99327
G1 X246.698 Y217.678 E5.04667
G1 X246.327 Y217.215 E5.06643
G1 X245.559 Y216.085 E5.11194
G1 X245.434 Y215.888 E5.11971
G1 X242.344 Y210.671 E5.32169
G1 X239.298 Y206.148 E5.50333
G1 X236.004 Y201.806 E5.68488
G1 X232.484 Y197.675 E5.86566
G1 X228.705 Y193.715 E6.048
G1 X226.79 Y191.872 E6.13653
G1 X222.669 Y188.23 E6.31973
G1 X218.398 Y184.867 E6.5008
G1 X213.954 Y181.757 E6.68148
G1 X208.553 Y178.442 E6.89258
G1 X208.109 Y178.122 E6.91081
G1 X207.716 Y177.742 E6.92902
G1 X207.382 Y177.307 E6.94729
G1 X207.116 Y176.829 E6.96551
G1 X206.921 Y176.318 E6.98373
G1 X206.804 Y175.783 E7.00197
G1 X206.765 Y175.246 E7.0199
G1 X206.765 Y162.762 E7.43575
G1 X206.805 Y162.216 E7.45399
G1 X206.924 Y161.682 E7.47221
G1 X207.119 Y161.171 E7.49043
G1 X207.387 Y160.693 E7.50868
G0 F3937.5 X207.885 Y160.853
G1 F900 X208.215 Y160.466 E7.52563
G1 X208.602 Y160.134 E7.54261
G1 X209.037 Y159.868 E7.5596
G1 X209.507 Y159.672 E7.57656
G1 X210.002 Y159.553 E7.59352
G1 X210.515 Y159.512 E7.61066
G1 X272.497 Y159.513 E9.6753
G1 X273.005 Y159.553 E9.69228
G1 X273.5 Y159.672 E9.70923
G1 X273.971 Y159.867 E9.72621
G1 X274.406 Y160.133 E9.7432
G1 X274.793 Y160.463 E9.76014
G1 X275.125 Y160.85 E9.77713
G1 X275.391 Y161.285 E9.79411
G1 X275.587 Y161.755 E9.81107
G1 X275.706 Y162.25 E9.82803
G1 X275.747 Y162.763 E9.84517
G1 X275.746 Y169.752 E10.07798
G1 X275.706 Y170.26 E10.09495
G1 X275.581 Y170.774 E10.11257
G1 X274.1 Y175.241 E10.26934
G1 X272.638 Y180.558 E10.45302
G1 X272.027 Y183.22 E10.544
G1 X271.033 Y188.574 E10.72539
G1 X270.34 Y194.012 E10.908
G1 X269.955 Y199.46 E11.08992
G1 X269.878 Y204.975 E11.27365
G1 X270.023 Y209.542 E11.42585
G1 X270.009 Y209.966 E11.43999
G1 X269.873 Y211.338 E11.48591
G1 X269.757 Y211.935 E11.50617
G1 X269.248 Y213.663 E11.56617
G1 X269.012 Y214.247 E11.58716
G1 X268.112 Y215.974 E11.65203
G1 X267.8 Y216.462 E11.67132
G1 X267.038 Y217.446 E11.71278
G1 X266.759 Y217.761 E11.72679
G1 X265.806 Y218.708 E11.77155
G1 X265.409 Y219.044 E11.78887
G1 X264.082 Y219.996 E11.84327
G1 X263.528 Y220.316 E11.86458
G1 X261.423 Y221.269 E11.94155
G1 X260.71 Y221.497 E11.96649
G1 X259.256 Y221.783 E12.01585
G1 X258.982 Y221.825 E12.02508
G1 X257.864 Y221.947 E12.06255
G1 X257.335 Y221.961 E12.08017
G1 X255.542 Y221.864 E12.13999
G1 X255.112 Y221.812 E12.15441
G1 X253.48 Y221.502 E12.20975
G1 X252.988 Y221.368 E12.22673
G1 X252.735 Y221.265 E12.23583
G1 X250.636 Y220.306 E12.3127
G1 X250.059 Y219.966 E12.33501
G1 X248.599 Y218.89 E12.39543
G1 X248.161 Y218.502 E12.41492
G1 X247.062 Y217.335 E12.46831
G1 X246.74 Y216.934 E12.48544
G1 X245.972 Y215.804 E12.53096
G1 X245.864 Y215.633 E12.53769
G1 X242.766 Y210.402 E12.74021
G1 X239.702 Y205.852 E12.92293
G1 X236.406 Y201.506 E13.10462
G1 X232.847 Y197.331 E13.28736
G1 X229.071 Y193.375 E13.46953
G1 X227.102 Y191.48 E13.56056
G1 X223.002 Y187.856 E13.74284
G1 X218.7 Y184.469 E13.92522
G1 X214.222 Y181.335 E14.10729
G1 X208.815 Y178.016 E14.31862
G1 X208.403 Y177.716 E14.3356
G1 X208.043 Y177.356 E14.35256
G1 X207.743 Y176.943 E14.36956
G1 X207.512 Y176.489 E14.38653
G1 X207.355 Y176.005 E14.40348
G1 X207.275 Y175.502 E14.42044
G1 X207.265 Y175.246 E14.42898
G1 X207.265 Y162.762 E14.84482
G1 X207.305 Y162.254 E14.8618
G1 X207.424 Y161.759 E14.87876
G1 X207.619 Y161.288 E14.89574
G1 X207.885 Y160.853 E14.91272
G1 F600 E13.16272
G0 F3937.5 X209.845 Y175.381
G0 X210.378 Y175.914
G0 X250.74 Y202.504
;TYPE:SUPPORT
G1 F600 E14.91272
G1 F900 X251.33 Y202.076 E14.937
G1 X251.476 Y202.522 E14.95263
G1 X262.708 Y202.522 E15.32678
G1 X262.854 Y202.078 E15.34234
G1 X263.466 Y202.528 E15.36765
G1 X264.067 Y203.174 E15.39704
G1 X264.416 Y203.516 E15.41332
G1 X265.144 Y204.518 E15.45457
G1 X265.664 Y205.443 E15.48992
G1 X266.079 Y206.459 E15.52648
G1 X266.365 Y207.511 E15.56279
G1 X266.481 Y208.274 E15.5885
G1 X266.522 Y208.746 E15.60428
G1 X266.524 Y208.757 E15.60465
G1 X266.542 Y209.306 E15.62295
G1 X266.542 Y209.329 E15.62372
G1 X266.526 Y209.854 E15.64121
G1 X266.455 Y210.691 E15.66919
G1 X266.263 Y211.581 E15.69952
G1 X266.113 Y212.089 E15.71717
G1 X266.003 Y212.413 E15.72856
G1 X265.992 Y212.421 E15.72902
G1 X265.683 Y213.166 E15.75588
G1 X265.553 Y213.425 E15.76554
G1 X265.06 Y214.289 E15.79867
G1 X265.028 Y214.309 E15.79993
G1 X264.441 Y215.117 E15.8332
G1 X264.336 Y215.244 E15.83868
G1 X264.278 Y215.273 E15.84084
G1 X263.684 Y215.913 E15.86993
G1 X263.392 Y216.191 E15.88336
G1 X263.284 Y216.232 E15.88721
G1 X262.792 Y216.629 E15.90827
G1 X262.294 Y217.002 E15.92899
G1 X262.087 Y217.134 E15.93717
G1 X261.913 Y217.186 E15.94322
G1 X261.272 Y217.54 E15.96761
G1 X260.796 Y217.768 E15.98519
G1 X260.009 Y218.079 E16.01338
G1 X258.518 Y218.37 E16.06398
G1 X257.899 Y218.452 E16.08478
G1 X257.444 Y218.479 E16.09997
G1 X256.798 Y218.479 E16.12148
G1 X256.236 Y218.444 E16.14024
G1 X255.631 Y218.365 E16.16056
G1 X254.159 Y218.079 E16.21051
G1 X253.386 Y217.768 E16.23827
G1 X253.033 Y217.6 E16.25129
G1 X252.791 Y217.477 E16.26033
G1 X252.279 Y217.195 E16.2798
G1 X252.11 Y217.142 E16.2857
G1 X251.839 Y216.965 E16.29649
G1 X251.412 Y216.654 E16.31408
G1 X250.91 Y216.243 E16.33569
G1 X250.802 Y216.198 E16.33959
G1 X250.495 Y215.904 E16.35375
G1 X249.902 Y215.277 E16.3825
G1 X249.869 Y215.26 E16.38373
G1 X249.788 Y215.161 E16.38799
G1 X249.697 Y215.06 E16.39252
G1 X249.152 Y214.299 E16.4237
G1 X249.121 Y214.282 E16.42488
G1 X249.04 Y214.155 E16.4299
G1 X248.602 Y213.369 E16.45987
G1 X248.589 Y213.361 E16.46038
G1 X248.489 Y213.156 E16.46798
G1 X248.197 Y212.415 E16.49451
G1 X248.184 Y212.406 E16.49503
G1 X247.954 Y211.722 E16.51907
G1 X247.732 Y210.661 E16.55518
G1 X247.658 Y209.813 E16.58353
G1 X247.642 Y209.337 E16.5994
G1 X247.642 Y209.315 E16.60013
G1 X247.661 Y208.767 E16.6184
G1 X247.664 Y208.745 E16.61914
G1 X247.708 Y208.252 E16.63562
G1 X247.833 Y207.46 E16.66233
G1 X248.125 Y206.408 E16.6987
G1 X248.526 Y205.433 E16.73382
G1 X249.047 Y204.507 E16.76921
G1 X249.767 Y203.524 E16.8098
G1 X250.099 Y203.189 E16.82551
G1 X250.74 Y202.504 E16.85676
G0 F3937.5 X254.451 Y206.01
G1 F900 X253.915 Y206.571 E16.8826
G1 X253.388 Y207.234 E16.91081
G1 X253.227 Y207.547 E16.92254
G1 X252.97 Y208.16 E16.94468
G1 X252.839 Y208.727 E16.96406
G1 X252.812 Y208.954 E16.97168
G1 X252.792 Y209.338 E16.98449
G1 X252.812 Y209.672 E16.99563
G1 X252.83 Y209.913 E17.00368
G1 X252.958 Y210.465 E17.02256
G1 X253.095 Y210.875 E17.03696
G1 X253.406 Y211.451 E17.05876
G1 X253.58 Y211.755 E17.07043
G1 X254.174 Y212.367 E17.09884
G1 X254.637 Y212.766 E17.1192
G1 X255.517 Y213.172 E17.15148
G1 X255.906 Y213.308 E17.16521
G1 X256.304 Y213.408 E17.17888
G1 X256.666 Y213.457 E17.19105
G1 X257.101 Y213.477 E17.20555
G1 X257.508 Y213.459 E17.21912
G1 X257.889 Y213.41 E17.23192
G1 X258.252 Y213.316 E17.24441
G1 X258.637 Y213.183 E17.25798
G1 X259.562 Y212.761 E17.29184
G1 X260.539 Y211.898 E17.33527
G1 X261.113 Y210.824 E17.37583
G1 X261.236 Y210.432 E17.38952
G1 X261.377 Y209.795 E17.41125
G1 X261.377 Y209.571 E17.41871
G1 X261.39 Y209.271 E17.42871
G1 X261.369 Y208.937 E17.43986
G1 X261.326 Y208.651 E17.44949
G1 X261.208 Y208.138 E17.46703
G1 X260.931 Y207.496 E17.49032
G1 X260.755 Y207.184 E17.50225
G1 X260.272 Y206.573 E17.5282
G1 X259.724 Y206.005 E17.55449
G1 X259.459 Y205.927 E17.56369
G1 X259.367 Y205.859 E17.5675
G1 X258.99 Y205.644 E17.58196
G1 X258.652 Y205.488 E17.59436
G1 X258.258 Y205.355 E17.60821
G1 X257.88 Y205.262 E17.62117
G1 X257.089 Y205.148 E17.64779
G1 X256.307 Y205.263 E17.67412
G1 X255.886 Y205.365 E17.68855
G1 X255.535 Y205.493 E17.701
G1 X255.161 Y205.664 E17.7147
G1 X254.825 Y205.855 E17.72757
G1 X254.728 Y205.925 E17.73156
G1 X254.451 Y206.01 E17.74121
G0 F3937.5 X254.898 Y205.584
G1 F900 X254.898 Y202.722 E17.83654
G0 F3937.5 X253.232 Y202.722
G1 F900 X253.232 Y207.109 E17.98267
G0 F3937.5 X253.648 Y206.584
G1 F900 X248.285 Y206.584 E18.16132
G0 F3937.5 X248.234 Y206.764
G1 F900 X248.234 Y211.927 E18.3333
G0 F3937.5 X248.128 Y211.582
G1 F900 X253.251 Y211.582 E18.50395
G0 F3937.5 X253.232 Y211.551
G1 F900 X253.232 Y217.473 E18.70121
G0 F3937.5 X254.898 Y218.018
G1 F900 X254.898 Y213.108 E18.86477
G0 F3937.5 X255.207 Y213.248
G1 F900 X248.763 Y213.248 E19.07942
G0 F3937.5 X249.837 Y214.914
G1 F900 X264.34 Y214.914 E19.56252
G0 F3937.5 X264.894 Y214.157
G1 F900 X264.894 Y204.516 E19.88366
G0 F3937.5 X265.14 Y204.918
G1 F900 X249.045 Y204.918 E20.41979
G0 F3937.5 X249.9 Y203.681
G1 F900 X249.9 Y214.986 E20.79637
G0 F3937.5 X251.566 Y216.52
G1 F900 X251.566 Y202.722 E21.25598
G0 F3937.5 X250.313 Y203.252
G1 F900 X263.868 Y203.252 E21.70751
G0 F3937.5 X263.228 Y202.603
G1 F900 X263.228 Y216.041 E22.15513
G0 F3937.5 X262.522 Y216.58
G1 F900 X251.65 Y216.58 E22.51728
G0 F3937.5 X256.282 Y218.246
G1 F900 X257.928 Y218.246 E22.57211
G0 F3937.5 X258.23 Y218.207
G1 F900 X258.23 Y213.528 E22.72797
G0 F3937.5 X258.977 Y213.248
G1 F900 X265.417 Y213.248 E22.94249
G0 F3937.5 X266.054 Y211.582
G1 F900 X260.935 Y211.582 E23.113
G0 F3937.5 X259.896 Y212.733
G1 F900 X259.896 Y217.898 E23.28505
G0 F3937.5 X261.562 Y217.152
G1 F900 X261.562 Y209.883 E23.52718
G0 F3937.5 X261.555 Y209.916
G1 F900 X266.32 Y209.916 E23.68591
G0 F3937.5 X266.276 Y208.25
G1 F900 X261.438 Y208.25 E23.84706
G0 F3937.5 X261.562 Y208.873
G1 F900 X261.562 Y202.722 E24.05195
G0 F3937.5 X259.896 Y202.722
G1 F900 X259.896 Y205.895 E24.15765
G0 F3937.5 X260.536 Y206.584
G1 F900 X265.905 Y206.584 E24.33649
G0 F3937.5 X258.23 Y205.142
G1 F900 X258.23 Y202.722 E24.4171
G0 F3937.5 X256.564 Y202.722
G1 F900 X256.564 Y205.024 E24.49378
G0 F3937.5 X252.743 Y208.25
G1 F900 X247.91 Y208.25 E24.65477
G0 F3937.5 X247.867 Y209.916
G1 F900 X252.63 Y209.916 E24.81343
G0 F3937.5 X256.564 Y213.645
G1 F900 X256.564 Y218.264 E24.96729
G1 F600 E23.21729
G0 F3937.5 X252.878 Y201.993
G0 X252.599 Y200.523
G0 X251.742 Y175.918
G0 X251.742 Y174.489
G0 X251.686 Y174.433
G0 X251.756 Y174.503
;TYPE:WALL-INNER
G1 F600 E24.96729
G1 F900 X211.256 Y174.503 E26.31636
G1 X211.256 Y163.503 E26.68277
G1 X225.105 Y163.503 E27.14409
G1 X225.549 Y163.503 E27.15888
G1 X226.201 Y163.503 E27.1806
G1 X226.795 Y163.503 E27.20038
G1 X227.455 Y163.503 E27.22237
G1 X228.113 Y163.503 E27.24429
G1 X228.708 Y163.503 E27.26411
G1 X229.331 Y163.503 E27.28486
G1 X241.449 Y163.503 E27.68851
G1 X241.613 Y163.503 E27.69398
G1 X242.139 Y163.503 E27.7115
G1 X242.713 Y163.503 E27.73062
G1 X243.296 Y163.503 E27.75004
G1 X243.838 Y163.503 E27.76809
G1 X244.412 Y163.503 E27.78721
G1 X244.979 Y163.503 E27.8061
G1 X245.143 Y163.503 E27.81156
G1 X271.756 Y163.503 E28.69805
G1 X271.756 Y169.003 E28.88126
G1 X251.756 Y169.003 E29.54746
G1 X251.756 Y174.503 E29.73067
G0 F3937.5 X251.686 Y174.433
G0 X248.278 Y171.639
G0 X248.201 Y171.577
G1 F900 X248.511 Y171.15 E29.74825
G1 X248.759 Y170.717 E29.76487
G1 X248.969 Y170.239 E29.78226
G1 X249.117 Y169.743 E29.7995
G1 X249.205 Y169.262 E29.81579
G1 X249.236 Y168.747 E29.83298
G1 X249.204 Y168.232 E29.85017
G1 X249.108 Y167.726 E29.86732
G1 X248.965 Y167.254 E29.88375
G1 X248.754 Y166.776 E29.90115
G1 X248.489 Y166.325 E29.91858
G1 X248.191 Y165.916 E29.93543
G1 X247.83 Y165.518 E29.95333
G1 X247.425 Y165.156 E29.97143
G1 X247.007 Y164.847 E29.98874
G1 X246.533 Y164.558 E30.00724
G1 X246.026 Y164.31 E30.02604
G1 X245.496 Y164.109 E30.04492
G1 X245.136 Y164.001 E30.05744
G1 X244.979 Y163.955 E30.06263
G1 X244.412 Y163.842 E30.07792
G1 X243.838 Y163.775 E30.08971
G1 X243.296 Y163.753 E30.09915
G1 X242.713 Y163.777 E30.10933
G1 X242.139 Y163.849 E30.12132
G1 X241.613 Y163.955 E30.13563
G1 X241.456 Y164.001 E30.14082
G1 X241.06 Y164.12 E30.15459
G1 X240.527 Y164.327 E30.17364
G1 X240.018 Y164.581 E30.19259
G1 X239.581 Y164.849 E30.20966
G1 X239.138 Y165.179 E30.22806
G1 X238.767 Y165.512 E30.24467
G1 X238.4 Y165.916 E30.26285
G1 X238.085 Y166.35 E30.28071
G1 X237.843 Y166.765 E30.29672
G1 X237.628 Y167.25 E30.31439
G1 X237.475 Y167.758 E30.33206
G1 X237.385 Y168.271 E30.34941
G1 X237.356 Y168.737 E30.36496
G1 X237.386 Y169.263 E30.38251
G1 X237.483 Y169.782 E30.4001
G1 X237.641 Y170.281 E30.41754
G1 X237.83 Y170.715 E30.4333
G1 X238.1 Y171.181 E30.45124
G1 X238.422 Y171.613 E30.46919
G1 X238.786 Y172.007 E30.48706
G1 X239.156 Y172.345 E30.50375
G1 X239.606 Y172.673 E30.5223
G1 X240.082 Y172.96 E30.54082
G1 X240.55 Y173.19 E30.55819
G1 X241.085 Y173.395 E30.57727
G1 X241.636 Y173.554 E30.59637
G1 X242.159 Y173.661 E30.61416
G1 X242.735 Y173.732 E30.63349
G1 X243.318 Y173.753 E30.65292
G1 X243.894 Y173.728 E30.67213
G1 X244.433 Y173.661 E30.69022
G1 X244.997 Y173.546 E30.70939
G1 X245.544 Y173.383 E30.7284
G1 X246.043 Y173.189 E30.74624
G1 X246.549 Y172.94 E30.76502
G1 X247.02 Y172.651 E30.78343
G1 X247.437 Y172.342 E30.80072
G1 X247.841 Y171.977 E30.81885
G1 X248.201 Y171.577 E30.83678
G0 F3937.5 X248.278 Y171.639
G0 X247.042 Y172.684
G0 X246.059 Y173.225
G0 X245.006 Y173.584
G0 X243.897 Y173.767
G0 X242.732 Y173.771
G0 X241.627 Y173.592
G0 X240.535 Y173.226
G0 X233.996 Y169.5
G0 X233.898 Y169.481
G1 F900 X233.963 Y168.954 E30.85447
G1 X233.953 Y168.427 E30.87203
G1 X233.877 Y167.929 E30.88881
G1 X233.726 Y167.416 E30.90662
