;FLAVOR:Marlin
;TIME:7027
;Filament used: 2.98414m
;Layer height: 0.1
;Generated with Cura_SteamEngine 3.2.1
M190 S60
M104 S190
M109 S190
M82 ;absolute extrusion mode
G21 ;metric values
G90 ;absolute positioning
M82 ;set extruder to absolute mode
M107 ;start with the fan off
G28 X0 Y0 ;move X/Y to min endstops
G28 Z0 ;move Z to min endstops
G1 Z15.0 F9000 ;move the platform down 15mm
G92 E0 ;zero the extruded length
G1 F200 E3 ;extrude 3mm of feed stock
G92 E0 ;zero the extruded length again
G1 F9000
;Put printing message on LCD screen
M117 Printing...
;LAYER_COUNT:199
;LAYER:0
M107
G0 F3600 X62.824 Y88.439 Z0.3
;TYPE:SKIRT
G1 F1200 X63.504 Y88.038 E0.03938
G1 X64.222 Y87.708 E0.07881
G1 X64.969 Y87.453 E0.11819
G1 X65.738 Y87.274 E0.15758
G1 X66.522 Y87.174 E0.19701
G1 X67.117 Y87.151 E0.22672
G1 X128.883 Y87.151 E3.30824
G1 X129.672 Y87.191 E3.34765
G1 X130.452 Y87.31 E3.38701
G1 X131.217 Y87.508 E3.42644
G1 X131.957 Y87.782 E3.46581
G1 X132.666 Y88.13 E3.50521
G1 X133.337 Y88.548 E3.54465
G1 X133.961 Y89.031 E3.58402
G1 X134.398 Y89.436 E3.61374
G1 X134.515 Y89.553 E3.622
G1 X135.045 Y90.139 E3.66142
G1 X135.512 Y90.775 E3.70078
G1 X135.913 Y91.455 E3.74017
G1 X136.243 Y92.173 E3.77959
G1 X136.498 Y92.92 E3.81897
G1 X136.677 Y93.689 E3.85836
G1 X136.777 Y94.473 E3.89779
G1 X136.8 Y95.068 E3.9275
G1 X136.8 Y101.834 E4.26506
G1 X136.76 Y102.623 E4.30447
G1 X136.641 Y103.403 E4.34383
G1 X136.443 Y104.168 E4.38326
G1 X136.169 Y104.908 E4.42263
G1 X135.821 Y105.617 E4.46203
G1 X135.403 Y106.288 E4.50147
G1 X134.92 Y106.912 E4.54084
G1 X134.515 Y107.349 E4.57056
G1 X134.398 Y107.466 E4.57882
G1 X133.812 Y107.996 E4.61824
G1 X133.176 Y108.463 E4.6576
G1 X132.496 Y108.864 E4.69699
G1 X131.778 Y109.194 E4.73641
G1 X131.031 Y109.449 E4.77579
G1 X130.262 Y109.628 E4.81518
G1 X129.478 Y109.728 E4.85461
G1 X128.883 Y109.751 E4.88432
G1 X116.412 Y109.751 E5.5065
G1 X116.169 Y110.408 E5.54145
G1 X115.821 Y111.117 E5.58085
G1 X115.403 Y111.788 E5.62029
G1 X114.92 Y112.412 E5.65966
G1 X114.515 Y112.849 E5.68939
G1 X114.398 Y112.966 E5.69764
G1 X113.812 Y113.496 E5.73706
G1 X113.176 Y113.963 E5.77643
G1 X112.496 Y114.364 E5.81581
G1 X111.778 Y114.694 E5.85523
G1 X111.031 Y114.949 E5.89461
G1 X110.262 Y115.128 E5.93401
G1 X109.478 Y115.228 E5.97344
G1 X108.883 Y115.251 E6.00314
G1 X67.117 Y115.251 E8.08686
G1 X66.328 Y115.211 E8.12627
G1 X65.548 Y115.092 E8.16564
G1 X64.783 Y114.894 E8.20506
G1 X64.043 Y114.62 E8.24443
G1 X63.334 Y114.272 E8.28383
G1 X62.663 Y113.854 E8.32327
G1 X62.039 Y113.371 E8.36264
G1 X61.602 Y112.966 E8.39236
G1 X61.485 Y112.849 E8.40062
G1 X60.955 Y112.263 E8.44004
G1 X60.488 Y111.627 E8.4794
G1 X60.087 Y110.947 E8.51879
G1 X59.757 Y110.229 E8.55821
G1 X59.502 Y109.482 E8.59759
G1 X59.323 Y108.713 E8.63698
G1 X59.223 Y107.929 E8.67641
G1 X59.2 Y107.334 E8.70612
G1 X59.2 Y95.068 E9.31807
G1 X59.24 Y94.279 E9.35749
G1 X59.359 Y93.499 E9.39685
G1 X59.557 Y92.734 E9.43628
G1 X59.831 Y91.994 E9.47564
G1 X60.179 Y91.285 E9.51505
G1 X60.597 Y90.614 E9.55449
G1 X61.08 Y89.99 E9.59386
G1 X61.485 Y89.553 E9.62358
G1 X61.602 Y89.436 E9.63184
G1 X62.188 Y88.906 E9.67126
G1 X62.824 Y88.439 E9.71062
G0 F3600 X63.078 Y88.751
G1 F1200 X63.743 Y88.365 E9.74898
G1 X64.445 Y88.05 E9.78737
G1 X65.176 Y87.81 E9.82576
G1 X65.927 Y87.647 E9.8641
G1 X66.692 Y87.563 E9.90249
G1 X67.117 Y87.551 E9.9237
G1 X128.883 Y87.551 E13.00522
G1 X129.651 Y87.591 E13.04359
G1 X130.411 Y87.71 E13.08197
G1 X131.154 Y87.908 E13.12033
G1 X131.873 Y88.182 E13.15872
G1 X132.559 Y88.529 E13.19707
G1 X133.206 Y88.945 E13.23545
G1 X133.806 Y89.426 E13.27381
G1 X134.116 Y89.718 E13.29506
G1 X134.233 Y89.835 E13.30331
G1 X134.747 Y90.407 E13.34168
G1 X135.2 Y91.029 E13.38007
G1 X135.586 Y91.694 E13.41843
G1 X135.901 Y92.396 E13.45682
G1 X136.141 Y93.127 E13.4952
G1 X136.304 Y93.878 E13.53354
G1 X136.388 Y94.643 E13.57194
G1 X136.4 Y95.068 E13.59315
G1 X136.4 Y101.834 E13.93071
G1 X136.36 Y102.602 E13.96907
G1 X136.241 Y103.362 E14.00745
G1 X136.043 Y104.105 E14.04581
G1 X135.769 Y104.824 E14.0842
G1 X135.422 Y105.51 E14.12256
G1 X135.006 Y106.157 E14.16093
G1 X134.525 Y106.757 E14.1993
G1 X134.233 Y107.067 E14.22054
G1 X134.116 Y107.184 E14.2288
G1 X133.544 Y107.698 E14.26716
G1 X132.922 Y108.151 E14.30555
G1 X132.257 Y108.537 E14.34391
G1 X131.555 Y108.852 E14.3823
G1 X130.824 Y109.092 E14.42069
G1 X130.073 Y109.255 E14.45903
G1 X129.308 Y109.339 E14.49742
G1 X128.883 Y109.351 E14.51863
G1 X116.111 Y109.351 E15.15583
G1 X116.043 Y109.605 E15.16895
G1 X115.769 Y110.324 E15.20734
G1 X115.422 Y111.01 E15.24569
G1 X115.006 Y111.657 E15.28407
G1 X114.525 Y112.257 E15.32243
G1 X114.233 Y112.567 E15.34368
G1 X114.116 Y112.684 E15.35193
G1 X113.544 Y113.198 E15.3903
G1 X112.922 Y113.651 E15.42869
G1 X112.257 Y114.037 E15.46705
G1 X111.555 Y114.352 E15.50544
G1 X110.824 Y114.592 E15.54382
G1 X110.073 Y114.755 E15.58216
G1 X109.308 Y114.839 E15.62056
G1 X108.883 Y114.851 E15.64177
G1 X67.117 Y114.851 E17.72548
G1 X66.349 Y114.811 E17.76385
G1 X65.589 Y114.692 E17.80223
G1 X64.846 Y114.494 E17.84059
G1 X64.127 Y114.22 E17.87898
G1 X63.441 Y113.873 E17.91733
G1 X62.794 Y113.457 E17.95571
G1 X62.194 Y112.976 E17.99407
G1 X61.884 Y112.684 E18.01532
G1 X61.767 Y112.567 E18.02358
G1 X61.253 Y111.995 E18.06194
G1 X60.8 Y111.373 E18.10033
G1 X60.414 Y110.708 E18.13869
G1 X60.099 Y110.006 E18.17708
G1 X59.859 Y109.275 E18.21547
G1 X59.696 Y108.524 E18.25381
G1 X59.612 Y107.759 E18.2922
G1 X59.6 Y107.334 E18.31341
G1 X59.6 Y95.068 E18.92537
G1 X59.64 Y94.3 E18.96373
G1 X59.759 Y93.54 E19.00211
G1 X59.957 Y92.797 E19.04047
G1 X60.231 Y92.078 E19.07886
G1 X60.578 Y91.392 E19.11722
G1 X60.994 Y90.745 E19.15559
G1 X61.475 Y90.145 E19.19396
G1 X61.767 Y89.835 E19.2152
G1 X61.884 Y89.718 E19.22346
G1 X62.456 Y89.204 E19.26182
G1 X63.078 Y88.751 E19.30021
G0 F3600 X63.33 Y89.064
G1 F1200 X63.98 Y88.693 E19.33755
G1 X64.666 Y88.394 E19.37489
G1 X65.38 Y88.17 E19.41222
G1 X66.113 Y88.023 E19.44952
G1 X67.117 Y87.951 E19.49974
G1 X128.883 Y87.951 E22.58125
G1 X129.63 Y87.991 E22.61858
G1 X130.368 Y88.11 E22.65587
G1 X131.09 Y88.308 E22.69322
G1 X131.786 Y88.581 E22.73052
G1 X132.449 Y88.928 E22.76785
G1 X133.072 Y89.343 E22.8052
G1 X133.833 Y90.001 E22.85539
G1 X133.95 Y90.118 E22.86365
G1 X134.45 Y90.675 E22.90099
G1 X134.887 Y91.281 E22.93826
G1 X135.258 Y91.931 E22.9756
G1 X135.557 Y92.617 E23.01294
G1 X135.781 Y93.331 E23.05027
G1 X135.928 Y94.064 E23.08757
G1 X136 Y95.068 E23.13779
G1 X136 Y101.834 E23.47534
G1 X135.96 Y102.581 E23.51266
G1 X135.841 Y103.319 E23.54996
G1 X135.643 Y104.041 E23.58731
G1 X135.37 Y104.737 E23.62461
G1 X135.023 Y105.4 E23.66194
G1 X134.608 Y106.023 E23.69929
G1 X133.95 Y106.784 E23.74948
G1 X133.833 Y106.901 E23.75773
G1 X133.276 Y107.401 E23.79508
G1 X132.67 Y107.838 E23.83235
G1 X132.02 Y108.209 E23.86969
G1 X131.334 Y108.508 E23.90703
G1 X130.62 Y108.732 E23.94436
G1 X129.887 Y108.879 E23.98166
G1 X128.883 Y108.951 E24.03188
G1 X115.805 Y108.951 E24.68434
G1 X115.643 Y109.541 E24.71486
G1 X115.37 Y110.237 E24.75216
G1 X115.023 Y110.9 E24.7895
G1 X114.608 Y111.523 E24.82684
G1 X113.95 Y112.284 E24.87703
G1 X113.833 Y112.401 E24.88529
G1 X113.276 Y112.901 E24.92263
G1 X112.67 Y113.338 E24.95991
G1 X112.02 Y113.709 E24.99724
G1 X111.334 Y114.008 E25.03458
G1 X110.62 Y114.232 E25.07191
G1 X109.887 Y114.379 E25.10921
G1 X108.883 Y114.451 E25.15943
G1 X67.117 Y114.451 E27.24314
G1 X66.37 Y114.411 E27.28046
G1 X65.632 Y114.292 E27.31776
G1 X64.91 Y114.094 E27.35511
G1 X64.214 Y113.821 E27.39241
G1 X63.551 Y113.474 E27.42974
G1 X62.928 Y113.059 E27.46709
G1 X62.167 Y112.401 E27.51728
G1 X62.05 Y112.284 E27.52553
G1 X61.55 Y111.727 E27.56288
G1 X61.113 Y111.121 E27.60015
G1 X60.742 Y110.471 E27.63749
G1 X60.443 Y109.785 E27.67483
G1 X60.219 Y109.071 E27.71216
G1 X60.072 Y108.338 E27.74946
G1 X60 Y107.334 E27.79967
G1 X60 Y95.068 E28.41163
G1 X60.04 Y94.321 E28.44895
G1 X60.159 Y93.583 E28.48624
G1 X60.357 Y92.861 E28.52359
G1 X60.63 Y92.165 E28.56089
G1 X60.977 Y91.502 E28.59823
G1 X61.392 Y90.879 E28.63557
G1 X62.05 Y90.118 E28.68576
G1 X62.167 Y90.001 E28.69402
G1 X62.724 Y89.501 E28.73136
G1 X63.33 Y89.064 E28.76864
G0 F3600 X63.582 Y89.377
G1 F1200 X64.216 Y89.023 E28.80486
G1 X64.885 Y88.74 E28.8411
G1 X65.581 Y88.532 E28.87734
G1 X66.296 Y88.402 E28.9136
G1 X67.117 Y88.351 E28.95464
G1 X128.883 Y88.351 E32.03616
G1 X129.608 Y88.391 E32.07238
G1 X130.325 Y88.51 E32.10864
G1 X131.024 Y88.708 E32.14489
G1 X131.697 Y88.981 E32.18112
G1 X132.336 Y89.326 E32.21735
G1 X132.933 Y89.74 E32.2536
G1 X133.55 Y90.284 E32.29464
G1 X133.667 Y90.401 E32.30289
G1 X134.151 Y90.942 E32.33911
G1 X134.574 Y91.533 E32.37537
G1 X134.928 Y92.167 E32.41159
G1 X135.211 Y92.836 E32.44783
G1 X135.419 Y93.532 E32.48407
G1 X135.549 Y94.247 E32.52033
G1 X135.6 Y95.068 E32.56137
G1 X135.6 Y101.834 E32.89893
G1 X135.56 Y102.559 E32.93515
G1 X135.441 Y103.276 E32.97141
G1 X135.243 Y103.975 E33.00766
G1 X134.97 Y104.648 E33.04389
G1 X134.625 Y105.287 E33.08012
G1 X134.211 Y105.884 E33.11637
G1 X133.667 Y106.501 E33.1574
G1 X133.55 Y106.618 E33.16566
G1 X133.009 Y107.102 E33.20187
G1 X132.418 Y107.525 E33.23813
G1 X131.784 Y107.879 E33.27436
G1 X131.115 Y108.162 E33.3106
G1 X130.419 Y108.37 E33.34684
G1 X129.704 Y108.5 E33.3831
G1 X128.883 Y108.551 E33.42414
G1 X115.478 Y108.551 E34.09291
G1 X115.441 Y108.776 E34.10429
G1 X115.243 Y109.475 E34.14054
G1 X114.97 Y110.148 E34.17677
G1 X114.625 Y110.787 E34.213
G1 X114.211 Y111.384 E34.24924
G1 X113.667 Y112.001 E34.29028
G1 X113.55 Y112.118 E34.29854
G1 X113.009 Y112.602 E34.33475
G1 X112.418 Y113.025 E34.37101
G1 X111.784 Y113.379 E34.40724
G1 X111.115 Y113.662 E34.44348
G1 X110.419 Y113.87 E34.47972
G1 X109.704 Y114 E34.51598
G1 X108.883 Y114.051 E34.55702
G1 X67.117 Y114.051 E36.64073
G1 X66.392 Y114.011 E36.67696
G1 X65.675 Y113.892 E36.71322
G1 X64.976 Y113.694 E36.74946
G1 X64.303 Y113.421 E36.78569
G1 X63.664 Y113.076 E36.82192
G1 X63.067 Y112.662 E36.85817
G1 X62.45 Y112.118 E36.89921
G1 X62.333 Y112.001 E36.90746
G1 X61.849 Y111.46 E36.94368
G1 X61.426 Y110.869 E36.97994
G1 X61.072 Y110.235 E37.01616
G1 X60.789 Y109.566 E37.0524
G1 X60.581 Y108.87 E37.08865
G1 X60.451 Y108.155 E37.1249
G1 X60.4 Y107.334 E37.16594
G1 X60.4 Y95.068 E37.77789
G1 X60.44 Y94.343 E37.81412
G1 X60.559 Y93.626 E37.85038
G1 X60.757 Y92.927 E37.88663
G1 X61.03 Y92.254 E37.92286
G1 X61.375 Y91.615 E37.95909
G1 X61.789 Y91.018 E37.99533
G1 X62.333 Y90.401 E38.03637
G1 X62.45 Y90.284 E38.04463
G1 X62.991 Y89.8 E38.08084
G1 X63.582 Y89.377 E38.1171
G0 F3600 X63.833 Y89.692
G1 F1200 X64.451 Y89.354 E38.15224
G1 X65.102 Y89.087 E38.18735
G1 X65.78 Y88.897 E38.22248
G1 X66.475 Y88.784 E38.25761
G1 X67.117 Y88.751 E38.28968
G1 X128.883 Y88.751 E41.3712
G1 X129.586 Y88.791 E41.40633
G1 X130.28 Y88.91 E41.44145
G1 X130.955 Y89.108 E41.47655
G1 X131.604 Y89.38 E41.51166
G1 X132.218 Y89.725 E41.54679
G1 X132.789 Y90.136 E41.58189
G1 X133.267 Y90.567 E41.614
G1 X133.384 Y90.684 E41.62226
G1 X133.853 Y91.209 E41.65738
G1 X134.259 Y91.784 E41.6925
G1 X134.597 Y92.402 E41.72764
G1 X134.864 Y93.053 E41.76274
G1 X135.054 Y93.731 E41.79787
G1 X135.167 Y94.426 E41.833
G1 X135.2 Y95.068 E41.86507
G1 X135.2 Y101.834 E42.20263
G1 X135.16 Y102.537 E42.23776
G1 X135.041 Y103.231 E42.27289
G1 X134.843 Y103.906 E42.30798
G1 X134.571 Y104.555 E42.34309
G1 X134.226 Y105.169 E42.37823
G1 X133.815 Y105.74 E42.41333
G1 X133.384 Y106.218 E42.44544
G1 X133.267 Y106.335 E42.45369
G1 X132.742 Y106.804 E42.48881
G1 X132.167 Y107.21 E42.52393
G1 X131.549 Y107.548 E42.55907
G1 X130.898 Y107.815 E42.59418
G1 X130.22 Y108.005 E42.62931
G1 X129.525 Y108.118 E42.66444
G1 X128.883 Y108.151 E42.69651
G1 X115.14 Y108.151 E43.38215
G1 X115.041 Y108.731 E43.4115
G1 X114.843 Y109.406 E43.4466
G1 X114.571 Y110.055 E43.48171
G1 X114.226 Y110.669 E43.51684
G1 X113.815 Y111.24 E43.55194
G1 X113.384 Y111.718 E43.58405
G1 X113.267 Y111.835 E43.59231
G1 X112.742 Y112.304 E43.62743
G1 X112.167 Y112.71 E43.66255
G1 X111.549 Y113.048 E43.69769
G1 X110.898 Y113.315 E43.73279
G1 X110.22 Y113.505 E43.76792
G1 X109.525 Y113.618 E43.80305
G1 X108.883 Y113.651 E43.83512
G1 X67.117 Y113.651 E45.91884
G1 X66.414 Y113.611 E45.95397
G1 X65.72 Y113.492 E45.98909
G1 X65.045 Y113.294 E46.02419
G1 X64.396 Y113.022 E46.0593
G1 X63.782 Y112.677 E46.09443
G1 X63.211 Y112.266 E46.12953
G1 X62.733 Y111.835 E46.16164
G1 X62.616 Y111.718 E46.1699
G1 X62.147 Y111.193 E46.20502
G1 X61.741 Y110.618 E46.24014
G1 X61.403 Y110 E46.27528
G1 X61.136 Y109.349 E46.31038
G1 X60.946 Y108.671 E46.34551
G1 X60.833 Y107.976 E46.38064
G1 X60.8 Y107.334 E46.41271
G1 X60.8 Y95.068 E47.02467
G1 X60.84 Y94.365 E47.0598
G1 X60.959 Y93.671 E47.09493
G1 X61.157 Y92.996 E47.13002
G1 X61.429 Y92.347 E47.16513
G1 X61.774 Y91.733 E47.20026
G1 X62.185 Y91.162 E47.23536
G1 X62.616 Y90.684 E47.26747
G1 X62.733 Y90.567 E47.27573
G1 X63.258 Y90.098 E47.31085
G1 X63.833 Y89.692 E47.34597
G0 F3600 X64.083 Y90.008
G1 F1200 X64.683 Y89.686 E47.37994
G1 X65.317 Y89.437 E47.41392
G1 X65.976 Y89.264 E47.44791
G1 X66.65 Y89.17 E47.48187
G1 X67.117 Y89.151 E47.50518
G1 X128.883 Y89.151 E50.5867
G1 X129.563 Y89.191 E50.62069
G1 X130.233 Y89.31 E50.65464
G1 X130.885 Y89.507 E50.68862
G1 X131.509 Y89.779 E50.72258
G1 X132.097 Y90.123 E50.75656
G1 X132.641 Y90.533 E50.79055
G1 X132.984 Y90.85 E50.81385
G1 X133.101 Y90.967 E50.82211
G1 X133.554 Y91.476 E50.8561
G1 X133.943 Y92.034 E50.89004
G1 X134.265 Y92.634 E50.92401
G1 X134.514 Y93.268 E50.95799
G1 X134.687 Y93.927 E50.99198
G1 X134.781 Y94.601 E51.02593
G1 X134.8 Y95.068 E51.04925
G1 X134.8 Y101.834 E51.38681
G1 X134.76 Y102.514 E51.42079
G1 X134.641 Y103.184 E51.45474
G1 X134.444 Y103.836 E51.48872
G1 X134.172 Y104.46 E51.52268
G1 X133.828 Y105.048 E51.55667
G1 X133.418 Y105.592 E51.59066
G1 X133.101 Y105.935 E51.61396
G1 X132.984 Y106.052 E51.62221
G1 X132.475 Y106.505 E51.65621
G1 X131.917 Y106.894 E51.69014
G1 X131.317 Y107.216 E51.72412
G1 X130.683 Y107.465 E51.7581
G1 X130.024 Y107.638 E51.79209
G1 X129.35 Y107.732 E51.82604
G1 X128.883 Y107.751 E51.84936
G1 X114.775 Y107.751 E52.55321
G1 X114.76 Y108.014 E52.56635
G1 X114.641 Y108.684 E52.6003
G1 X114.444 Y109.336 E52.63428
G1 X114.172 Y109.96 E52.66824
G1 X113.828 Y110.548 E52.70223
G1 X113.418 Y111.092 E52.73622
G1 X113.101 Y111.435 E52.75952
G1 X112.984 Y111.552 E52.76777
G1 X112.475 Y112.005 E52.80177
G1 X111.917 Y112.394 E52.8357
G1 X111.317 Y112.716 E52.86967
G1 X110.683 Y112.965 E52.90366
G1 X110.024 Y113.138 E52.93765
G1 X109.35 Y113.232 E52.9716
G1 X108.883 Y113.251 E52.99492
G1 X67.117 Y113.251 E55.07863
G1 X66.437 Y113.211 E55.11262
G1 X65.767 Y113.092 E55.14657
G1 X65.115 Y112.895 E55.18055
G1 X64.491 Y112.623 E55.21451
G1 X63.903 Y112.279 E55.24849
G1 X63.359 Y111.869 E55.28248
G1 X63.016 Y111.552 E55.30578
G1 X62.899 Y111.435 E55.31404
G1 X62.446 Y110.926 E55.34803
G1 X62.057 Y110.368 E55.38197
G1 X61.735 Y109.768 E55.41594
G1 X61.486 Y109.134 E55.44992
G1 X61.313 Y108.475 E55.48391
G1 X61.219 Y107.801 E55.51786
G1 X61.2 Y107.334 E55.54118
G1 X61.2 Y95.068 E56.15314
G1 X61.24 Y94.388 E56.18712
G1 X61.359 Y93.718 E56.22107
G1 X61.556 Y93.066 E56.25505
G1 X61.828 Y92.442 E56.28901
G1 X62.172 Y91.854 E56.323
G1 X62.582 Y91.31 E56.35698
G1 X62.899 Y90.967 E56.38028
G1 X63.016 Y90.85 E56.38854
G1 X63.525 Y90.397 E56.42253
G1 X64.083 Y90.008 E56.45647
G0 F3600 X64.332 Y90.325
G1 F1200 X64.914 Y90.021 E56.48923
G1 X65.529 Y89.79 E56.522
G1 X66.168 Y89.635 E56.55481
G1 X67.117 Y89.551 E56.60234
G1 X128.883 Y89.551 E59.68386
G1 X129.539 Y89.591 E59.71665
G1 X130.185 Y89.71 E59.74942
G1 X130.812 Y89.907 E59.78221
G1 X131.41 Y90.179 E59.81498
G1 X131.971 Y90.521 E59.84776
G1 X132.701 Y91.133 E59.89529
G1 X132.818 Y91.25 E59.90354
G1 X133.254 Y91.742 E59.93634
G1 X133.626 Y92.283 E59.96909
G1 X133.93 Y92.865 E60.00185
G1 X134.161 Y93.48 E60.03463
G1 X134.316 Y94.119 E60.06743
G1 X134.4 Y95.068 E60.11496
G1 X134.4 Y101.834 E60.45252
G1 X134.36 Y102.49 E60.48531
G1 X134.241 Y103.136 E60.51808
G1 X134.044 Y103.763 E60.55087
