;Generated by Cura LulzBot Edition GCodeWriter Version: 2.6.69
;FLAVOR:RepRap
;TIME:6994
;Filament used: 3.69814m
;Layer height: 0.25
;Generated with Cura_SteamEngine 2.6.69
;This G-Code has been generated specifically for the LulzBot TAZ 5 with standard extruder
M140 S60    ; start bed heating up
G21                      ; set units to Millimetres
G90                      ; absolute positioning
M107                     ; disable fans
M82                      ; set extruder to absolute mode
G28 X0 Y0                ; home X and Y
G28 Z0                   ; home Z
G1 Z15.0 F{travel_speed} ; move extruder up
M117 Heating...                     ; progress indicator message on LCD
M109 R205  ; wait for extruder to reach printing temp
M190 S60    ; wait for bed to reach printing temp
G92 E0                   ; set extruder position to 0
G1 F200 E0               ; prime the nozzle with filament
G92 E0                   ; re-set extruder position to 0
G1 F{travel_speed}       ; set travel speed
M203 X192 Y208 Z3        ; set limits on travel speed
M117 TAZ 5 Printing...   ; progress indicator message on LCD

M221 S100
;LAYER_COUNT:71
;LAYER:0
M107
G0 F3937.5 X202.989 Y69.591 Z0.424
;TYPE:SKIRT
G1 F900 X203.184 Y69.12 E0.01698
G1 X203.45 Y68.686 E0.03394
G1 X203.78 Y68.298 E0.0509
G1 X204.168 Y67.967 E0.06789
G1 X204.602 Y67.701 E0.08485
G1 X205.072 Y67.505 E0.10181
G1 X205.568 Y67.386 E0.1188
G1 X206.08 Y67.345 E0.13591
G1 X252.061 Y67.346 E1.66755
G1 X252.569 Y67.386 E1.68453
G1 X253.064 Y67.505 E1.70149
G1 X253.535 Y67.7 E1.71847
G1 X253.97 Y67.966 E1.73545
G1 X254.357 Y68.296 E1.75239
G1 X254.689 Y68.683 E1.76938
G1 X254.955 Y69.118 E1.78636
G1 X255.151 Y69.588 E1.80333
G1 X255.27 Y70.083 E1.82028
G1 X255.311 Y70.596 E1.83743
G1 X255.32 Y166.293 E5.02513
G1 X255.477 Y171.832 E5.20971
G1 X255.939 Y177.274 E5.39164
G1 X256.709 Y182.675 E5.57336
G1 X257.797 Y188.099 E5.75764
G1 X258.427 Y190.669 E5.84578
G1 X259.159 Y193.332 E5.93778
G1 X260.84 Y198.559 E6.12067
G1 X262.807 Y203.667 E6.303
G1 X265.069 Y208.671 E6.48592
G1 X266.288 Y211.093 E6.57624
G1 X268.948 Y215.858 E6.75803
G1 X272.793 Y221.832 E6.99468
G1 X273.034 Y222.281 E7.01165
G1 X273.202 Y222.762 E7.02862
G1 X273.293 Y223.263 E7.04558
G1 X273.31 Y223.591 E7.05652
G1 X273.31 Y230.577 E7.28923
G1 X273.27 Y231.085 E7.3062
G1 X273.151 Y231.58 E7.32316
G1 X272.956 Y232.051 E7.34014
G1 X272.69 Y232.486 E7.35713
G1 X272.36 Y232.873 E7.37407
G1 X271.973 Y233.205 E7.39105
G1 X271.538 Y233.471 E7.40804
G1 X271.068 Y233.667 E7.425
G1 X270.573 Y233.786 E7.44196
G1 X270.06 Y233.827 E7.4591
G1 X186.079 Y233.827 E10.25654
G1 X185.571 Y233.787 E10.27351
G1 X185.076 Y233.668 E10.29047
G1 X184.605 Y233.473 E10.30745
G1 X184.17 Y233.207 E10.32444
G1 X183.783 Y232.877 E10.34138
G1 X183.451 Y232.49 E10.35836
G1 X183.185 Y232.055 E10.37535
G1 X182.989 Y231.585 E10.39231
G1 X182.87 Y231.09 E10.40927
G1 X182.829 Y230.577 E10.42641
G1 X182.83 Y223.588 E10.65922
G1 X182.87 Y223.08 E10.67619
G1 X182.989 Y222.584 E10.69318
G1 X183.184 Y222.113 E10.71016
G1 X183.419 Y221.723 E10.72533
G1 X187.01 Y216.6 E10.93373
G1 X189.875 Y211.94 E11.11594
G1 X192.477 Y207.12 E11.2984
G1 X194.799 Y202.165 E11.48068
G1 X196.855 Y197.047 E11.6644
G1 X197.741 Y194.53 E11.75329
G1 X199.349 Y189.275 E11.93634
G1 X200.66 Y183.923 E12.11989
G1 X201.192 Y181.279 E12.20973
G1 X201.649 Y178.601 E12.30023
G1 X202.346 Y173.15 E12.48328
G1 X202.733 Y167.675 E12.66611
G1 X202.82 Y163.599 E12.80191
G1 X202.83 Y70.595 E15.89991
G1 X202.87 Y70.087 E15.91688
G1 X202.989 Y69.591 E15.93387
G1 F600 E14.18387
G0 F3937.5 X205.405 Y71.35
G0 X206.834 Y71.35
G0 X206.89 Y71.406
G0 X206.82 Y71.336
;TYPE:WALL-INNER
G1 F600 E15.93387
G1 F900 X251.32 Y71.336 E17.41618
G1 X251.32 Y224.336 E22.51267
G1 X269.32 Y224.336 E23.11226
G1 X269.32 Y229.836 E23.29546
G1 X186.82 Y229.836 E26.04357
G1 X186.82 Y224.336 E26.22677
G1 X206.82 Y224.336 E26.89298
G1 X206.82 Y71.336 E31.98947
G0 F3937.5 X206.89 Y71.406
G0 X219.614 Y88.683
G0 X219.681 Y88.757
G1 F900 X218.45 Y90.031 E32.04848
G1 X217.401 Y91.455 E32.10739
G1 X216.549 Y93.008 E32.1664
G1 X215.913 Y94.661 E32.22539
G1 X215.503 Y96.382 E32.28433
G1 X215.326 Y98.143 E32.34328
G1 X215.385 Y99.912 E32.40224
G1 X215.678 Y101.658 E32.46121
G1 X216.203 Y103.349 E32.52019
G1 X216.949 Y104.954 E32.57915
G1 X217.901 Y106.447 E32.63813
G1 X219.045 Y107.798 E32.6971
G1 X220.357 Y108.986 E32.75606
G1 X221.817 Y109.988 E32.81504
G1 X223.396 Y110.786 E32.87398
G1 X225.069 Y111.367 E32.93297
G1 X226.804 Y111.72 E32.99195
G1 X228.57 Y111.838 E33.0509
G1 X230.336 Y111.72 E33.10986
G1 X232.07 Y111.367 E33.16881
G1 X233.744 Y110.786 E33.22783
G1 X235.323 Y109.988 E33.28676
G1 X236.783 Y108.986 E33.34575
G1 X238.095 Y107.798 E33.4047
G1 X239.238 Y106.447 E33.46365
G1 X240.191 Y104.954 E33.52265
G1 X240.937 Y103.349 E33.58161
G1 X241.461 Y101.658 E33.64058
G1 X241.755 Y99.912 E33.69956
G1 X241.814 Y98.143 E33.75852
G1 X241.637 Y96.382 E33.81747
G1 X241.227 Y94.661 E33.8764
G1 X240.591 Y93.008 E33.9354
G1 X239.739 Y91.455 E33.9944
G1 X238.69 Y90.031 E34.05332
G1 X237.459 Y88.757 E34.11233
G1 X236.069 Y87.661 E34.17129
G1 X234.546 Y86.759 E34.23026
G1 X232.916 Y86.068 E34.28923
G1 X231.21 Y85.6 E34.34816
G1 X229.455 Y85.364 E34.40714
G1 X227.685 Y85.364 E34.4661
G1 X225.93 Y85.6 E34.52509
G1 X224.224 Y86.068 E34.58401
G1 X222.593 Y86.759 E34.64302
G1 X221.07 Y87.661 E34.70198
G1 X219.681 Y88.757 E34.76092
G0 F3937.5 X219.614 Y88.683
G0 X218.42 Y90.006
G0 X217.368 Y91.434
G0 X216.513 Y92.992
G0 X215.875 Y94.65
G0 X215.464 Y96.376
G0 X215.287 Y98.142
G0 X215.346 Y99.915
G0 X215.64 Y101.667
G0 X226.791 Y135.354
G0 X226.804 Y135.453
G1 F900 X225.069 Y135.805 E34.81989
G1 X223.396 Y136.386 E34.87888
G1 X221.817 Y137.184 E34.93781
G1 X220.357 Y138.186 E34.9968
G1 X219.045 Y139.374 E35.05575
G1 X217.901 Y140.725 E35.11472
G1 X216.949 Y142.218 E35.17371
G1 X216.203 Y143.823 E35.23266
G1 X215.678 Y145.514 E35.29164
G1 X215.385 Y147.26 E35.35062
G1 X215.326 Y149.029 E35.40957
G1 X215.503 Y150.79 E35.46853
G1 X215.913 Y152.512 E35.52749
G1 X216.549 Y154.165 E35.58649
G1 X217.401 Y155.717 E35.64547
G1 X218.45 Y157.141 E35.70438
G1 X219.681 Y158.415 E35.76339
G1 X221.07 Y159.512 E35.82235
G1 X222.593 Y160.414 E35.88131
G1 X224.224 Y161.104 E35.9403
G1 X225.93 Y161.573 E35.99924
G1 X227.685 Y161.808 E36.05822
G1 X229.455 Y161.808 E36.11718
G1 X231.21 Y161.573 E36.17616
G1 X232.916 Y161.104 E36.2351
G1 X234.546 Y160.414 E36.29406
G1 X236.07 Y159.512 E36.35305
G1 X237.459 Y158.415 E36.412
G1 X238.69 Y157.141 E36.47102
G1 X239.739 Y155.717 E36.52993
G1 X240.59 Y154.165 E36.58889
G1 X241.227 Y152.513 E36.64787
G1 X241.637 Y150.79 E36.70686
G1 X241.814 Y149.029 E36.76582
G1 X241.755 Y147.26 E36.82478
G1 X241.461 Y145.514 E36.88376
G1 X240.937 Y143.823 E36.94273
G1 X240.191 Y142.218 E37.00168
G1 X239.238 Y140.725 E37.06068
G1 X238.095 Y139.374 E37.11963
G1 X236.783 Y138.186 E37.17859
G1 X235.323 Y137.184 E37.23757
G1 X233.744 Y136.386 E37.29651
G1 X232.07 Y135.805 E37.35553
G1 X230.336 Y135.453 E37.41447
G1 X228.57 Y135.334 E37.47343
G1 X226.804 Y135.453 E37.53239
G0 F3937.5 X226.791 Y135.354
G0 X225.059 Y135.767
G0 X223.381 Y136.35
G0 X221.797 Y137.15
G0 X220.333 Y138.155
G0 X219.017 Y139.347
G0 X217.869 Y140.702
G0 X216.914 Y142.199
G0 X216.166 Y143.809
G0 X215.64 Y145.505
G0 X215.346 Y147.257
G0 X215.287 Y149.03
G0 X215.464 Y150.796
G0 X215.875 Y152.523
G0 X227.679 Y185.265
G0 X227.685 Y185.364
G1 F900 X225.93 Y185.6 E37.59137
G1 X224.224 Y186.068 E37.6503
G1 X222.593 Y186.759 E37.7093
G1 X221.07 Y187.661 E37.76827
G1 X219.681 Y188.757 E37.8272
G1 X218.45 Y190.031 E37.88621
G1 X217.401 Y191.455 E37.94513
G1 X216.549 Y193.008 E38.00413
G1 X215.913 Y194.661 E38.06313
G1 X215.503 Y196.382 E38.12206
G1 X215.326 Y198.143 E38.18102
G1 X215.385 Y199.912 E38.23998
G1 X215.678 Y201.658 E38.29895
G1 X216.203 Y203.349 E38.35793
G1 X216.949 Y204.954 E38.41689
G1 X217.901 Y206.447 E38.47587
G1 X219.045 Y207.798 E38.53484
G1 X220.357 Y208.986 E38.59379
G1 X221.817 Y209.988 E38.65278
G1 X223.396 Y210.786 E38.71171
G1 X225.069 Y211.367 E38.7707
G1 X226.804 Y211.72 E38.82968
G1 X228.57 Y211.838 E38.88864
G1 X230.336 Y211.72 E38.9476
G1 X232.07 Y211.367 E39.00654
G1 X233.744 Y210.786 E39.06557
G1 X235.323 Y209.988 E39.1245
G1 X236.783 Y208.986 E39.18348
G1 X238.095 Y207.798 E39.24244
G1 X239.238 Y206.447 E39.30139
G1 X240.191 Y204.954 E39.36039
G1 X240.937 Y203.349 E39.41934
G1 X241.461 Y201.658 E39.47831
G1 X241.755 Y199.912 E39.53729
G1 X241.814 Y198.143 E39.59625
G1 X241.637 Y196.382 E39.65521
G1 X241.227 Y194.66 E39.71417
G1 X240.59 Y193.008 E39.77315
G1 X239.739 Y191.455 E39.83214
G1 X238.69 Y190.031 E39.89105
G1 X237.459 Y188.757 E39.95006
G1 X236.069 Y187.661 E40.00903
G1 X234.546 Y186.759 E40.06799
G1 X232.916 Y186.068 E40.12696
G1 X231.21 Y185.6 E40.18589
G1 X229.455 Y185.364 E40.24487
G1 X227.685 Y185.364 E40.30383
G0 F3937.5 X227.718 Y185.864
;TYPE:WALL-OUTER
G1 F900 X226.03 Y186.091 E40.36057
G1 X224.388 Y186.541 E40.41728
G1 X222.819 Y187.206 E40.47404
G1 X221.354 Y188.074 E40.53077
G1 X220.017 Y189.129 E40.5875
G1 X218.833 Y190.354 E40.64425
G1 X217.823 Y191.725 E40.70097
G1 X217.004 Y193.219 E40.75772
G1 X216.392 Y194.809 E40.81448
G1 X215.997 Y196.465 E40.87118
G1 X215.827 Y198.16 E40.92793
G1 X215.884 Y199.862 E40.98466
G1 X216.166 Y201.542 E41.0414
G1 X216.671 Y203.169 E41.09815
G1 X217.388 Y204.713 E41.15485
G1 X218.304 Y206.15 E41.21162
G1 X219.405 Y207.45 E41.26836
G1 X220.668 Y208.593 E41.32511
G1 X222.072 Y209.557 E41.38184
G1 X223.592 Y210.325 E41.43856
G1 X225.201 Y210.884 E41.4953
G1 X226.871 Y211.223 E41.55207
G1 X228.57 Y211.337 E41.60879
G1 X230.269 Y211.223 E41.66551
G1 X231.938 Y210.884 E41.72224
G1 X233.548 Y210.325 E41.77901
G1 X235.068 Y209.557 E41.83574
G1 X236.472 Y208.593 E41.89247
G1 X237.735 Y207.45 E41.94921
G1 X238.835 Y206.15 E42.00593
G1 X239.752 Y204.713 E42.06272
G1 X240.469 Y203.169 E42.11942
G1 X240.973 Y201.542 E42.17616
G1 X241.256 Y199.862 E42.23291
G1 X241.313 Y198.16 E42.28964
G1 X241.143 Y196.465 E42.34638
G1 X240.748 Y194.809 E42.40309
G1 X240.135 Y193.219 E42.45985
G1 X239.317 Y191.725 E42.51659
G1 X238.307 Y190.354 E42.57331
G1 X237.123 Y189.129 E42.63006
G1 X235.786 Y188.074 E42.68679
G1 X234.32 Y187.206 E42.74354
G1 X232.752 Y186.541 E42.80028
G1 X231.11 Y186.091 E42.85699
G1 X229.422 Y185.864 E42.91372
G1 X227.718 Y185.864 E42.97049
G0 F3937.5 X227.471 Y185.897
G0 X227.392 Y185.302
G0 X227.639 Y161.902
G0 X227.718 Y161.308
G1 F900 X229.422 Y161.308 E43.02725
G1 X231.11 Y161.082 E43.08398
G1 X232.752 Y160.631 E43.1407
G1 X234.32 Y159.967 E43.19742
G1 X235.786 Y159.099 E43.25417
G1 X237.123 Y158.043 E43.31092
G1 X238.307 Y156.818 E43.36767
G1 X239.317 Y155.447 E43.42439
G1 X240.135 Y153.954 E43.4811
G1 X240.748 Y152.364 E43.53786
G1 X241.143 Y150.707 E43.59461
G1 X241.313 Y149.012 E43.65135
G1 X241.256 Y147.31 E43.70808
G1 X240.973 Y145.63 E43.76483
G1 X240.469 Y144.003 E43.82156
G1 X239.752 Y142.459 E43.87827
G1 X238.835 Y141.022 E43.93505
G1 X237.735 Y139.722 E43.99178
G1 X236.472 Y138.579 E44.04852
G1 X235.068 Y137.615 E44.10525
G1 X233.548 Y136.847 E44.16198
G1 X231.938 Y136.288 E44.21875
G1 X230.269 Y135.95 E44.27547
G1 X228.57 Y135.835 E44.33219
G1 X226.871 Y135.95 E44.38892
G1 X225.201 Y136.288 E44.44567
G1 X223.592 Y136.847 E44.50241
G1 X222.072 Y137.615 E44.55914
G1 X220.668 Y138.579 E44.61587
G1 X219.405 Y139.722 E44.67261
G1 X218.304 Y141.022 E44.72936
G1 X217.388 Y142.459 E44.78612
G1 X216.671 Y144.003 E44.84283
G1 X216.166 Y145.63 E44.89958
G1 X215.884 Y147.31 E44.95632
G1 X215.827 Y149.012 E45.01305
G1 X215.997 Y150.707 E45.06979
G1 X216.392 Y152.364 E45.12653
G1 X217.004 Y153.954 E45.18329
G1 X217.823 Y155.447 E45.24001
G1 X218.833 Y156.818 E45.29673
G1 X220.017 Y158.043 E45.35348
G1 X221.354 Y159.099 E45.41023
G1 X222.819 Y159.967 E45.46696
G1 X224.388 Y160.631 E45.52371
G1 X226.03 Y161.082 E45.58043
G1 X227.718 Y161.308 E45.63716
G0 F3937.5 X227.968 Y161.308
G0 X227.968 Y161.908
G0 X225.923 Y161.612
G0 X224.211 Y161.141
G0 X222.575 Y160.449
G0 X221.048 Y159.544
G0 X219.655 Y158.444
G0 X218.42 Y157.166
G0 X217.368 Y155.738
G0 X216.513 Y154.181
G0 X215.875 Y152.523
G0 X215.464 Y150.796
G0 X215.287 Y149.03
G0 X215.346 Y147.257
G0 X215.64 Y145.505
G0 X216.166 Y143.809
G0 X228.532 Y111.934
G0 X228.57 Y111.337
G1 F900 X230.269 Y111.223 E45.69388
G1 X231.938 Y110.884 E45.75061
G1 X233.548 Y110.325 E45.80738
G1 X235.068 Y109.557 E45.86411
G1 X236.472 Y108.593 E45.92084
G1 X237.735 Y107.45 E45.97758
G1 X238.835 Y106.15 E46.03431
G1 X239.752 Y104.713 E46.09109
G1 X240.469 Y103.169 E46.14779
G1 X240.973 Y101.542 E46.20453
G1 X241.256 Y99.862 E46.26128
G1 X241.313 Y98.16 E46.31801
G1 X241.143 Y96.465 E46.37475
G1 X240.748 Y94.809 E46.43146
G1 X240.136 Y93.219 E46.48821
G1 X239.317 Y91.725 E46.54496
G1 X238.307 Y90.354 E46.60169
G1 X237.123 Y89.129 E46.65844
G1 X235.786 Y88.074 E46.71517
G1 X234.32 Y87.206 E46.77192
G1 X232.752 Y86.541 E46.82865
G1 X231.11 Y86.091 E46.88537
G1 X229.422 Y85.864 E46.9421
G1 X227.718 Y85.864 E46.99886
G1 X226.03 Y86.091 E47.05559
G1 X224.388 Y86.541 E47.11231
G1 X222.819 Y87.206 E47.16907
G1 X221.354 Y88.074 E47.22579
G1 X220.017 Y89.129 E47.28252
G1 X218.833 Y90.354 E47.33927
G1 X217.823 Y91.725 E47.396
G1 X217.004 Y93.219 E47.45275
G1 X216.392 Y94.809 E47.5095
G1 X215.997 Y96.465 E47.56621
G1 X215.827 Y98.16 E47.62296
G1 X215.884 Y99.862 E47.67968
G1 X216.166 Y101.542 E47.73643
G1 X216.671 Y103.169 E47.79317
G1 X217.388 Y104.713 E47.84988
G1 X218.304 Y106.15 E47.90664
G1 X219.405 Y107.45 E47.96339
G1 X220.668 Y108.593 E48.02013
G1 X222.072 Y109.557 E48.07686
G1 X223.592 Y110.325 E48.13359
G1 X225.201 Y110.884 E48.19033
G1 X226.871 Y111.223 E48.24709
G1 X228.57 Y111.337 E48.30381
G0 F3937.5 X228.819 Y111.321
G0 X228.858 Y111.919
G0 X226.799 Y111.759
G0 X225.059 Y111.405
G0 X223.381 Y110.822
G0 X221.797 Y110.022
G0 X220.333 Y109.017
G0 X219.017 Y107.825
G0 X217.869 Y106.47
G0 X216.914 Y104.973
G0 X216.166 Y103.363
G0 X206.89 Y71.406
G0 X206.32 Y70.836
G1 F900 X251.82 Y70.836 E49.81943
G1 X251.82 Y223.836 E54.91592
G1 X269.82 Y223.836 E55.51551
G1 X269.82 Y230.336 E55.73202
G1 X186.32 Y230.336 E58.51344
G1 X186.32 Y223.836 E58.72996
G1 X206.32 Y223.836 E59.39616
G1 X206.32 Y70.836 E64.49265
G0 F3937.5 X206.57 Y70.836
G0 X206.89 Y71.406
G0 X207.325 Y71.561
;TYPE:SKIN
G1 F900 X222.384 Y86.619 E65.20202
G1 X222.472 Y86.707
G0 F3937.5 X221.94 Y86.882
G1 F900 X207.044 Y71.987 E65.90372
G1 X206.956 Y71.899
G0 F3937.5 X207.044 Y72.694
G1 F900 X221.496 Y87.145 E66.5845
G1 X221.584 Y87.233
G0 F3937.5 X221.052 Y87.409
G1 F900 X207.044 Y73.401 E67.24439
G1 X206.956 Y73.313
G0 F3937.5 X207.044 Y74.108
G1 F900 X220.644 Y87.708 E67.88506
G1 X220.732 Y87.796
G0 F3937.5 X220.249 Y88.02
G1 F900 X207.044 Y74.815 E68.50712
G1 X206.956 Y74.727
G0 F3937.5 X207.044 Y75.522
G1 F900 X219.854 Y88.332 E69.11057
G1 X219.942 Y88.42
G0 F3937.5 X219.468 Y88.653
G1 F900 X207.044 Y76.229 E69.69584
G1 X206.956 Y76.141
G0 F3937.5 X207.044 Y76.936
G1 F900 X219.121 Y89.013 E70.26476
G1 X219.209 Y89.101
G0 F3937.5 X218.773 Y89.372
G1 F900 X207.044 Y77.643 E70.81729
G1 X206.956 Y77.555
G0 F3937.5 X207.044 Y78.35
G1 F900 X218.425 Y89.732 E71.35345
G1 X218.513 Y89.82
G0 F3937.5 X218.105 Y90.119
G1 F900 X207.044 Y79.058 E71.87451
G1 X206.956 Y78.97
G0 F3937.5 X207.044 Y79.765
G1 F900 X217.805 Y90.526 E72.38144
G1 X217.893 Y90.614
G0 F3937.5 X217.506 Y90.933
G1 F900 X207.044 Y80.472 E72.87426
G1 X206.956 Y80.384
G0 F3937.5 X207.044 Y81.179
G1 F900 X217.206 Y91.341 E73.35297
G1 X217.294 Y91.429
G0 F3937.5 X216.955 Y91.798
G1 F900 X207.044 Y81.886 E73.81988
G1 X206.956 Y81.798
G0 F3937.5 X207.044 Y82.593
G1 F900 X216.705 Y92.254 E74.27499
G1 X216.793 Y92.342
G0 F3937.5 X216.455 Y92.711
G1 F900 X207.044 Y83.3 E74.71833
G1 X206.956 Y83.212
G0 F3937.5 X207.044 Y84.007
G1 F900 X216.235 Y93.198 E75.1513
G1 X216.323 Y93.286
G0 F3937.5 X216.038 Y93.709
G1 F900 X207.044 Y84.714 E75.57501
G1 X206.956 Y84.626
G0 F3937.5 X207.044 Y85.422
G1 F900 X215.842 Y94.219 E75.98944
